; generated by PrusaSlicer 2.2.0+linux-x64 on 2020-06-30 at 16:16:53 UTC

; 

; external perimeters extrusion width = 0.45mm
; perimeters extrusion width = 0.45mm
; infill extrusion width = 0.45mm
; solid infill extrusion width = 0.45mm
; top infill extrusion width = 0.40mm
; first layer extrusion width = 0.42mm

M73 P0 R107
M73 Q0 S109
M201 X1000 Y1000 Z200 E5000 ; sets maximum accelerations, mm/sec^2
M203 X200 Y200 Z12 E120 ; sets maximum feedrates, mm/sec
M204 P1250 R1250 T1250 ; sets acceleration (P, T) and retract acceleration (R), mm/sec^2
M205 X8.00 Y8.00 Z0.40 E4.50 ; sets the jerk limits, mm/sec
M205 S0 T0 ; sets the minimum extruding and travel feed rate, mm/sec
M107
M862.3 P "MK3" ; printer model check
M862.1 P0.4 ; nozzle diameter check
M115 U3.9.0 ; tell printer latest fw version
G90 ; use absolute coordinates
M83 ; extruder relative mode
M104 S215 ; set extruder temp
M140 S60 ; set bed temp
M190 S60 ; wait for bed temp
M109 S215 ; wait for extruder temp
G28 W ; home all without mesh bed level
G80 ; mesh bed leveling
G1 Y-3.0 F1000.0 ; go outside print area
G92 E0.0
G1 X60.0 E9.0 F1000.0 ; intro line
M73 Q0 S108
M73 P0 R107
G1 X100.0 E12.5 F1000.0 ; intro line
G92 E0.0
M221 S95
G21 ; set units to millimeters
G90 ; use absolute coordinates
M83 ; use relative distances for extrusion
M900 K0.06 ; Filament gcode LA 1.5
M900 K30 ; Filament gcode LA 1.0
;BEFORE_LAYER_CHANGE
G92 E0.0
;0.2


G1 E-0.80000 F2100.00000
G1 Z0.600 F10800.000
;AFTER_LAYER_CHANGE
;0.2
G1 X105.315 Y14.571
G1 Z0.200
G1 E0.80000 F2100.00000
M204 S1000
G1 F1200.000
G1 X105.813 Y14.024 E0.02319
G1 X106.454 Y13.655 E0.02319
G1 X107.178 Y13.502 E0.02319
G1 X139.766 Y12.850 E1.02197
G1 X151.482 Y12.850 E0.36734
G1 X152.370 Y13.023 E0.02837
G1 X153.126 Y13.514 E0.02825
G1 X153.645 Y14.250 E0.02825
G1 X153.853 Y15.130 E0.02837
G1 X158.803 Y190.160 E5.49011
G1 X158.718 Y190.860 E0.02213
G1 X158.410 Y191.537 E0.02331
G1 X157.905 Y192.088 E0.02343
G1 X157.254 Y192.455 E0.02343
G1 X156.522 Y192.602 E0.02343
G1 X116.902 Y193.253 E1.24240
G1 X102.342 Y193.253 E0.45654
G1 X101.721 Y193.168 E0.01965
G1 X101.013 Y192.839 E0.02449
G1 X100.449 Y192.298 E0.02449
G1 X100.091 Y191.604 E0.02449
G1 X99.977 Y190.832 E0.02449
G1 X104.926 Y15.809 E5.48990
G1 X105.010 Y15.245 E0.01787
G1 X105.291 Y14.626 E0.02131
G1 F8640.000
G1 X105.813 Y14.024 E-0.18404
G1 X106.454 Y13.655 E-0.17081
G1 X107.178 Y13.502 E-0.17081
G1 X108.193 Y13.482 E-0.23434
G1 E-0.04000 F2100.00000
G1 Z0.800 F10800.000
G1 X108.081 Y16.663
G1 Z0.200
G1 E0.80000 F2100.00000
G1 F1200.000
G1 X118.188 Y16.663 E0.31691
G1 X118.149 Y32.127 E0.48485
G1 X118.169 Y48.208 E0.50422
G1 X118.260 Y69.982 E0.68272
G1 X118.489 Y114.938 E1.40955
G1 X118.502 Y130.910 E0.50080
G1 X118.442 Y141.929 E0.34549
G1 X118.381 Y147.290 E0.16812
G1 X118.288 Y152.803 E0.17286
G1 X118.162 Y158.136 E0.16726
G1 X117.987 Y163.616 E0.17193
G1 X117.758 Y169.089 E0.17174
G1 X117.467 Y174.506 E0.17009
G1 X117.103 Y179.911 E0.16987
G1 X116.653 Y185.308 E0.16980
G1 X116.171 Y190.089 E0.15066
G1 X103.320 Y190.089 E0.40293
G1 X104.070 Y186.437 E0.11689
G1 X104.511 Y184.124 E0.07383
G1 X105.324 Y179.492 E0.14745
G1 X105.699 Y177.165 E0.07390
G1 X106.383 Y172.505 E0.14768
G1 X106.695 Y170.165 E0.07404
G1 X107.256 Y165.476 E0.14806
G1 X107.738 Y160.769 E0.14836
G1 X107.950 Y158.406 E0.07440
G1 X108.318 Y153.672 E0.14885
G1 X108.514 Y150.653 E0.09488
G1 X108.682 Y147.626 E0.09503
G1 X108.825 Y144.592 E0.09524
G1 X109.037 Y138.508 E0.19088
G1 X109.111 Y135.453 E0.09582
G1 X109.198 Y129.329 E0.19203
G1 X109.216 Y123.181 E0.19277
G1 X109.176 Y117.010 E0.19349
G1 X109.090 Y110.818 E0.19416
G1 X108.970 Y104.606 E0.19480
G1 X108.213 Y72.081 E1.02008
G1 X108.030 Y61.233 E0.34019
G1 X107.968 Y55.669 E0.17446
G1 X107.929 Y50.118 E0.17404
G1 X107.909 Y39.060 E0.34673
G1 X107.961 Y28.069 E0.34462
G1 X108.080 Y16.723 E0.35575
G1 X107.708 Y16.286 F10800.000
G1 F1200.000
G1 X118.566 Y16.286 E0.34047
G1 X118.526 Y32.127 E0.49668
G1 X118.546 Y48.207 E0.50418
G1 X118.637 Y69.981 E0.68270
G1 X118.866 Y114.936 E1.40957
G1 X118.879 Y130.911 E0.50086
G1 X118.819 Y141.932 E0.34556
G1 X118.758 Y147.296 E0.16819
G1 X118.665 Y152.810 E0.17293
G1 X118.539 Y158.146 E0.16735
G1 X118.364 Y163.630 E0.17204
G1 X118.135 Y169.107 E0.17187
G1 X117.844 Y174.529 E0.17024
G1 X117.479 Y179.940 E0.17004
G1 X117.029 Y185.342 E0.16997
G1 X116.768 Y188.039 E0.08496
G1 X116.510 Y190.466 E0.07652
G1 X102.858 Y190.466 E0.42806
G1 X103.700 Y186.364 E0.13130
G1 X104.140 Y184.056 E0.07366
G1 X104.952 Y179.430 E0.14728
G1 X105.326 Y177.108 E0.07374
G1 X106.010 Y172.453 E0.14751
G1 X106.320 Y170.117 E0.07388
G1 X106.881 Y165.434 E0.14788
G1 X107.362 Y160.733 E0.14818
G1 X107.574 Y158.374 E0.07425
G1 X107.941 Y153.646 E0.14870
G1 X108.137 Y150.630 E0.09475
G1 X108.306 Y147.607 E0.09492
G1 X108.448 Y144.577 E0.09512
G1 X108.660 Y138.497 E0.19075
G1 X108.734 Y135.446 E0.09569
G1 X108.821 Y129.326 E0.19191
G1 X108.838 Y123.182 E0.19265
G1 X108.799 Y117.014 E0.19339
G1 X108.713 Y110.824 E0.19409
G1 X108.593 Y104.614 E0.19475
G1 X107.836 Y72.089 E1.02010
M73 Q0 S107
M73 P1 R106
G1 X107.653 Y61.238 E0.34026
G1 X107.591 Y55.672 E0.17451
G1 X107.552 Y50.120 E0.17409
G1 X107.532 Y39.059 E0.34680
G1 X107.584 Y28.066 E0.34469
G1 X107.707 Y16.346 E0.36749
G1 X108.053 Y16.487 F10800.000
G1 F8640.000
G1 X110.998 Y16.328 E-0.76000
G1 E-0.04000 F2100.00000
G1 Z0.800 F10800.000
G1 X104.217 Y189.976
G1 Z0.200
G1 E0.80000 F2100.00000
G1 F1200.000
G1 X103.732 Y189.490 E0.02156
G1 X103.823 Y189.047 E0.01419
G1 X104.582 Y189.806 E0.03368
G1 X105.115 Y189.806 E0.01675
G1 X103.914 Y188.605 E0.05333
G1 X104.005 Y188.162 E0.01419
G1 X105.649 Y189.806 E0.07299
G1 X106.183 Y189.806 E0.01675
G1 X104.096 Y187.719 E0.09264
G1 X104.187 Y187.276 E0.01419
G1 X106.717 Y189.806 E0.11230
G1 X107.250 Y189.806 E0.01675
G1 X104.278 Y186.833 E0.13195
G1 X104.367 Y186.389 E0.01422
G1 X107.784 Y189.806 E0.15166
G1 X108.318 Y189.806 E0.01675
G1 X104.453 Y185.941 E0.17156
G1 X104.538 Y185.493 E0.01433
G1 X108.852 Y189.806 E0.19146
G1 X109.386 Y189.806 E0.01675
G1 X104.624 Y185.044 E0.21137
G1 X104.709 Y184.596 E0.01433
G1 X109.919 Y189.806 E0.23127
G1 X110.453 Y189.806 E0.01675
G1 X104.794 Y184.147 E0.25119
G1 X104.874 Y183.693 E0.01447
G1 X110.987 Y189.806 E0.27134
G1 X111.521 Y189.806 E0.01675
G1 X104.953 Y183.239 E0.29150
G1 X105.033 Y182.785 E0.01447
G1 X112.055 Y189.806 E0.31165
G1 X112.588 Y189.806 E0.01675
G1 X105.113 Y182.331 E0.33180
G1 X105.193 Y181.877 E0.01447
G1 X113.122 Y189.806 E0.35196
G1 X113.656 Y189.806 E0.01675
G1 X105.272 Y181.423 E0.37211
G1 X105.352 Y180.968 E0.01447
G1 X114.190 Y189.806 E0.39227
G1 X114.724 Y189.806 E0.01675
G1 X105.432 Y180.514 E0.41242
G1 X105.511 Y180.060 E0.01447
G1 X115.257 Y189.806 E0.43258
G1 X115.791 Y189.806 E0.01675
G1 X105.591 Y179.606 E0.45273
G1 X105.666 Y179.147 E0.01459
G1 X115.953 Y189.434 E0.45658
G1 X116.002 Y188.949 E0.01530
G1 X105.740 Y178.688 E0.45546
G1 X105.814 Y178.228 E0.01462
G1 X116.051 Y188.464 E0.45435
G1 X116.099 Y187.979 E0.01530
G1 X105.888 Y177.768 E0.45323
G1 X105.962 Y177.308 E0.01462
G1 X116.148 Y187.494 E0.45212
G1 X116.197 Y187.010 E0.01530
G1 X106.032 Y176.844 E0.45120
G1 X106.100 Y176.379 E0.01476
G1 X116.246 Y186.525 E0.45034
G1 X116.295 Y186.040 E0.01530
G1 X106.168 Y175.913 E0.44948
G1 X106.237 Y175.448 E0.01476
G1 X116.344 Y185.555 E0.44861
G1 X116.389 Y185.067 E0.01539
G1 X106.305 Y174.982 E0.44760
G1 X106.373 Y174.517 E0.01476
G1 X116.431 Y184.574 E0.44638
G1 X116.472 Y184.081 E0.01552
G1 X106.442 Y174.051 E0.44517
G1 X106.510 Y173.586 E0.01476
G1 X116.513 Y183.588 E0.44396
G1 X116.554 Y183.096 E0.01552
G1 X106.579 Y173.120 E0.44275
G1 X106.647 Y172.655 E0.01476
G1 X116.595 Y182.603 E0.44154
G1 X116.636 Y182.110 E0.01552
G1 X106.711 Y172.185 E0.44052
G1 X106.774 Y171.714 E0.01492
G1 X116.677 Y181.617 E0.43955
G1 X116.718 Y181.125 E0.01552
G1 X106.836 Y171.243 E0.43859
G1 X106.899 Y170.772 E0.01492
G1 X116.759 Y180.632 E0.43763
G1 X116.800 Y180.139 E0.01552
G1 X106.962 Y170.301 E0.43667
G1 X107.020 Y169.825 E0.01504
G1 X116.837 Y179.643 E0.43575
G1 X116.871 Y179.143 E0.01573
G1 X107.077 Y169.349 E0.43471
G1 X107.134 Y168.872 E0.01507
G1 X116.905 Y178.643 E0.43368
G1 X116.939 Y178.143 E0.01573
G1 X107.191 Y168.395 E0.43264
G1 X107.248 Y167.918 E0.01507
G1 X116.972 Y177.643 E0.43161
G1 X117.006 Y177.143 E0.01573
G1 X107.305 Y167.442 E0.43057
G1 X107.362 Y166.965 E0.01507
G1 X117.040 Y176.642 E0.42954
G1 X117.074 Y176.142 E0.01573
G1 X107.419 Y166.488 E0.42850
G1 X107.476 Y166.011 E0.01507
G1 X117.107 Y175.642 E0.42747
G1 X117.141 Y175.142 E0.01573
G1 X107.533 Y165.535 E0.42643
G1 X107.584 Y165.051 E0.01526
G1 X117.175 Y174.642 E0.42571
G1 X117.204 Y174.138 E0.01586
G1 X107.633 Y164.567 E0.42481
G1 X107.683 Y164.083 E0.01528
G1 X117.231 Y173.631 E0.42381
G1 X117.258 Y173.124 E0.01592
G1 X107.732 Y163.598 E0.42282
G1 X107.782 Y163.114 E0.01528
G1 X117.286 Y172.618 E0.42182
G1 X117.313 Y172.111 E0.01592
G1 X107.831 Y162.630 E0.42083
G1 X107.881 Y162.146 E0.01528
G1 X117.340 Y171.605 E0.41984
G1 X117.367 Y171.098 E0.01592
G1 X107.931 Y161.662 E0.41884
G1 X107.980 Y161.177 E0.01528
G1 X117.394 Y170.591 E0.41785
G1 X117.422 Y170.085 E0.01592
G1 X108.029 Y160.692 E0.41691
G1 X108.073 Y160.202 E0.01543
G1 X117.449 Y169.578 E0.41616
G1 X117.476 Y169.072 E0.01592
G1 X108.117 Y159.712 E0.41542
G1 X108.161 Y159.223 E0.01543
G1 X117.497 Y168.559 E0.41441
G1 X117.519 Y168.047 E0.01609
G1 X108.205 Y158.733 E0.41341
G1 X108.246 Y158.241 E0.01549
G1 X117.540 Y167.535 E0.41250
G1 X117.562 Y167.022 E0.01609
G1 X108.285 Y157.746 E0.41175
G1 X108.323 Y157.250 E0.01559
G1 X117.583 Y166.510 E0.41099
G1 X117.605 Y165.998 E0.01609
G1 X108.362 Y156.755 E0.41024
G1 X108.400 Y156.260 E0.01559
G1 X117.626 Y165.485 E0.40948
G1 X117.647 Y164.973 E0.01609
G1 X108.439 Y155.764 E0.40873
G1 X108.477 Y155.269 E0.01559
G1 X117.669 Y164.460 E0.40797
G1 X117.690 Y163.948 E0.01609
G1 X108.516 Y154.774 E0.40721
G1 X108.554 Y154.278 E0.01559
G1 X117.710 Y163.434 E0.40639
G1 X117.727 Y162.917 E0.01624
G1 X108.593 Y153.783 E0.40541
G1 X108.626 Y153.283 E0.01573
G1 X117.743 Y162.399 E0.40465
G1 X117.759 Y161.882 E0.01624
G1 X108.659 Y152.781 E0.40393
G1 X108.691 Y152.280 E0.01576
G1 X117.776 Y161.365 E0.40322
G1 X117.792 Y160.847 E0.01624
G1 X108.724 Y151.779 E0.40251
G1 X108.756 Y151.278 E0.01576
G1 X117.809 Y160.330 E0.40179
G1 X117.825 Y159.813 E0.01624
G1 X108.789 Y150.776 E0.40108
G1 X108.818 Y150.272 E0.01587
G1 X117.842 Y159.295 E0.40052
G1 X117.858 Y158.778 E0.01624
G1 X108.846 Y149.766 E0.40000
G1 X108.874 Y149.261 E0.01589
G1 X117.875 Y158.261 E0.39948
G1 X117.888 Y157.740 E0.01634
G1 X108.903 Y148.755 E0.39882
G1 X108.931 Y148.249 E0.01589
G1 X117.900 Y157.219 E0.39812
M73 Q1 S106
G1 X117.913 Y156.697 E0.01637
G1 X108.959 Y147.744 E0.39742
M73 P1 R105
G1 X108.984 Y147.235 E0.01599
G1 X117.925 Y156.176 E0.39686
G1 X117.937 Y155.654 E0.01637
G1 X109.008 Y146.725 E0.39635
G1 X109.032 Y146.215 E0.01602
G1 X117.950 Y155.133 E0.39583
G1 X117.962 Y154.612 E0.01637
G1 X109.056 Y145.705 E0.39531
G1 X109.080 Y145.195 E0.01602
G1 X117.974 Y154.090 E0.39480
G1 X117.987 Y153.569 E0.01637
G1 X109.103 Y144.685 E0.39428
G1 X109.122 Y144.171 E0.01617
G1 X117.999 Y153.047 E0.39399
G1 X118.009 Y152.524 E0.01643
G1 X109.140 Y143.655 E0.39365
G1 X109.158 Y143.139 E0.01620
G1 X118.018 Y151.999 E0.39325
G1 X118.027 Y151.474 E0.01648
G1 X109.177 Y142.623 E0.39284
G1 X109.195 Y142.108 E0.01620
G1 X118.036 Y150.949 E0.39244
G1 X118.045 Y150.424 E0.01648
G1 X109.213 Y141.592 E0.39203
G1 X109.231 Y141.076 E0.01620
G1 X118.054 Y149.899 E0.39163
G1 X118.063 Y149.374 E0.01648
G1 X109.249 Y140.560 E0.39122
G1 X109.267 Y140.044 E0.01620
G1 X118.072 Y148.850 E0.39081
G1 X118.081 Y148.325 E0.01648
G1 X109.285 Y139.529 E0.39041
G1 X109.303 Y139.013 E0.01620
G1 X118.090 Y147.800 E0.39000
G1 X118.098 Y147.275 E0.01648
G1 X109.321 Y138.497 E0.38960
G1 X109.333 Y137.976 E0.01637
G1 X118.104 Y146.747 E0.38932
G1 X118.110 Y146.219 E0.01656
G1 X109.345 Y137.454 E0.38903
G1 X109.358 Y136.933 E0.01637
G1 X118.116 Y145.692 E0.38875
G1 X118.123 Y145.164 E0.01656
G1 X109.370 Y136.412 E0.38846
G1 X109.383 Y135.890 E0.01637
G1 X118.129 Y144.636 E0.38817
G1 X118.135 Y144.108 E0.01656
G1 X109.395 Y135.368 E0.38793
G1 X109.402 Y134.842 E0.01652
G1 X118.141 Y143.581 E0.38786
G1 X118.147 Y143.053 E0.01656
G1 X109.410 Y134.316 E0.38780
G1 X109.417 Y133.789 E0.01652
G1 X118.153 Y142.525 E0.38773
G1 X118.159 Y141.997 E0.01656
G1 X109.425 Y133.263 E0.38767
G1 X109.432 Y132.737 E0.01652
G1 X118.162 Y141.467 E0.38748
G1 X118.165 Y140.936 E0.01666
G1 X109.440 Y132.210 E0.38728
G1 X109.447 Y131.684 E0.01652
G1 X118.168 Y140.405 E0.38707
G1 X118.171 Y139.874 E0.01666
G1 X109.454 Y131.158 E0.38687
G1 X109.462 Y130.631 E0.01652
G1 X118.173 Y139.343 E0.38666
G1 X118.176 Y138.812 E0.01666
G1 X109.469 Y130.105 E0.38646
G1 X109.477 Y129.579 E0.01652
G1 X118.179 Y138.281 E0.38625
G1 X118.182 Y137.750 E0.01666
G1 X109.481 Y129.049 E0.38619
G1 X109.483 Y128.517 E0.01670
G1 X118.185 Y137.219 E0.38624
G1 X118.188 Y136.688 E0.01666
G1 X109.484 Y127.985 E0.38630
G1 X109.486 Y127.453 E0.01670
G1 X118.191 Y136.157 E0.38636
G1 X118.193 Y135.626 E0.01666
G1 X109.487 Y126.920 E0.38642
G1 X109.489 Y126.388 E0.01670
G1 X118.196 Y135.095 E0.38647
G1 X118.199 Y134.565 E0.01666
G1 X109.491 Y125.856 E0.38653
G1 X109.492 Y125.324 E0.01670
G1 X118.202 Y134.034 E0.38659
G1 X118.205 Y133.503 E0.01666
G1 X109.494 Y124.791 E0.38665
G1 X109.495 Y124.259 E0.01670
G1 X118.208 Y132.972 E0.38671
G1 X118.211 Y132.441 E0.01666
G1 X109.497 Y123.727 E0.38676
G1 X109.498 Y123.195 E0.01670
G1 X118.213 Y131.910 E0.38682
G1 X118.216 Y131.379 E0.01666
G1 X109.495 Y122.658 E0.38710
G1 X109.492 Y122.120 E0.01686
G1 X118.219 Y130.848 E0.38736
G1 X118.218 Y130.313 E0.01677
G1 X109.488 Y121.583 E0.38749
G1 X109.485 Y121.046 E0.01686
G1 X118.218 Y129.779 E0.38763
G1 X118.217 Y129.245 E0.01677
G1 X109.481 Y120.509 E0.38776
G1 X109.478 Y119.971 E0.01686
G1 X118.217 Y128.711 E0.38790
G1 X118.217 Y128.176 E0.01677
G1 X109.474 Y119.434 E0.38803
G1 X109.471 Y118.897 E0.01686
G1 X118.216 Y127.642 E0.38816
G1 X118.216 Y127.108 E0.01677
G1 X109.467 Y118.360 E0.38830
G1 X109.464 Y117.822 E0.01686
G1 X118.215 Y126.574 E0.38843
G1 X118.215 Y126.040 E0.01677
G1 X109.460 Y117.285 E0.38857
G1 X109.455 Y116.746 E0.01692
G1 X118.214 Y125.505 E0.38879
G1 X118.214 Y124.971 E0.01677
G1 X109.448 Y116.205 E0.38910
G1 X109.440 Y115.663 E0.01699
G1 X118.214 Y124.437 E0.38941
G1 X118.213 Y123.903 E0.01677
G1 X109.433 Y115.122 E0.38973
G1 X109.425 Y114.581 E0.01699
G1 X118.213 Y123.368 E0.39004
G1 X118.212 Y122.834 E0.01677
G1 X109.418 Y114.039 E0.39035
G1 X109.410 Y113.498 E0.01699
G1 X118.212 Y122.300 E0.39067
G1 X118.211 Y121.766 E0.01677
G1 X109.403 Y112.957 E0.39098
G1 X109.395 Y112.416 E0.01699
G1 X118.211 Y121.231 E0.39129
G1 X118.211 Y120.697 E0.01677
G1 X109.388 Y111.874 E0.39161
G1 X109.380 Y111.333 E0.01699
G1 X118.210 Y120.163 E0.39192
G1 X118.210 Y119.629 E0.01677
G1 X109.372 Y110.792 E0.39224
G1 X109.362 Y110.247 E0.01709
G1 X118.209 Y119.095 E0.39269
G1 X118.209 Y118.560 E0.01677
G1 X109.351 Y109.703 E0.39313
G1 X109.341 Y109.159 E0.01709
G1 X118.208 Y118.026 E0.39358
G1 X118.208 Y117.492 E0.01677
G1 X109.330 Y108.614 E0.39403
G1 X109.320 Y108.070 E0.01709
G1 X118.207 Y116.958 E0.39448
G1 X118.207 Y116.423 E0.01677
G1 X109.309 Y107.526 E0.39493
G1 X109.299 Y106.981 E0.01709
G1 X118.207 Y115.889 E0.39537
G1 X118.206 Y115.355 E0.01677
G1 X109.288 Y106.437 E0.39582
G1 X109.278 Y105.893 E0.01709
G1 X118.205 Y114.820 E0.39625
G1 X118.202 Y114.284 E0.01684
G1 X109.267 Y105.348 E0.39659
G1 X109.257 Y104.804 E0.01709
G1 X118.200 Y113.747 E0.39694
G1 X118.197 Y113.211 E0.01684
G1 X109.245 Y104.258 E0.39735
G1 X109.232 Y103.712 E0.01716
G1 X118.194 Y112.674 E0.39779
G1 X118.192 Y112.138 E0.01684
G1 X109.219 Y103.165 E0.39823
G1 X109.207 Y102.619 E0.01716
G1 X118.189 Y111.601 E0.39868
G1 X118.186 Y111.065 E0.01684
G1 X109.194 Y102.072 E0.39912
G1 X109.181 Y101.526 E0.01716
