; generated by PrusaSlicer 2.2.0+linux-x64 on 2020-06-30 at 18:07:00 UTC

; 

; external perimeters extrusion width = 0.45mm
; perimeters extrusion width = 0.45mm
; infill extrusion width = 0.45mm
; solid infill extrusion width = 0.45mm
; top infill extrusion width = 0.40mm
; first layer extrusion width = 0.42mm

M73 P0 R91
M73 Q0 S92
M201 X1000 Y1000 Z200 E5000 ; sets maximum accelerations, mm/sec^2
M203 X200 Y200 Z12 E120 ; sets maximum feedrates, mm/sec
M204 P1250 R1250 T1250 ; sets acceleration (P, T) and retract acceleration (R), mm/sec^2
M205 X8.00 Y8.00 Z0.40 E4.50 ; sets the jerk limits, mm/sec
M205 S0 T0 ; sets the minimum extruding and travel feed rate, mm/sec
M107
M862.3 P "MK3" ; printer model check
M862.1 P0.4 ; nozzle diameter check
M115 U3.9.0 ; tell printer latest fw version
G90 ; use absolute coordinates
M83 ; extruder relative mode
M104 S225 ; set extruder temp
M140 S60 ; set bed temp
M190 S60 ; wait for bed temp
M109 S225 ; wait for extruder temp
G28 W ; home all without mesh bed level
G80 ; mesh bed leveling
G1 Y-3.0 F1000.0 ; go outside print area
G92 E0.0
G1 X60.0 E9.0 F1000.0 ; intro line
M73 Q0 S92
M73 P0 R91
G1 X100.0 E12.5 F1000.0 ; intro line
G92 E0.0
M221 S95
G21 ; set units to millimeters
G90 ; use absolute coordinates
M83 ; use relative distances for extrusion
M900 K0.06 ; Filament gcode LA 1.5
M900 K30 ; Filament gcode LA 1.0
;BEFORE_LAYER_CHANGE
G92 E0.0
;0.2


G1 E-0.80000 F2100.00000
G1 Z0.600 F10800.000
;AFTER_LAYER_CHANGE
;0.2
G1 X99.588 Y28.962
G1 Z0.200
G1 E0.80000 F2100.00000
M204 S1000
G1 F1200.000
G1 X99.922 Y28.336 E0.02225
G1 X100.423 Y27.839 E0.02213
G1 X101.052 Y27.509 E0.02225
G1 X101.745 Y27.380 E0.02213
G1 X145.815 Y26.952 E1.38182
G1 X157.348 Y26.952 E0.36162
G1 X158.253 Y27.132 E0.02896
G1 X159.022 Y27.645 E0.02896
G1 X159.537 Y28.411 E0.02896
G1 X159.721 Y29.316 E0.02896
G1 X159.724 Y52.976 E0.74183
G1 X159.542 Y77.553 E0.77062
G1 X158.209 Y179.364 E3.19249
G1 X158.073 Y180.122 E0.02414
G1 X157.739 Y180.748 E0.02225
G1 X157.235 Y181.247 E0.02225
G1 X156.606 Y181.576 E0.02225
G1 X155.912 Y181.704 E0.02213
G1 X115.030 Y182.133 E1.28188
G1 X103.314 Y182.133 E0.36734
G1 X102.549 Y181.997 E0.02437
G1 X101.917 Y181.659 E0.02249
G1 X101.414 Y181.147 E0.02249
G1 X101.087 Y180.509 E0.02249
G1 X100.964 Y179.803 E0.02249
G1 X99.541 Y68.607 E3.48674
G1 X99.428 Y38.980 E0.92894
G1 X99.452 Y29.716 E0.29046
G1 X99.577 Y29.021 E0.02214
G1 F8640.000
G1 X99.922 Y28.336 E-0.17709
G1 X100.423 Y27.839 E-0.16298
G1 X101.052 Y27.509 E-0.16385
G1 X101.745 Y27.380 E-0.16298
G1 X102.149 Y27.376 E-0.09309
G1 E-0.04000 F2100.00000
G1 Z0.800 F10800.000
G1 X146.622 Y30.116
G1 Z0.200
G1 E0.80000 F2100.00000
G1 F1200.000
G1 X156.559 Y30.116 E0.31157
G1 X156.583 Y40.983 E0.34074
G1 X156.560 Y52.962 E0.37560
G1 X156.474 Y67.367 E0.45166
G1 X156.378 Y77.517 E0.31827
G1 X156.129 Y96.973 E0.61007
G1 X155.532 Y134.328 E1.17139
G1 X155.276 Y152.530 E0.57077
G1 X155.100 Y170.269 E0.55620
G1 X155.050 Y178.542 E0.25939
G1 X144.955 Y178.542 E0.31653
G1 X145.091 Y169.183 E0.29347
G1 X145.863 Y124.112 E1.41338
G1 X146.085 Y109.157 E0.46896
G1 X146.317 Y90.588 E0.58224
G1 X146.483 Y73.541 E0.53453
G1 X146.599 Y55.838 E0.55509
G1 X146.635 Y42.353 E0.42280
G1 X146.622 Y30.176 E0.38181
G1 X146.245 Y29.739 F10800.000
G1 F1200.000
G1 X156.936 Y29.739 E0.33521
G1 X156.960 Y40.983 E0.35256
G1 X156.937 Y52.964 E0.37565
G1 X156.851 Y67.370 E0.45171
G1 X156.755 Y77.522 E0.31831
G1 X156.506 Y96.979 E0.61011
G1 X155.909 Y134.334 E1.17140
G1 X155.653 Y152.535 E0.57074
G1 X155.477 Y170.272 E0.55615
G1 X155.425 Y178.919 E0.27112
G1 X144.572 Y178.919 E0.34028
G1 X144.714 Y169.177 E0.30548
G1 X145.486 Y124.106 E1.41338
G1 X145.708 Y109.152 E0.46893
G1 X145.940 Y90.584 E0.58221
G1 X146.106 Y73.538 E0.53450
G1 X146.221 Y55.836 E0.55505
G1 X146.258 Y42.353 E0.42275
G1 X146.245 Y29.799 E0.39362
G1 X146.591 Y29.939 F10800.000
G1 F8640.000
G1 X149.536 Y29.780 E-0.76000
G1 E-0.04000 F2100.00000
G1 Z0.800 F10800.000
G1 X145.080 Y177.676
G1 Z0.200
G1 E0.80000 F2100.00000
G1 F1200.000
G1 X145.663 Y178.259 E0.02587
G1 X146.197 Y178.259 E0.01676
G1 X145.255 Y177.317 E0.04180
G1 X145.263 Y176.791 E0.01652
G1 X146.731 Y178.259 E0.06517
G1 X147.265 Y178.259 E0.01676
G1 X145.271 Y176.265 E0.08854
G1 X145.278 Y175.738 E0.01652
G1 X147.799 Y178.259 E0.11190
G1 X148.333 Y178.259 E0.01676
G1 X145.286 Y175.212 E0.13527
G1 X145.294 Y174.686 E0.01652
G1 X148.867 Y178.259 E0.15863
M73 Q1 S91
G1 X149.401 Y178.259 E0.01676
G1 X145.301 Y174.160 E0.18200
G1 X145.309 Y173.633 E0.01652
G1 X149.934 Y178.259 E0.20536
M73 P1 R90
G1 X150.468 Y178.259 E0.01676
G1 X145.317 Y173.107 E0.22873
G1 X145.324 Y172.581 E0.01652
G1 X151.002 Y178.259 E0.25209
G1 X151.536 Y178.259 E0.01676
G1 X145.332 Y172.055 E0.27546
G1 X145.340 Y171.528 E0.01652
G1 X152.070 Y178.259 E0.29882
G1 X152.604 Y178.259 E0.01676
G1 X145.347 Y171.002 E0.32219
G1 X145.355 Y170.476 E0.01652
G1 X153.138 Y178.259 E0.34556
G1 X153.672 Y178.259 E0.01676
G1 X145.363 Y169.949 E0.36892
G1 X145.370 Y169.423 E0.01652
G1 X154.206 Y178.259 E0.39229
G1 X154.740 Y178.259 E0.01676
G1 X145.379 Y168.898 E0.41562
G1 X145.388 Y168.373 E0.01648
G1 X154.772 Y177.757 E0.41663
G1 X154.775 Y177.226 E0.01666
G1 X145.397 Y167.848 E0.41637
G1 X145.406 Y167.323 E0.01648
G1 X154.778 Y176.695 E0.41612
G1 X154.781 Y176.164 E0.01666
G1 X145.415 Y166.798 E0.41586
G1 X145.424 Y166.273 E0.01648
G1 X154.785 Y175.634 E0.41561
G1 X154.788 Y175.103 E0.01666
G1 X145.433 Y165.748 E0.41535
G1 X145.442 Y165.223 E0.01648
G1 X154.791 Y174.572 E0.41509
G1 X154.794 Y174.042 E0.01666
G1 X145.451 Y164.698 E0.41484
G1 X145.460 Y164.173 E0.01648
G1 X154.798 Y173.511 E0.41458
G1 X154.801 Y172.980 E0.01666
G1 X145.469 Y163.648 E0.41433
G1 X145.478 Y163.123 E0.01648
G1 X154.804 Y172.449 E0.41407
G1 X154.807 Y171.919 E0.01666
G1 X145.487 Y162.598 E0.41382
G1 X145.496 Y162.073 E0.01648
G1 X154.811 Y171.388 E0.41356
G1 X154.814 Y170.857 E0.01666
G1 X145.505 Y161.548 E0.41330
G1 X145.514 Y161.023 E0.01648
G1 X154.817 Y170.326 E0.41305
G1 X154.822 Y169.798 E0.01661
G1 X145.523 Y160.498 E0.41287
G1 X145.532 Y159.973 E0.01648
G1 X154.827 Y169.269 E0.41271
G1 X154.832 Y168.740 E0.01660
G1 X145.541 Y159.448 E0.41254
G1 X145.550 Y158.923 E0.01648
G1 X154.838 Y168.211 E0.41237
G1 X154.843 Y167.683 E0.01660
G1 X145.559 Y158.398 E0.41220
G1 X145.568 Y157.873 E0.01648
G1 X154.848 Y167.154 E0.41204
G1 X154.853 Y166.625 E0.01660
G1 X145.577 Y157.348 E0.41187
G1 X145.586 Y156.823 E0.01648
G1 X154.859 Y166.096 E0.41170
G1 X154.864 Y165.568 E0.01660
G1 X145.595 Y156.299 E0.41154
G1 X145.604 Y155.774 E0.01648
G1 X154.869 Y165.039 E0.41137
G1 X154.874 Y164.510 E0.01660
G1 X145.613 Y155.249 E0.41120
G1 X145.622 Y154.724 E0.01648
G1 X154.880 Y163.982 E0.41104
G1 X154.885 Y163.453 E0.01660
G1 X145.631 Y154.199 E0.41087
G1 X145.640 Y153.674 E0.01648
G1 X154.890 Y162.924 E0.41070
G1 X154.895 Y162.395 E0.01660
G1 X145.649 Y153.149 E0.41054
G1 X145.658 Y152.624 E0.01648
G1 X154.900 Y161.867 E0.41037
G1 X154.906 Y161.338 E0.01660
G1 X145.667 Y152.099 E0.41020
G1 X145.676 Y151.574 E0.01648
G1 X154.911 Y160.809 E0.41004
G1 X154.916 Y160.281 E0.01660
G1 X145.685 Y151.049 E0.40987
G1 X145.694 Y150.524 E0.01648
G1 X154.921 Y159.752 E0.40970
G1 X154.927 Y159.223 E0.01660
G1 X145.703 Y149.999 E0.40954
G1 X145.712 Y149.474 E0.01648
G1 X154.932 Y158.694 E0.40937
G1 X154.937 Y158.166 E0.01660
G1 X145.721 Y148.949 E0.40920
G1 X145.730 Y148.424 E0.01648
G1 X154.942 Y157.637 E0.40903
G1 X154.948 Y157.108 E0.01660
G1 X145.739 Y147.899 E0.40887
G1 X145.747 Y147.374 E0.01648
G1 X154.953 Y156.579 E0.40870
G1 X154.958 Y156.051 E0.01660
G1 X145.756 Y146.849 E0.40853
G1 X145.765 Y146.324 E0.01648
G1 X154.963 Y155.522 E0.40837
G1 X154.969 Y154.993 E0.01660
G1 X145.774 Y145.799 E0.40820
G1 X145.783 Y145.274 E0.01648
G1 X154.974 Y154.465 E0.40803
G1 X154.979 Y153.936 E0.01660
G1 X145.792 Y144.749 E0.40787
G1 X145.801 Y144.224 E0.01648
G1 X154.984 Y153.407 E0.40770
G1 X154.989 Y152.878 E0.01660
G1 X145.810 Y143.699 E0.40753
G1 X145.819 Y143.174 E0.01648
G1 X154.995 Y152.350 E0.40740
G1 X155.003 Y151.824 E0.01653
G1 X145.828 Y142.649 E0.40733
G1 X145.837 Y142.125 E0.01648
G1 X155.010 Y151.297 E0.40726
G1 X155.018 Y150.771 E0.01653
G1 X145.846 Y141.600 E0.40719
G1 X145.855 Y141.075 E0.01648
G1 X155.025 Y150.244 E0.40712
G1 X155.033 Y149.718 E0.01653
G1 X145.864 Y140.550 E0.40705
G1 X145.873 Y140.025 E0.01648
G1 X155.040 Y149.191 E0.40698
G1 X155.047 Y148.665 E0.01653
G1 X145.882 Y139.500 E0.40691
G1 X145.891 Y138.975 E0.01648
G1 X155.055 Y148.138 E0.40684
G1 X155.062 Y147.612 E0.01653
G1 X145.900 Y138.450 E0.40677
G1 X145.909 Y137.925 E0.01648
G1 X155.070 Y147.085 E0.40670
G1 X155.077 Y146.559 E0.01653
G1 X145.918 Y137.400 E0.40663
G1 X145.927 Y136.875 E0.01648
G1 X155.085 Y146.032 E0.40657
G1 X155.092 Y145.506 E0.01653
G1 X145.936 Y136.350 E0.40650
G1 X145.945 Y135.825 E0.01648
G1 X155.099 Y144.979 E0.40643
G1 X155.107 Y144.453 E0.01653
G1 X145.954 Y135.300 E0.40636
G1 X145.963 Y134.775 E0.01648
G1 X155.114 Y143.926 E0.40629
G1 X155.122 Y143.399 E0.01653
G1 X145.972 Y134.250 E0.40622
G1 X145.981 Y133.725 E0.01648
G1 X155.129 Y142.873 E0.40615
G1 X155.136 Y142.346 E0.01653
G1 X145.990 Y133.200 E0.40608
G1 X145.999 Y132.675 E0.01648
G1 X155.144 Y141.820 E0.40601
G1 X155.151 Y141.293 E0.01653
G1 X146.008 Y132.150 E0.40594
G1 X146.017 Y131.625 E0.01648
G1 X155.159 Y140.767 E0.40587
G1 X155.166 Y140.240 E0.01653
G1 X146.026 Y131.100 E0.40580
G1 X146.035 Y130.575 E0.01648
G1 X155.174 Y139.714 E0.40573
G1 X155.181 Y139.187 E0.01653
G1 X146.044 Y130.050 E0.40566
G1 X146.053 Y129.525 E0.01648
G1 X155.188 Y138.661 E0.40559
G1 X155.196 Y138.134 E0.01653
G1 X146.062 Y129.000 E0.40552
G1 X146.071 Y128.475 E0.01648
G1 X155.203 Y137.608 E0.40545
G1 X155.211 Y137.081 E0.01653
G1 X146.080 Y127.951 E0.40538
G1 X146.089 Y127.426 E0.01648
G1 X155.218 Y136.555 E0.40531
M73 Q2 S90
G1 X155.226 Y136.028 E0.01653
G1 X146.098 Y126.901 E0.40525
M73 P2 R89
G1 X146.107 Y126.376 E0.01648
G1 X155.233 Y135.502 E0.40518
G1 X155.240 Y134.975 E0.01653
G1 X146.116 Y125.851 E0.40511
G1 X146.125 Y125.326 E0.01648
G1 X155.248 Y134.448 E0.40504
G1 X155.256 Y133.923 E0.01651
G1 X146.134 Y124.801 E0.40500
G1 X146.143 Y124.276 E0.01648
G1 X155.264 Y133.397 E0.40497
G1 X155.273 Y132.872 E0.01650
G1 X146.151 Y123.750 E0.40498
G1 X146.159 Y123.224 E0.01652
G1 X155.281 Y132.346 E0.40501
G1 X155.290 Y131.820 E0.01650
G1 X146.167 Y122.698 E0.40504
G1 X146.175 Y122.172 E0.01652
G1 X155.298 Y131.295 E0.40506
G1 X155.306 Y130.769 E0.01650
G1 X146.182 Y121.645 E0.40509
G1 X146.190 Y121.119 E0.01652
G1 X155.315 Y130.244 E0.40511
G1 X155.323 Y129.718 E0.01650
G1 X146.198 Y120.593 E0.40514
G1 X146.206 Y120.067 E0.01652
G1 X155.332 Y129.193 E0.40517
G1 X155.340 Y128.667 E0.01650
G1 X146.214 Y119.541 E0.40519
G1 X146.221 Y119.015 E0.01652
G1 X155.348 Y128.142 E0.40522
G1 X155.357 Y127.616 E0.01650
G1 X146.229 Y118.488 E0.40525
G1 X146.237 Y117.962 E0.01652
G1 X155.365 Y127.090 E0.40527
G1 X155.374 Y126.565 E0.01650
G1 X146.245 Y117.436 E0.40530
G1 X146.253 Y116.910 E0.01652
G1 X155.382 Y126.039 E0.40532
G1 X155.390 Y125.514 E0.01650
G1 X146.260 Y116.384 E0.40535
G1 X146.268 Y115.858 E0.01652
G1 X155.399 Y124.988 E0.40538
G1 X155.407 Y124.463 E0.01650
G1 X146.276 Y115.332 E0.40540
G1 X146.284 Y114.805 E0.01652
G1 X155.415 Y123.937 E0.40543
G1 X155.424 Y123.411 E0.01650
G1 X146.292 Y114.279 E0.40545
G1 X146.299 Y113.753 E0.01652
G1 X155.432 Y122.886 E0.40548
G1 X155.441 Y122.360 E0.01650
G1 X146.307 Y113.227 E0.40551
G1 X146.315 Y112.701 E0.01652
G1 X155.449 Y121.835 E0.40553
G1 X155.457 Y121.309 E0.01650
G1 X146.323 Y112.175 E0.40556
G1 X146.331 Y111.649 E0.01652
G1 X155.466 Y120.784 E0.40559
G1 X155.474 Y120.258 E0.01650
G1 X146.339 Y111.122 E0.40561
G1 X146.346 Y110.596 E0.01652
G1 X155.483 Y119.733 E0.40564
G1 X155.491 Y119.207 E0.01650
G1 X146.354 Y110.070 E0.40566
G1 X146.362 Y109.544 E0.01652
G1 X155.499 Y118.681 E0.40569
G1 X155.508 Y118.156 E0.01650
G1 X146.369 Y109.017 E0.40573
G1 X146.376 Y108.490 E0.01656
G1 X155.516 Y117.630 E0.40581
G1 X155.525 Y117.105 E0.01650
G1 X146.383 Y107.963 E0.40589
G1 X146.389 Y107.435 E0.01656
G1 X155.533 Y116.579 E0.40597
G1 X155.541 Y116.054 E0.01650
G1 X146.396 Y106.908 E0.40605
G1 X146.402 Y106.381 E0.01656
G1 X155.550 Y115.528 E0.40613
G1 X155.558 Y115.003 E0.01650
G1 X146.409 Y105.853 E0.40621
G1 X146.416 Y105.326 E0.01656
G1 X155.567 Y114.477 E0.40629
G1 X155.575 Y113.951 E0.01650
G1 X146.422 Y104.799 E0.40637
G1 X146.429 Y104.271 E0.01656
G1 X155.583 Y113.426 E0.40645
G1 X155.592 Y112.900 E0.01650
G1 X146.435 Y103.744 E0.40653
G1 X146.442 Y103.216 E0.01656
G1 X155.600 Y112.375 E0.40661
G1 X155.609 Y111.849 E0.01650
G1 X146.448 Y102.689 E0.40669
G1 X146.455 Y102.162 E0.01656
G1 X155.617 Y111.324 E0.40677
G1 X155.625 Y110.798 E0.01650
G1 X146.462 Y101.634 E0.40685
G1 X146.468 Y101.107 E0.01656
G1 X155.634 Y110.272 E0.40693
G1 X155.642 Y109.747 E0.01650
G1 X146.475 Y100.580 E0.40701
G1 X146.481 Y100.052 E0.01656
G1 X155.650 Y109.221 E0.40709
G1 X155.659 Y108.696 E0.01650
G1 X146.488 Y99.525 E0.40717
G1 X146.495 Y98.998 E0.01656
G1 X155.667 Y108.170 E0.40725
G1 X155.676 Y107.645 E0.01650
G1 X146.501 Y98.470 E0.40733
G1 X146.508 Y97.943 E0.01656
G1 X155.684 Y107.119 E0.40741
G1 X155.692 Y106.594 E0.01650
G1 X146.514 Y97.416 E0.40749
G1 X146.521 Y96.888 E0.01656
G1 X155.701 Y106.068 E0.40757
G1 X155.709 Y105.542 E0.01650
G1 X146.528 Y96.361 E0.40765
G1 X146.534 Y95.833 E0.01656
G1 X155.718 Y105.017 E0.40773
G1 X155.726 Y104.491 E0.01650
G1 X146.541 Y95.306 E0.40781
G1 X146.547 Y94.779 E0.01656
G1 X155.734 Y103.966 E0.40789
G1 X155.743 Y103.440 E0.01650
G1 X146.554 Y94.251 E0.40797
G1 X146.561 Y93.724 E0.01656
G1 X155.751 Y102.915 E0.40805
G1 X155.760 Y102.389 E0.01650
G1 X146.567 Y93.197 E0.40813
G1 X146.574 Y92.669 E0.01656
G1 X155.768 Y101.863 E0.40821
G1 X155.776 Y101.338 E0.01650
G1 X146.580 Y92.142 E0.40829
G1 X146.587 Y91.615 E0.01656
G1 X155.785 Y100.812 E0.40837
G1 X155.793 Y100.287 E0.01650
G1 X146.594 Y91.087 E0.40845
G1 X146.600 Y90.560 E0.01656
G1 X155.802 Y99.761 E0.40853
G1 X155.810 Y99.236 E0.01650
G1 X146.605 Y90.031 E0.40868
G1 X146.610 Y89.502 E0.01660
G1 X155.818 Y98.710 E0.40882
G1 X155.827 Y98.185 E0.01650
G1 X146.616 Y88.973 E0.40896
G1 X146.621 Y88.445 E0.01660
G1 X155.835 Y97.659 E0.40911
G1 X155.843 Y97.133 E0.01650
G1 X146.626 Y87.916 E0.40925
G1 X146.631 Y87.387 E0.01660
G1 X155.851 Y96.607 E0.40934
G1 X155.858 Y96.080 E0.01655
G1 X146.636 Y86.858 E0.40941
G1 X146.641 Y86.329 E0.01660
G1 X155.864 Y95.552 E0.40948
G1 X155.871 Y95.025 E0.01655
G1 X146.647 Y85.801 E0.40955
G1 X146.652 Y85.272 E0.01660
G1 X155.878 Y94.498 E0.40962
G1 X155.885 Y93.971 E0.01655
G1 X146.657 Y84.743 E0.40970
G1 X146.662 Y84.214 E0.01660
G1 X155.891 Y93.444 E0.40977
G1 X155.898 Y92.916 E0.01655
G1 X146.667 Y83.685 E0.40984
G1 X146.672 Y83.157 E0.01660
G1 X155.905 Y92.389 E0.40991
G1 X155.912 Y91.862 E0.01655
G1 X146.678 Y82.628 E0.40998
G1 X146.683 Y82.099 E0.01660
G1 X155.918 Y91.335 E0.41005
G1 X155.925 Y90.808 E0.01655
G1 X146.688 Y81.570 E0.41012
G1 X146.693 Y81.042 E0.01660
G1 X155.932 Y90.280 E0.41019
M73 Q3 S89
G1 X155.939 Y89.753 E0.01655
G1 X146.698 Y80.513 E0.41026
M73 P3 R88
G1 X146.703 Y79.984 E0.01660
G1 X155.945 Y89.226 E0.41033
G1 X155.952 Y88.699 E0.01655
G1 X146.708 Y79.455 E0.41040
G1 X146.714 Y78.926 E0.01660
G1 X155.959 Y88.172 E0.41047
G1 X155.966 Y87.644 E0.01655
G1 X146.719 Y78.398 E0.41054
G1 X146.724 Y77.869 E0.01660
G1 X155.972 Y87.117 E0.41062
G1 X155.979 Y86.590 E0.01655
G1 X146.729 Y77.340 E0.41069
G1 X146.734 Y76.811 E0.01660
G1 X155.986 Y86.063 E0.41076
G1 X155.993 Y85.536 E0.01655
G1 X146.739 Y76.282 E0.41083
G1 X146.745 Y75.754 E0.01660
G1 X155.999 Y85.008 E0.41090
G1 X156.006 Y84.481 E0.01655
G1 X146.750 Y75.225 E0.41097
G1 X146.755 Y74.696 E0.01660
G1 X156.013 Y83.954 E0.41104
G1 X156.020 Y83.427 E0.01655
G1 X146.760 Y74.167 E0.41111
G1 X146.765 Y73.639 E0.01660
G1 X156.026 Y82.900 E0.41118
G1 X156.033 Y82.372 E0.01655
G1 X146.769 Y73.108 E0.41131
