; generated by PrusaSlicer 2.2.0+linux-x64 on 2020-06-30 at 20:44:13 UTC

; 

; external perimeters extrusion width = 0.45mm
; perimeters extrusion width = 0.45mm
; infill extrusion width = 0.45mm
; solid infill extrusion width = 0.45mm
; top infill extrusion width = 0.40mm
; first layer extrusion width = 0.42mm

M73 P0 R91
M73 Q0 S92
M201 X1000 Y1000 Z200 E5000 ; sets maximum accelerations, mm/sec^2
M203 X200 Y200 Z12 E120 ; sets maximum feedrates, mm/sec
M204 P1250 R1250 T1250 ; sets acceleration (P, T) and retract acceleration (R), mm/sec^2
M205 X8.00 Y8.00 Z0.40 E4.50 ; sets the jerk limits, mm/sec
M205 S0 T0 ; sets the minimum extruding and travel feed rate, mm/sec
M107
M862.3 P "MK3" ; printer model check
M862.1 P0.4 ; nozzle diameter check
M115 U3.9.0 ; tell printer latest fw version
G90 ; use absolute coordinates
M83 ; extruder relative mode
M104 S225 ; set extruder temp
M140 S60 ; set bed temp
M190 S60 ; wait for bed temp
M109 S225 ; wait for extruder temp
G28 W ; home all without mesh bed level
G80 ; mesh bed leveling
G1 Y-3.0 F1000.0 ; go outside print area
G92 E0.0
G1 X60.0 E9.0 F1000.0 ; intro line
M73 Q0 S92
M73 P0 R91
G1 X100.0 E12.5 F1000.0 ; intro line
G92 E0.0
M221 S95
G21 ; set units to millimeters
G90 ; use absolute coordinates
M83 ; use relative distances for extrusion
M900 K0.06 ; Filament gcode LA 1.5
M900 K30 ; Filament gcode LA 1.0
;BEFORE_LAYER_CHANGE
G92 E0.0
;0.2


G1 E-0.80000 F2100.00000
G1 Z0.600 F10800.000
;AFTER_LAYER_CHANGE
;0.2
G1 X103.137 Y29.092
G1 Z0.200
G1 E0.80000 F2100.00000
M204 S1000
G1 F1200.000
G1 X103.581 Y28.450 E0.02449
G1 X104.209 Y27.985 E0.02449
G1 X104.954 Y27.750 E0.02449
G1 X117.791 Y27.726 E0.40250
G1 X153.144 Y27.963 E1.10849
G1 X153.881 Y28.124 E0.02367
G1 X154.534 Y28.510 E0.02378
G1 X155.030 Y29.078 E0.02367
G1 X155.323 Y29.774 E0.02367
G1 X156.208 Y42.244 E0.39197
G1 X156.779 Y53.820 E0.36340
G1 X157.122 Y64.717 E0.34184
G1 X157.279 Y77.281 E0.39396
G1 X157.302 Y180.378 E3.23254
G1 X157.161 Y181.143 E0.02437
G1 X156.782 Y181.821 E0.02437
G1 X156.204 Y182.341 E0.02437
G1 X155.489 Y182.646 E0.02437
G1 X154.938 Y182.714 E0.01740
G1 X143.407 Y182.714 E0.36154
G1 X103.291 Y182.479 E1.25785
G1 X102.536 Y182.326 E0.02414
G1 X101.873 Y181.943 E0.02402
G1 X101.366 Y181.369 E0.02402
G1 X101.067 Y180.664 E0.02402
G1 X101.000 Y180.103 E0.01773
G1 X101.021 Y79.271 E3.16150
G1 X101.083 Y69.773 E0.29780
G1 X101.320 Y59.273 E0.32932
G1 X101.643 Y50.748 E0.26748
G1 X102.266 Y39.196 E0.36274
G1 X102.926 Y29.844 E0.29395
G1 X103.121 Y29.150 E0.02261
G1 F8640.000
G1 X103.581 Y28.450 E-0.19352
G1 X104.209 Y27.985 E-0.18036
G1 X104.954 Y27.750 E-0.18036
G1 X105.845 Y27.748 E-0.20577
G1 E-0.04000 F2100.00000
G1 Z0.800 F10800.000
G1 X141.392 Y31.124
G1 Z0.200
G1 E0.80000 F2100.00000
G1 F1200.000
G1 X152.284 Y31.124 E0.34153
G1 X152.683 Y36.627 E0.17300
G1 X153.049 Y42.435 E0.18248
G1 X153.214 Y45.369 E0.09211
G1 X153.498 Y51.129 E0.18082
G1 X153.723 Y56.727 E0.17566
G1 X153.893 Y62.147 E0.17004
G1 X154.012 Y67.377 E0.16403
G1 X154.084 Y72.409 E0.15777
G1 X154.117 Y79.596 E0.22536
G1 X154.079 Y86.277 E0.20948
G1 X153.989 Y92.767 E0.20350
G1 X153.639 Y111.965 E0.60205
G1 X153.574 Y119.322 E0.23067
G1 X153.568 Y123.196 E0.12149
G1 X153.593 Y129.110 E0.18541
G1 X153.650 Y135.072 E0.18695
G1 X154.016 Y163.661 E0.89648
G1 X154.133 Y179.550 E0.49818
G1 X144.199 Y179.550 E0.31148
G1 X144.158 Y171.446 E0.25410
G1 X144.087 Y162.972 E0.26569
G1 X143.974 Y153.408 E0.29989
G1 X143.691 Y133.255 E0.63196
G1 X143.633 Y127.354 E0.18501
G1 X143.610 Y121.669 E0.17827
G1 X143.640 Y115.200 E0.20282
G1 X143.723 Y108.799 E0.20073
G1 X144.010 Y93.073 E0.49316
G1 X144.096 Y86.286 E0.21281
G1 X144.111 Y79.090 E0.22563
G1 X144.071 Y74.545 E0.14249
G1 X144.021 Y71.486 E0.09592
G1 X143.858 Y65.294 E0.19422
G1 X143.672 Y60.462 E0.15164
G1 X143.426 Y55.478 E0.15643
G1 X143.115 Y50.353 E0.16100
G1 X142.713 Y44.836 E0.17342
G1 X142.366 Y40.737 E0.12901
G1 X141.973 Y36.578 E0.13098
G1 X141.398 Y31.183 E0.17009
G1 X140.973 Y30.747 F10800.000
G1 F1200.000
G1 X152.634 Y30.747 E0.36565
G1 X153.059 Y36.602 E0.18406
G1 X153.426 Y42.413 E0.18257
G1 X153.591 Y45.349 E0.09219
G1 X153.875 Y51.112 E0.18092
G1 X154.100 Y56.713 E0.17577
G1 X154.270 Y62.137 E0.17014
G1 X154.389 Y67.370 E0.16413
G1 X154.461 Y72.405 E0.15788
G1 X154.494 Y79.596 E0.22548
G1 X154.456 Y86.281 E0.20959
G1 X154.366 Y92.773 E0.20357
G1 X154.016 Y111.970 E0.60202
G1 X153.951 Y119.324 E0.23057
G1 X153.946 Y123.196 E0.12141
G1 X153.970 Y129.107 E0.18535
G1 X154.027 Y135.068 E0.18690
G1 X154.393 Y163.658 E0.89649
G1 X154.513 Y179.927 E0.51012
G1 X143.823 Y179.927 E0.33516
G1 X143.781 Y171.448 E0.26584
G1 X143.710 Y162.976 E0.26565
G1 X143.597 Y153.413 E0.29986
G1 X143.314 Y133.259 E0.63197
G1 X143.256 Y127.357 E0.18507
G1 X143.233 Y121.669 E0.17836
G1 X143.263 Y115.197 E0.20292
G1 X143.346 Y108.793 E0.20081
G1 X143.633 Y93.067 E0.49316
G1 X143.719 Y86.283 E0.21271
G1 X143.734 Y79.091 E0.22551
G1 X143.694 Y74.550 E0.14238
G1 X143.644 Y71.495 E0.09582
G1 X143.481 Y65.306 E0.19409
G1 X143.295 Y60.478 E0.15150
G1 X143.050 Y55.499 E0.15630
G1 X142.739 Y50.378 E0.16086
G1 X142.337 Y44.866 E0.17328
G1 X141.990 Y40.770 E0.12888
G1 X141.598 Y36.615 E0.13085
G1 X140.979 Y30.806 E0.18317
G1 X141.325 Y30.935 F10800.000
G1 F8640.000
G1 X144.270 Y30.790 E-0.76000
G1 E-0.04000 F2100.00000
G1 Z0.800 F10800.000
G1 X145.076 Y179.437
G1 Z0.200
G1 E0.80000 F2100.00000
G1 F1200.000
G1 X144.478 Y178.839 E0.02658
G1 X144.475 Y178.301 E0.01690
G1 X145.441 Y179.267 E0.04293
G1 X145.975 Y179.267 E0.01681
G1 X144.472 Y177.764 E0.06682
G1 X144.470 Y177.227 E0.01690
G1 X146.510 Y179.267 E0.09072
G1 X147.045 Y179.267 E0.01681
G1 X144.467 Y176.689 E0.11461
G1 X144.464 Y176.152 E0.01690
G1 X147.580 Y179.267 E0.13850
G1 X148.114 Y179.267 E0.01681
G1 X144.462 Y175.614 E0.16240
G1 X144.459 Y175.077 E0.01690
G1 X148.649 Y179.267 E0.18629
M73 Q1 S91
G1 X149.184 Y179.267 E0.01681
G1 X144.457 Y174.540 E0.21019
G1 X144.454 Y174.002 E0.01690
G1 X149.718 Y179.267 E0.23408
M73 P1 R90
G1 X150.253 Y179.267 E0.01681
G1 X144.451 Y173.465 E0.25798
G1 X144.449 Y172.927 E0.01690
G1 X150.788 Y179.267 E0.28187
G1 X151.323 Y179.267 E0.01681
G1 X144.446 Y172.390 E0.30576
G1 X144.443 Y171.853 E0.01690
G1 X151.857 Y179.267 E0.32966
G1 X152.392 Y179.267 E0.01681
G1 X144.440 Y171.315 E0.35357
G1 X144.436 Y170.776 E0.01696
G1 X152.927 Y179.267 E0.37755
G1 X153.462 Y179.267 E0.01681
G1 X144.431 Y170.236 E0.40153
G1 X144.426 Y169.697 E0.01696
G1 X153.847 Y179.117 E0.41886
G1 X153.843 Y178.579 E0.01694
G1 X144.422 Y169.158 E0.41889
G1 X144.417 Y168.618 E0.01696
G1 X153.839 Y178.040 E0.41892
G1 X153.835 Y177.501 E0.01694
G1 X144.413 Y168.079 E0.41894
G1 X144.408 Y167.540 E0.01696
G1 X153.831 Y176.963 E0.41897
G1 X153.827 Y176.424 E0.01694
G1 X144.404 Y167.000 E0.41900
G1 X144.399 Y166.461 E0.01696
G1 X153.823 Y175.885 E0.41903
G1 X153.819 Y175.347 E0.01694
G1 X144.394 Y165.922 E0.41905
G1 X144.390 Y165.383 E0.01696
G1 X153.815 Y174.808 E0.41908
G1 X153.811 Y174.269 E0.01694
G1 X144.385 Y164.843 E0.41911
G1 X144.381 Y164.304 E0.01696
G1 X153.807 Y173.731 E0.41914
G1 X153.803 Y173.192 E0.01694
G1 X144.376 Y163.765 E0.41916
G1 X144.372 Y163.225 E0.01696
G1 X153.799 Y172.653 E0.41919
G1 X153.796 Y172.115 E0.01694
G1 X144.366 Y162.685 E0.41926
G1 X144.360 Y162.144 E0.01701
G1 X153.792 Y171.576 E0.41937
G1 X153.788 Y171.037 E0.01694
G1 X144.353 Y161.603 E0.41947
G1 X144.347 Y161.062 E0.01701
G1 X153.784 Y170.498 E0.41958
G1 X153.780 Y169.960 E0.01694
G1 X144.341 Y160.521 E0.41969
G1 X144.334 Y159.980 E0.01701
G1 X153.776 Y169.421 E0.41980
G1 X153.772 Y168.882 E0.01694
G1 X144.328 Y159.439 E0.41990
G1 X144.322 Y158.898 E0.01701
G1 X153.768 Y168.344 E0.42001
G1 X153.764 Y167.805 E0.01694
G1 X144.315 Y158.356 E0.42012
G1 X144.309 Y157.815 E0.01701
G1 X153.760 Y167.266 E0.42022
G1 X153.756 Y166.728 E0.01694
G1 X144.303 Y157.274 E0.42033
G1 X144.296 Y156.733 E0.01701
G1 X153.752 Y166.189 E0.42044
G1 X153.748 Y165.650 E0.01694
G1 X144.290 Y156.192 E0.42055
G1 X144.284 Y155.651 E0.01701
G1 X153.744 Y165.112 E0.42065
G1 X153.740 Y164.573 E0.01694
G1 X144.277 Y155.110 E0.42076
G1 X144.271 Y154.569 E0.01701
G1 X153.736 Y164.034 E0.42087
G1 X153.731 Y163.495 E0.01697
G1 X144.264 Y154.028 E0.42093
G1 X144.258 Y153.487 E0.01701
G1 X153.724 Y162.953 E0.42091
G1 X153.718 Y162.411 E0.01703
G1 X144.251 Y152.944 E0.42093
G1 X144.243 Y152.402 E0.01705
G1 X153.711 Y161.870 E0.42096
G1 X153.704 Y161.328 E0.01703
G1 X144.235 Y151.860 E0.42099
G1 X144.228 Y151.317 E0.01705
G1 X153.697 Y160.786 E0.42102
G1 X153.690 Y160.245 E0.01703
G1 X144.220 Y150.775 E0.42105
G1 X144.213 Y150.233 E0.01705
G1 X153.683 Y159.703 E0.42108
G1 X153.676 Y159.161 E0.01703
G1 X144.205 Y149.690 E0.42111
G1 X144.197 Y149.148 E0.01705
G1 X153.669 Y158.620 E0.42114
G1 X153.662 Y158.078 E0.01703
G1 X144.190 Y148.606 E0.42117
G1 X144.182 Y148.063 E0.01705
G1 X153.655 Y157.536 E0.42120
G1 X153.648 Y156.995 E0.01703
G1 X144.174 Y147.521 E0.42123
G1 X144.167 Y146.979 E0.01705
G1 X153.641 Y156.453 E0.42126
G1 X153.634 Y155.911 E0.01703
G1 X144.159 Y146.436 E0.42129
G1 X144.152 Y145.894 E0.01705
G1 X153.627 Y155.370 E0.42132
G1 X153.620 Y154.828 E0.01703
G1 X144.144 Y145.352 E0.42135
G1 X144.136 Y144.809 E0.01705
G1 X153.613 Y154.286 E0.42138
G1 X153.606 Y153.745 E0.01703
G1 X144.129 Y144.267 E0.42141
G1 X144.121 Y143.724 E0.01705
G1 X153.600 Y153.203 E0.42144
G1 X153.593 Y152.661 E0.01703
G1 X144.114 Y143.182 E0.42147
G1 X144.106 Y142.640 E0.01705
G1 X153.586 Y152.120 E0.42150
G1 X153.579 Y151.578 E0.01703
G1 X144.098 Y142.097 E0.42153
G1 X144.091 Y141.555 E0.01705
G1 X153.572 Y151.036 E0.42156
G1 X153.565 Y150.494 E0.01703
G1 X144.083 Y141.013 E0.42159
G1 X144.075 Y140.470 E0.01705
G1 X153.558 Y149.953 E0.42162
G1 X153.551 Y149.411 E0.01703
G1 X144.068 Y139.928 E0.42165
G1 X144.060 Y139.386 E0.01705
G1 X153.544 Y148.869 E0.42168
G1 X153.537 Y148.328 E0.01703
G1 X144.053 Y138.843 E0.42171
G1 X144.045 Y138.301 E0.01705
G1 X153.530 Y147.786 E0.42174
G1 X153.523 Y147.244 E0.01703
G1 X144.037 Y137.759 E0.42177
G1 X144.030 Y137.216 E0.01705
G1 X153.516 Y146.703 E0.42180
G1 X153.509 Y146.161 E0.01703
G1 X144.022 Y136.674 E0.42183
G1 X144.014 Y136.132 E0.01705
G1 X153.502 Y145.619 E0.42186
G1 X153.495 Y145.078 E0.01703
G1 X144.007 Y135.589 E0.42189
G1 X143.999 Y135.047 E0.01705
G1 X153.488 Y144.536 E0.42192
G1 X153.481 Y143.994 E0.01703
G1 X143.992 Y134.504 E0.42195
G1 X143.984 Y133.962 E0.01705
G1 X153.475 Y143.453 E0.42198
G1 X153.468 Y142.911 E0.01703
G1 X143.976 Y133.420 E0.42201
G1 X143.970 Y132.879 E0.01700
G1 X153.461 Y142.369 E0.42197
G1 X153.454 Y141.828 E0.01703
G1 X143.965 Y132.339 E0.42190
G1 X143.960 Y131.799 E0.01698
G1 X153.447 Y141.286 E0.42182
G1 X153.440 Y140.744 E0.01703
G1 X143.954 Y131.259 E0.42175
G1 X143.949 Y130.719 E0.01698
G1 X153.433 Y140.203 E0.42168
G1 X153.426 Y139.661 E0.01703
G1 X143.944 Y130.179 E0.42160
G1 X143.939 Y129.639 E0.01698
G1 X153.419 Y139.119 E0.42153
G1 X153.412 Y138.578 E0.01703
G1 X143.933 Y129.099 E0.42146
G1 X143.928 Y128.559 E0.01698
G1 X153.405 Y138.036 E0.42138
G1 X153.398 Y137.494 E0.01703
G1 X143.923 Y128.019 E0.42131
G1 X143.917 Y127.479 E0.01698
G1 X153.391 Y136.953 E0.42124
M73 Q2 S90
G1 X153.384 Y136.411 E0.01703
G1 X143.914 Y126.941 E0.42106
M73 P2 R89
G1 X143.912 Y126.404 E0.01688
G1 X153.377 Y135.869 E0.42085
G1 X153.370 Y135.328 E0.01703
G1 X143.910 Y125.867 E0.42064
G1 X143.908 Y125.330 E0.01688
G1 X153.364 Y134.787 E0.42047
G1 X153.359 Y134.247 E0.01697
G1 X143.906 Y124.793 E0.42034
G1 X143.903 Y124.256 E0.01688
G1 X153.354 Y133.707 E0.42021
G1 X153.349 Y133.167 E0.01697
G1 X143.901 Y123.719 E0.42008
G1 X143.899 Y123.183 E0.01688
G1 X153.344 Y132.627 E0.41995
G1 X153.339 Y132.088 E0.01697
G1 X143.897 Y122.646 E0.41982
G1 X143.895 Y122.109 E0.01688
G1 X153.334 Y131.548 E0.41969
G1 X153.329 Y131.008 E0.01697
G1 X143.893 Y121.573 E0.41953
G1 X143.896 Y121.040 E0.01673
G1 X153.323 Y130.468 E0.41919
G1 X153.318 Y129.928 E0.01697
G1 X143.898 Y120.508 E0.41885
G1 X143.901 Y119.976 E0.01673
G1 X153.313 Y129.388 E0.41851
G1 X153.309 Y128.850 E0.01693
G1 X143.903 Y119.443 E0.41824
G1 X143.906 Y118.911 E0.01673
G1 X153.307 Y128.313 E0.41803
G1 X153.305 Y127.776 E0.01688
G1 X143.908 Y118.379 E0.41782
G1 X143.911 Y117.847 E0.01673
G1 X153.303 Y127.239 E0.41761
G1 X153.300 Y126.702 E0.01688
G1 X143.913 Y117.314 E0.41740
G1 X143.915 Y116.782 E0.01673
G1 X153.298 Y126.165 E0.41719
G1 X153.296 Y125.628 E0.01688
G1 X143.918 Y116.250 E0.41698
G1 X143.920 Y115.718 E0.01673
G1 X153.294 Y125.091 E0.41677
G1 X153.291 Y124.554 E0.01688
G1 X143.923 Y115.186 E0.41655
G1 X143.930 Y114.658 E0.01660
G1 X153.289 Y124.017 E0.41615
G1 X153.287 Y123.480 E0.01688
G1 X143.937 Y114.130 E0.41574
G1 X143.943 Y113.602 E0.01660
G1 X153.286 Y122.944 E0.41540
G1 X153.287 Y122.410 E0.01679
G1 X143.950 Y113.074 E0.41514
G1 X143.957 Y112.546 E0.01660
G1 X153.288 Y121.877 E0.41487
G1 X153.289 Y121.343 E0.01679
G1 X143.964 Y112.018 E0.41460
G1 X143.971 Y111.490 E0.01660
G1 X153.289 Y120.809 E0.41434
G1 X153.290 Y120.275 E0.01679
G1 X143.978 Y110.962 E0.41407
G1 X143.984 Y110.434 E0.01660
G1 X153.291 Y119.741 E0.41380
G1 X153.293 Y119.208 E0.01676
G1 X143.991 Y109.906 E0.41357
G1 X143.998 Y109.378 E0.01660
G1 X153.297 Y118.678 E0.41347
G1 X153.302 Y118.148 E0.01667
G1 X144.005 Y108.851 E0.41338
G1 X144.014 Y108.325 E0.01652
G1 X153.306 Y117.617 E0.41317
G1 X153.311 Y117.087 E0.01667
G1 X144.024 Y107.800 E0.41295
G1 X144.033 Y107.275 E0.01651
G1 X153.316 Y116.557 E0.41272
G1 X153.320 Y116.027 E0.01667
G1 X144.043 Y106.750 E0.41250
G1 X144.052 Y106.225 E0.01651
G1 X153.325 Y115.497 E0.41228
G1 X153.330 Y114.967 E0.01667
G1 X144.062 Y105.699 E0.41206
G1 X144.072 Y105.174 E0.01651
G1 X153.334 Y114.437 E0.41184
G1 X153.339 Y113.907 E0.01667
G1 X144.081 Y104.649 E0.41162
G1 X144.091 Y104.124 E0.01651
G1 X153.343 Y113.377 E0.41140
G1 X153.348 Y112.846 E0.01667
G1 X144.100 Y103.599 E0.41118
G1 X144.110 Y103.074 E0.01651
G1 X153.353 Y112.316 E0.41096
G1 X153.359 Y111.788 E0.01662
G1 X144.120 Y102.549 E0.41081
G1 X144.129 Y102.023 E0.01651
G1 X153.369 Y111.263 E0.41081
G1 X153.378 Y110.738 E0.01651
G1 X144.139 Y101.498 E0.41081
G1 X144.148 Y100.973 E0.01651
G1 X153.388 Y110.212 E0.41081
G1 X153.397 Y109.687 E0.01651
G1 X144.158 Y100.448 E0.41081
G1 X144.168 Y99.923 E0.01651
G1 X153.407 Y109.162 E0.41081
G1 X153.417 Y108.637 E0.01651
G1 X144.177 Y99.398 E0.41081
G1 X144.187 Y98.873 E0.01651
G1 X153.426 Y108.112 E0.41081
G1 X153.436 Y107.587 E0.01651
G1 X144.196 Y98.347 E0.41081
G1 X144.206 Y97.822 E0.01651
G1 X153.445 Y107.062 E0.41081
G1 X153.455 Y106.537 E0.01651
G1 X144.216 Y97.297 E0.41081
G1 X144.225 Y96.772 E0.01651
G1 X153.465 Y106.011 E0.41081
G1 X153.474 Y105.486 E0.01651
G1 X144.235 Y96.247 E0.41081
G1 X144.244 Y95.722 E0.01651
G1 X153.484 Y104.961 E0.41081
G1 X153.493 Y104.436 E0.01651
G1 X144.254 Y95.197 E0.41081
G1 X144.264 Y94.671 E0.01651
G1 X153.503 Y103.911 E0.41081
G1 X153.513 Y103.386 E0.01651
G1 X144.273 Y94.146 E0.41081
G1 X144.283 Y93.621 E0.01651
G1 X153.522 Y102.861 E0.41081
G1 X153.532 Y102.335 E0.01651
G1 X144.292 Y93.096 E0.41081
G1 X144.299 Y92.568 E0.01660
G1 X153.541 Y101.810 E0.41094
G1 X153.551 Y101.285 E0.01651
G1 X144.306 Y92.040 E0.41107
G1 X144.312 Y91.512 E0.01660
G1 X153.561 Y100.760 E0.41120
G1 X153.570 Y100.235 E0.01651
G1 X144.319 Y90.984 E0.41133
G1 X144.326 Y90.456 E0.01660
G1 X153.580 Y99.710 E0.41146
G1 X153.589 Y99.185 E0.01651
G1 X144.333 Y89.928 E0.41159
G1 X144.339 Y89.400 E0.01660
G1 X153.599 Y98.660 E0.41172
G1 X153.609 Y98.134 E0.01651
G1 X144.346 Y88.872 E0.41185
G1 X144.353 Y88.344 E0.01660
G1 X153.618 Y97.609 E0.41198
G1 X153.628 Y97.084 E0.01651
G1 X144.359 Y87.816 E0.41211
G1 X144.366 Y87.288 E0.01660
G1 X153.637 Y96.559 E0.41224
G1 X153.647 Y96.034 E0.01651
G1 X144.373 Y86.760 E0.41236
G1 X144.379 Y86.231 E0.01662
G1 X153.656 Y95.509 E0.41252
G1 X153.666 Y94.984 E0.01651
G1 X144.380 Y85.697 E0.41290
G1 X144.381 Y85.164 E0.01678
G1 X153.676 Y94.458 E0.41327
G1 X153.685 Y93.933 E0.01651
