; generated by PrusaSlicer 2.2.0+linux-x64 on 2020-07-01 at 09:32:26 UTC

; 

; external perimeters extrusion width = 0.45mm
; perimeters extrusion width = 0.45mm
; infill extrusion width = 0.45mm
; solid infill extrusion width = 0.45mm
; top infill extrusion width = 0.40mm
; first layer extrusion width = 0.42mm

M73 P0 R119
M73 Q0 S119
M201 X1000 Y1000 Z200 E5000 ; sets maximum accelerations, mm/sec^2
M203 X200 Y200 Z12 E120 ; sets maximum feedrates, mm/sec
M204 P1250 R1250 T1250 ; sets acceleration (P, T) and retract acceleration (R), mm/sec^2
M205 X8.00 Y8.00 Z0.40 E4.50 ; sets the jerk limits, mm/sec
M205 S0 T0 ; sets the minimum extruding and travel feed rate, mm/sec
M107
M862.3 P "MK3" ; printer model check
M862.1 P0.4 ; nozzle diameter check
M115 U3.9.0 ; tell printer latest fw version
G90 ; use absolute coordinates
M83 ; extruder relative mode
M104 S225 ; set extruder temp
M140 S60 ; set bed temp
M190 S60 ; wait for bed temp
M109 S225 ; wait for extruder temp
G28 W ; home all without mesh bed level
G80 ; mesh bed leveling
G1 Y-3.0 F1000.0 ; go outside print area
G92 E0.0
G1 X60.0 E9.0 F1000.0 ; intro line
M73 Q0 S119
M73 P0 R119
G1 X100.0 E12.5 F1000.0 ; intro line
G92 E0.0
M221 S95
G21 ; set units to millimeters
G90 ; use absolute coordinates
M83 ; use relative distances for extrusion
M900 K0.06 ; Filament gcode LA 1.5
M900 K30 ; Filament gcode LA 1.0
;BEFORE_LAYER_CHANGE
G92 E0.0
;0.2


G1 E-0.80000 F2100.00000
G1 Z0.600 F10800.000
;AFTER_LAYER_CHANGE
;0.2
G1 X95.470 Y55.475
G1 Z0.200
G1 E0.80000 F2100.00000
M204 S1000
G1 F1200.000
G1 X96.401 Y55.270 E0.02989
G1 X153.623 Y55.271 E1.79415
G1 X154.165 Y55.347 E0.01716
G1 X155.017 Y55.765 E0.02977
G1 X155.640 Y56.487 E0.02989
G1 X162.810 Y72.765 E0.55770
G1 X168.940 Y87.384 E0.49705
G1 X172.961 Y97.588 E0.34388
G1 X177.365 Y109.517 E0.39869
G1 X182.385 Y123.927 E0.47847
G1 X188.206 Y141.214 E0.57192
G1 X191.730 Y151.841 E0.35104
G1 X191.790 Y152.415 E0.01811
G1 X191.710 Y152.987 E0.01811
G1 X191.494 Y153.523 E0.01811
G1 X191.153 Y153.994 E0.01823
G1 X190.363 Y154.553 E0.03036
G1 X189.899 Y154.701 E0.01526
G1 X189.414 Y154.751 E0.01531
G1 X60.575 Y154.751 E4.03964
G1 X59.709 Y154.583 E0.02767
G1 X58.966 Y154.113 E0.02755
G1 X58.548 Y153.597 E0.02083
G1 X58.288 Y152.981 E0.02095
G1 X58.210 Y152.322 E0.02083
G1 X58.317 Y151.666 E0.02083
G1 X68.083 Y122.555 E0.96274
G1 X74.103 Y105.453 E0.56848
G1 X78.132 Y94.750 E0.35856
G1 X83.037 Y82.571 E0.41169
G1 X90.563 Y65.018 E0.59880
G1 X94.274 Y56.656 E0.28685
G1 X94.694 Y56.029 E0.02367
G1 X95.421 Y55.509 E0.02801
G1 F8640.000
G1 X96.401 Y55.270 E-0.23294
G1 X98.683 Y55.270 E-0.52706
G1 E-0.04000 F2100.00000
G1 Z0.800 F10800.000
G1 X96.947 Y58.434
G1 Z0.200
G1 E0.80000 F2100.00000
G1 F1200.000
G1 X153.054 Y58.434 E1.75921
G1 X156.330 Y65.812 E0.25312
G1 X158.673 Y71.169 E0.18332
G1 X161.002 Y76.576 E0.18459
G1 X163.109 Y81.554 E0.16948
G1 X166.008 Y88.575 E0.23819
G1 X167.849 Y93.171 E0.15521
G1 X169.018 Y96.153 E0.10042
G1 X170.791 Y100.786 E0.15557
G1 X172.298 Y104.829 E0.13527
G1 X173.854 Y109.101 E0.14255
G1 X175.904 Y114.867 E0.19186
G1 X177.609 Y119.763 E0.16258
G1 X179.391 Y124.952 E0.17203
G1 X181.895 Y132.339 E0.24453
G1 X188.322 Y151.587 E0.63627
G1 X157.088 Y151.587 E0.97933
G1 X149.689 Y136.443 E0.52847
G1 X145.054 Y126.895 E0.33277
G1 X140.747 Y117.919 E0.31214
G1 X137.552 Y111.144 E0.23486
G1 X134.667 Y104.893 E0.21588
G1 X132.010 Y98.984 E0.20312
G1 X130.399 Y95.314 E0.12569
G1 X128.824 Y91.663 E0.12465
G1 X125.524 Y83.804 E0.26729
G1 X124.476 Y83.804 E0.03283
G1 X121.176 Y91.663 E0.26729
G1 X119.601 Y95.314 E0.12465
G1 X117.990 Y98.984 E0.12568
G1 X114.777 Y106.110 E0.24508
G1 X111.212 Y113.782 E0.26526
G1 X108.077 Y120.385 E0.22918
G1 X104.396 Y128.034 E0.26616
G1 X99.695 Y137.707 E0.33721
G1 X92.912 Y151.587 E0.48438
G1 X61.679 Y151.587 E0.97931
G1 X67.960 Y132.766 E0.62211
G1 X71.078 Y123.577 E0.30424
G1 X72.838 Y118.470 E0.16937
G1 X75.074 Y112.100 E0.21169
G1 X76.671 Y107.648 E0.14829
G1 X78.208 Y103.459 E0.13991
G1 X80.097 Y98.447 E0.16792
G1 X82.059 Y93.403 E0.16970
G1 X83.992 Y88.575 E0.16305
G1 X86.891 Y81.554 E0.23819
G1 X89.091 Y76.359 E0.17686
G1 X92.485 Y68.513 E0.26805
G1 X96.922 Y58.489 E0.34372
G1 F8640.000
G1 X100.214 Y58.486 E-0.76000
G1 E-0.04000 F2100.00000
G1 Z0.800 F10800.000
G1 X125.273 Y84.181
G1 Z0.200
G1 E0.80000 F2100.00000
G1 F1200.000
G1 X124.727 Y84.181 E0.01711
G1 X121.523 Y91.811 E0.25948
G1 X119.947 Y95.464 E0.12474
G1 X118.334 Y99.137 E0.12578
G1 X115.120 Y106.267 E0.24521
G1 X111.553 Y113.942 E0.26537
G1 X108.417 Y120.547 E0.22926
G1 X104.735 Y128.198 E0.26621
G1 X100.034 Y137.872 E0.33724
G1 X93.148 Y151.964 E0.49177
G1 X61.155 Y151.964 E1.00311
G1 X67.602 Y132.646 E0.63855
G1 X70.721 Y123.455 E0.30430
G1 X72.482 Y118.346 E0.16943
G1 X74.718 Y111.973 E0.21177
G1 X76.317 Y107.519 E0.14837
G1 X77.855 Y103.328 E0.14001
G1 X79.745 Y98.313 E0.16804
G1 X81.708 Y93.265 E0.16982
G1 X83.642 Y88.433 E0.16317
G1 X86.543 Y81.408 E0.23831
G1 X88.744 Y76.211 E0.17696
G1 X92.139 Y68.362 E0.26814
G1 X96.701 Y58.057 E0.35335
G1 X153.299 Y58.057 E1.77459
M73 Q0 S118
M73 P0 R118
G1 X156.675 Y65.660 E0.26084
G1 X159.019 Y71.019 E0.18338
G1 X161.349 Y76.428 E0.18466
G1 X163.457 Y81.408 E0.16957
G1 X166.358 Y88.433 E0.23831
G1 X168.200 Y93.032 E0.15532
G1 X169.369 Y96.016 E0.10051
G1 X171.144 Y100.653 E0.15567
G1 X172.652 Y104.698 E0.13537
G1 X174.209 Y108.973 E0.14264
G1 X176.259 Y114.741 E0.19195
G1 X177.966 Y119.640 E0.16264
G1 X179.748 Y124.831 E0.17208
G1 X182.252 Y132.218 E0.24458
G1 X188.845 Y151.964 E0.65271
G1 X156.852 Y151.964 E1.00312
G1 X149.350 Y136.608 E0.53587
G1 X144.714 Y127.059 E0.33281
G1 X140.406 Y118.081 E0.31221
G1 X137.210 Y111.304 E0.23495
G1 X134.324 Y105.049 E0.21599
G1 X131.666 Y99.137 E0.20323
G1 X130.053 Y95.464 E0.12578
G1 X128.477 Y91.811 E0.12474
G1 X125.296 Y84.236 E0.25760
G1 X125.220 Y83.784 F10800.000
G1 F8640.000
G1 X124.727 Y84.181 E-0.13202
G1 X123.674 Y86.688 E-0.62798
G1 E-0.04000 F2100.00000
G1 Z0.800 F10800.000
G1 X153.595 Y59.932
G1 Z0.200
G1 E0.80000 F2100.00000
G1 F1200.000
G1 X152.381 Y58.717 E0.05390
G1 X151.847 Y58.717 E0.01675
G1 X153.688 Y60.558 E0.08169
G1 X154.114 Y61.518 E0.03297
G1 X151.313 Y58.717 E0.12430
G1 X150.779 Y58.717 E0.01675
G1 X154.540 Y62.478 E0.16691
G1 X154.966 Y63.438 E0.03297
G1 X150.246 Y58.717 E0.20952
G1 X149.712 Y58.717 E0.01675
G1 X155.393 Y64.398 E0.25213
G1 X155.819 Y65.358 E0.03297
G1 X149.178 Y58.717 E0.29474
G1 X148.644 Y58.717 E0.01675
G1 X156.241 Y66.313 E0.33714
G1 X156.655 Y67.262 E0.03249
G1 X148.111 Y58.717 E0.37924
G1 X147.577 Y58.717 E0.01675
G1 X157.070 Y68.210 E0.42134
G1 X157.485 Y69.159 E0.03249
G1 X147.043 Y58.717 E0.46344
G1 X146.509 Y58.717 E0.01675
G1 X157.900 Y70.108 E0.50554
G1 X158.315 Y71.056 E0.03249
G1 X145.975 Y58.717 E0.54764
G1 X145.442 Y58.717 E0.01675
G1 X158.721 Y71.997 E0.58938
G1 X159.125 Y72.934 E0.03204
G1 X144.908 Y58.717 E0.63099
G1 X144.374 Y58.717 E0.01675
G1 X159.529 Y73.872 E0.67261
G1 X159.933 Y74.810 E0.03204
G1 X143.840 Y58.717 E0.71423
G1 X143.307 Y58.717 E0.01675
G1 X160.337 Y75.747 E0.75585
G1 X160.741 Y76.685 E0.03204
G1 X142.773 Y58.717 E0.79747
G1 X142.239 Y58.717 E0.01675
G1 X161.133 Y77.611 E0.83855
G1 X161.525 Y78.537 E0.03154
G1 X141.705 Y58.717 E0.87964
G1 X141.172 Y58.717 E0.01675
G1 X161.917 Y79.462 E0.92072
G1 X162.309 Y80.388 E0.03154
G1 X140.638 Y58.717 E0.96180
G1 X140.104 Y58.717 E0.01675
G1 X162.701 Y81.313 E1.00288
G1 X163.082 Y82.229 E0.03112
G1 X139.570 Y58.717 E1.04350
G1 X139.037 Y58.717 E0.01675
G1 X163.457 Y83.138 E1.08385
G1 X163.833 Y84.047 E0.03087
G1 X138.503 Y58.717 E1.12420
G1 X137.969 Y58.717 E0.01675
G1 X164.208 Y84.956 E1.16454
G1 X164.583 Y85.865 E0.03087
G1 X137.435 Y58.717 E1.20489
G1 X136.902 Y58.717 E0.01675
G1 X164.959 Y86.774 E1.24524
G1 X165.334 Y87.683 E0.03087
G1 X136.368 Y58.717 E1.28558
G1 X135.834 Y58.717 E0.01675
G1 X165.709 Y88.592 E1.32593
G1 X166.068 Y89.484 E0.03018
G1 X135.300 Y58.717 E1.36553
G1 X134.767 Y58.717 E0.01675
G1 X166.424 Y90.375 E1.40505
G1 X166.781 Y91.265 E0.03010
G1 X134.233 Y58.717 E1.44457
G1 X133.699 Y58.717 E0.01675
G1 X167.138 Y92.156 E1.48409
G1 X167.495 Y93.046 E0.03010
G1 X133.165 Y58.717 E1.52361
G1 X132.631 Y58.717 E0.01675
G1 X167.842 Y93.927 E1.56272
M73 Q1 S117
M73 P1 R117
G1 X168.186 Y94.805 E0.02959
G1 X132.098 Y58.717 E1.60168
G1 X131.564 Y58.717 E0.01675
G1 X168.530 Y95.683 E1.64063
G1 X168.869 Y96.556 E0.02940
G1 X131.030 Y58.717 E1.67939
G1 X130.496 Y58.717 E0.01675
G1 X169.200 Y97.421 E1.71777
G1 X169.531 Y98.286 E0.02906
G1 X129.963 Y58.717 E1.75615
G1 X129.429 Y58.717 E0.01675
G1 X169.862 Y99.150 E1.79453
G1 X170.193 Y100.015 E0.02906
G1 X128.895 Y58.717 E1.83291
G1 X128.361 Y58.717 E0.01675
G1 X170.524 Y100.880 E1.87129
G1 X170.842 Y101.731 E0.02851
G1 X127.828 Y58.717 E1.90906
G1 X127.294 Y58.717 E0.01675
G1 X171.159 Y102.582 E1.94683
G1 X171.476 Y103.433 E0.02850
G1 X126.760 Y58.717 E1.98460
G1 X126.226 Y58.717 E0.01675
G1 X171.793 Y104.284 E2.02237
G1 X172.108 Y105.132 E0.02839
G1 X125.693 Y58.717 E2.06002
G1 X125.159 Y58.717 E0.01675
G1 X172.414 Y105.972 E2.09727
G1 X172.719 Y106.811 E0.02804
G1 X124.625 Y58.717 E2.13453
G1 X124.091 Y58.717 E0.01675
G1 X173.025 Y107.651 E2.17179
G1 X173.331 Y108.490 E0.02804
G1 X123.558 Y58.717 E2.20905
G1 X123.024 Y58.717 E0.01675
G1 X173.635 Y109.328 E2.24622
G1 X173.929 Y110.156 E0.02758
G1 X122.490 Y58.717 E2.28298
G1 X121.956 Y58.717 E0.01675
G1 X174.223 Y110.984 E2.31973
M73 Q2 S116
M73 P2 R116
G1 X174.518 Y111.812 E0.02758
G1 X121.422 Y58.717 E2.35649
G1 X120.889 Y58.717 E0.01675
G1 X174.812 Y112.640 E2.39324
G1 X175.106 Y113.468 E0.02758
G1 X120.355 Y58.717 E2.42999
G1 X119.821 Y58.717 E0.01675
G1 X175.401 Y114.296 E2.46675
G1 X175.693 Y115.123 E0.02751
G1 X119.287 Y58.717 E2.50342
G1 X118.754 Y58.717 E0.01675
G1 X175.979 Y115.942 E2.53978
G1 X176.264 Y116.761 E0.02722
G1 X118.220 Y58.717 E2.57613
G1 X117.686 Y58.717 E0.01675
G1 X176.549 Y117.580 E2.61249
G1 X176.835 Y118.399 E0.02722
G1 X117.152 Y58.717 E2.64884
G1 X116.619 Y58.717 E0.01675
G1 X177.120 Y119.218 E2.68519
G1 X177.404 Y120.036 E0.02717
G1 X116.085 Y58.717 E2.72149
G1 X115.551 Y58.717 E0.01675
G1 X177.683 Y120.849 E2.75756
G1 X177.962 Y121.662 E0.02697
G1 X115.017 Y58.717 E2.79364
G1 X114.484 Y58.717 E0.01675
G1 X178.241 Y122.475 E2.82972
G1 X178.520 Y123.288 E0.02697
G1 X113.950 Y58.717 E2.86579
M73 Q3 S115
M73 P3 R115
G1 X113.416 Y58.717 E0.01675
G1 X178.800 Y124.100 E2.90187
G1 X179.079 Y124.913 E0.02697
G1 X112.882 Y58.717 E2.93795
G1 X112.349 Y58.717 E0.01675
G1 X179.353 Y125.722 E2.97382
G1 X179.627 Y126.529 E0.02676
G1 X111.815 Y58.717 E3.00966
G1 X111.281 Y58.717 E0.01675
G1 X179.901 Y127.337 E3.04550
G1 X180.174 Y128.144 E0.02676
G1 X110.747 Y58.717 E3.08133
G1 X110.213 Y58.717 E0.01675
G1 X180.448 Y128.951 E3.11717
G1 X180.722 Y129.759 E0.02676
G1 X109.680 Y58.717 E3.15301
G1 X109.146 Y58.717 E0.01675
G1 X180.995 Y130.566 E3.18885
G1 X181.269 Y131.374 E0.02676
G1 X108.612 Y58.717 E3.22468
G1 X108.078 Y58.717 E0.01675
G1 X181.543 Y132.181 E3.26052
G1 X181.812 Y132.985 E0.02659
G1 X107.545 Y58.717 E3.29617
G1 X107.011 Y58.717 E0.01675
G1 X182.080 Y133.786 E3.33173
M73 Q4 S114
M73 P4 R114
G1 X182.347 Y134.587 E0.02651
G1 X106.477 Y58.717 E3.36730
G1 X105.943 Y58.717 E0.01675
G1 X182.615 Y135.389 E3.40286
G1 X182.883 Y136.190 E0.02651
G1 X105.410 Y58.717 E3.43843
G1 X104.876 Y58.717 E0.01675
G1 X183.150 Y136.991 E3.47399
G1 X183.418 Y137.792 E0.02651
G1 X104.342 Y58.717 E3.50956
G1 X103.808 Y58.717 E0.01675
G1 X183.685 Y138.594 E3.54512
G1 X183.953 Y139.395 E0.02651
G1 X103.275 Y58.717 E3.58069
G1 X102.741 Y58.717 E0.01675
G1 X184.220 Y140.196 E3.61625
G1 X184.488 Y140.998 E0.02651
G1 X102.207 Y58.717 E3.65182
G1 X101.673 Y58.717 E0.01675
G1 X184.756 Y141.799 E3.68738
G1 X185.023 Y142.600 E0.02651
G1 X101.140 Y58.717 E3.72295
M73 Q5 S113
M73 P5 R113
G1 X100.606 Y58.717 E0.01675
G1 X125.410 Y83.521 E1.10086
G1 X124.876 Y83.521 E0.01675
G1 X100.072 Y58.717 E1.10086
G1 X99.538 Y58.717 E0.01675
G1 X124.342 Y83.521 E1.10086
G1 X124.288 Y83.521 E0.00169
G1 X124.147 Y83.859 E0.01150
G1 X99.005 Y58.717 E1.11586
G1 X98.471 Y58.717 E0.01675
G1 X123.989 Y84.235 E1.13254
G1 X123.831 Y84.611 E0.01279
G1 X97.937 Y58.717 E1.14923
G1 X97.403 Y58.717 E0.01675
G1 X123.673 Y84.987 E1.16591
G1 X123.515 Y85.362 E0.01279
G1 X97.051 Y58.898 E1.17456
G1 X96.887 Y59.268 E0.01270
G1 X123.357 Y85.738 E1.17482
G1 X123.199 Y86.114 E0.01279
G1 X96.723 Y59.638 E1.17508
G1 X96.559 Y60.008 E0.01270
G1 X123.041 Y86.490 E1.17535
G1 X122.884 Y86.866 E0.01279
G1 X96.395 Y60.378 E1.17561
G1 X96.232 Y60.748 E0.01270
G1 X122.726 Y87.242 E1.17587
G1 X122.568 Y87.618 E0.01279
G1 X96.068 Y61.118 E1.17613
G1 X95.904 Y61.488 E0.01270
G1 X122.410 Y87.994 E1.17640
G1 X122.252 Y88.370 E0.01279
G1 X95.740 Y61.858 E1.17666
G1 X95.576 Y62.228 E0.01270
G1 X122.094 Y88.746 E1.17692
G1 X121.936 Y89.121 E0.01279
G1 X95.413 Y62.598 E1.17718
G1 X95.249 Y62.968 E0.01270
G1 X121.779 Y89.497 E1.17745
G1 X121.621 Y89.873 E0.01279
G1 X95.085 Y63.338 E1.17771
G1 X94.921 Y63.708 E0.01270
G1 X121.463 Y90.249 E1.17797
G1 X121.305 Y90.625 E0.01279
G1 X94.758 Y64.078 E1.17823
G1 X94.594 Y64.448 E0.01270
G1 X121.147 Y91.001 E1.17850
G1 X120.989 Y91.377 E0.01279
G1 X94.430 Y64.818 E1.17876
G1 X94.266 Y65.188 E0.01270
G1 X120.830 Y91.751 E1.17895
G1 X120.669 Y92.124 E0.01275
G1 X94.102 Y65.557 E1.17908
G1 X93.939 Y65.927 E0.01270
G1 X120.508 Y92.497 E1.17921
G1 X120.347 Y92.870 E0.01275
G1 X93.775 Y66.297 E1.17935
G1 X93.611 Y66.667 E0.01270
G1 X120.187 Y93.243 E1.17948
G1 X120.026 Y93.616 E0.01275
G1 X93.447 Y67.037 E1.17961
G1 X93.284 Y67.407 E0.01270
G1 X119.865 Y93.989 E1.17974
G1 X119.704 Y94.362 E0.01275
G1 X93.120 Y67.777 E1.17987
M73 Q6 S112
M73 P6 R112
G1 X92.956 Y68.147 E0.01270
G1 X119.543 Y94.735 E1.18000
G1 X119.382 Y95.108 E0.01275
G1 X92.792 Y68.517 E1.18014
G1 X92.630 Y68.889 E0.01273
G1 X119.220 Y95.479 E1.18012
G1 X119.057 Y95.850 E0.01271
G1 X92.469 Y69.262 E1.18004
G1 X92.308 Y69.634 E0.01274
G1 X118.894 Y96.221 E1.17997
G1 X118.731 Y96.592 E0.01271
G1 X92.147 Y70.007 E1.17989
G1 X91.986 Y70.379 E0.01274
G1 X118.569 Y96.962 E1.17981
G1 X118.406 Y97.333 E0.01271
G1 X91.824 Y70.752 E1.17974
G1 X91.663 Y71.125 E0.01274
G1 X118.243 Y97.704 E1.17966
G1 X118.080 Y98.075 E0.01271
G1 X91.502 Y71.497 E1.17959
G1 X91.341 Y71.870 E0.01274
G1 X117.917 Y98.446 E1.17951
G1 X117.754 Y98.817 E0.01271
G1 X91.180 Y72.242 E1.17944
G1 X91.018 Y72.615 E0.01274
G1 X117.589 Y99.185 E1.17925
G1 X117.423 Y99.553 E0.01266
G1 X90.857 Y72.988 E1.17904
G1 X90.696 Y73.360 E0.01274
G1 X117.257 Y99.921 E1.17883
G1 X117.091 Y100.289 E0.01266
G1 X90.535 Y73.733 E1.17862
G1 X90.374 Y74.105 E0.01274
G1 X116.925 Y100.657 E1.17841
G1 X116.759 Y101.025 E0.01266
G1 X90.213 Y74.478 E1.17821
G1 X90.051 Y74.850 E0.01274
G1 X116.593 Y101.393 E1.17800
G1 X116.428 Y101.760 E0.01266
G1 X89.890 Y75.223 E1.17779
G1 X89.729 Y75.596 E0.01274
G1 X116.262 Y102.128 E1.17758
G1 X116.096 Y102.496 E0.01266
G1 X89.568 Y75.968 E1.17737
G1 X89.407 Y76.341 E0.01274
G1 X115.930 Y102.864 E1.17717
G1 X115.764 Y103.232 E0.01266
G1 X89.247 Y76.715 E1.17689
G1 X89.088 Y77.090 E0.01278
G1 X115.598 Y103.600 E1.17658
G1 X115.432 Y103.968 E0.01266
G1 X88.929 Y77.465 E1.17626
G1 X88.771 Y77.840 E0.01278
G1 X115.267 Y104.336 E1.17595
G1 X115.101 Y104.704 E0.01266
G1 X88.612 Y78.215 E1.17563
G1 X88.453 Y78.590 E0.01278
G1 X114.935 Y105.071 E1.17532
G1 X114.769 Y105.439 E0.01266
G1 X88.294 Y78.965 E1.17501
G1 X88.135 Y79.340 E0.01278
G1 X114.603 Y105.807 E1.17469
G1 X114.435 Y106.173 E0.01264
G1 X87.977 Y79.715 E1.17430
M73 Q7 S111
M73 P7 R111
G1 X87.818 Y80.090 E0.01278
G1 X114.266 Y106.538 E1.17383
G1 X114.097 Y106.902 E0.01261
G1 X87.659 Y80.464 E1.17337
G1 X87.500 Y80.839 E0.01278
G1 X113.927 Y107.267 E1.17290
G1 X113.758 Y107.631 E0.01261
G1 X87.341 Y81.214 E1.17243
G1 X87.183 Y81.589 E0.01278
G1 X113.589 Y107.995 E1.17196
G1 X113.419 Y108.360 E0.01261
G1 X87.026 Y81.967 E1.17139
G1 X86.870 Y82.344 E0.01283
G1 X113.250 Y108.724 E1.17080
