; generated by PrusaSlicer 2.2.0+linux-x64 on 2020-07-01 at 09:33:51 UTC

; 

; external perimeters extrusion width = 0.45mm
; perimeters extrusion width = 0.45mm
; infill extrusion width = 0.45mm
; solid infill extrusion width = 0.45mm
; top infill extrusion width = 0.40mm
; first layer extrusion width = 0.42mm

M73 P0 R105
M73 Q0 S106
M201 X1000 Y1000 Z200 E5000 ; sets maximum accelerations, mm/sec^2
M203 X200 Y200 Z12 E120 ; sets maximum feedrates, mm/sec
M204 P1250 R1250 T1250 ; sets acceleration (P, T) and retract acceleration (R), mm/sec^2
M205 X8.00 Y8.00 Z0.40 E4.50 ; sets the jerk limits, mm/sec
M205 S0 T0 ; sets the minimum extruding and travel feed rate, mm/sec
M107
M862.3 P "MK3" ; printer model check
M862.1 P0.4 ; nozzle diameter check
M115 U3.9.0 ; tell printer latest fw version
G90 ; use absolute coordinates
M83 ; extruder relative mode
M104 S225 ; set extruder temp
M140 S60 ; set bed temp
M190 S60 ; wait for bed temp
M109 S225 ; wait for extruder temp
G28 W ; home all without mesh bed level
G80 ; mesh bed leveling
G1 Y-3.0 F1000.0 ; go outside print area
G92 E0.0
G1 X60.0 E9.0 F1000.0 ; intro line
M73 Q0 S106
M73 P0 R105
G1 X100.0 E12.5 F1000.0 ; intro line
G92 E0.0
M221 S95
G21 ; set units to millimeters
G90 ; use absolute coordinates
M83 ; use relative distances for extrusion
M900 K0.06 ; Filament gcode LA 1.5
M900 K30 ; Filament gcode LA 1.0
;BEFORE_LAYER_CHANGE
G92 E0.0
;0.2


G1 E-0.80000 F2100.00000
G1 Z0.600 F10800.000
;AFTER_LAYER_CHANGE
;0.2
G1 X99.676 Y16.867
G1 Z0.200
G1 E0.80000 F2100.00000
M204 S1000
G1 F1200.000
G1 X100.181 Y16.316 E0.02343
G1 X100.828 Y15.950 E0.02331
G1 X101.556 Y15.802 E0.02331
G1 X138.708 Y15.360 E1.16495
G1 X150.188 Y15.360 E0.35995
G1 X151.090 Y15.540 E0.02884
G1 X151.854 Y16.045 E0.02872
G1 X152.370 Y16.802 E0.02872
G1 X152.561 Y17.699 E0.02874
G1 X153.222 Y59.886 E1.32291
G1 X153.536 Y98.405 E1.20777
G1 X153.498 Y133.397 E1.09717
G1 X153.206 Y192.753 E1.86107
G1 X153.120 Y193.370 E0.01953
G1 X152.811 Y194.050 E0.02343
G1 X152.305 Y194.600 E0.02343
G1 X151.654 Y194.967 E0.02343
G1 X150.925 Y195.112 E0.02331
G1 X112.171 Y195.554 E1.21518
G1 X100.996 Y195.554 E0.35037
G1 X100.383 Y195.469 E0.01941
G1 X99.687 Y195.148 E0.02402
G1 X99.127 Y194.621 E0.02414
G1 X98.766 Y193.945 E0.02402
G1 X98.638 Y193.189 E0.02404
G1 X98.319 Y126.432 E2.09314
G1 X98.328 Y93.323 E1.03811
G1 X98.622 Y60.321 E1.03480
G1 X99.283 Y18.135 E1.32289
G1 X99.368 Y17.544 E0.01870
G1 X99.651 Y16.922 E0.02143
G1 F8640.000
G1 X100.181 Y16.316 E-0.18577
G1 X100.828 Y15.950 E-0.17168
G1 X101.556 Y15.802 E-0.17168
G1 X102.556 Y15.790 E-0.23088
G1 E-0.04000 F2100.00000
G1 Z0.800 F10800.000
G1 X102.434 Y18.964
G1 Z0.200
G1 E0.80000 F2100.00000
G1 F1200.000
G1 X112.315 Y18.964 E0.30980
G1 X111.772 Y51.290 E1.01370
G1 X111.631 Y62.261 E0.34403
G1 X111.533 Y72.919 E0.33418
G1 X111.479 Y83.401 E0.32866
G1 X111.461 Y94.275 E0.34093
G1 X111.524 Y127.604 E1.04502
G1 X111.526 Y149.129 E0.67490
G1 X111.371 Y192.390 E1.35643
G1 X101.799 Y192.390 E0.30012
G1 X101.484 Y126.424 E2.06835
G1 X101.457 Y111.706 E0.46148
G1 X101.492 Y93.335 E0.57599
G1 X101.558 Y82.332 E0.34499
G1 X101.656 Y71.352 E0.34428
G1 X101.786 Y60.364 E0.34455
G1 X102.015 Y44.780 E0.48868
G1 X102.433 Y19.024 E0.80767
G1 X102.063 Y18.587 F10800.000
G1 F1200.000
G1 X112.698 Y18.587 E0.33346
G1 X112.149 Y51.296 E1.02570
G1 X112.008 Y62.266 E0.34398
G1 X111.910 Y72.922 E0.33414
G1 X111.856 Y83.402 E0.32861
G1 X111.838 Y94.275 E0.34089
G1 X111.901 Y127.604 E1.04501
G1 X111.903 Y149.130 E0.67493
G1 X111.746 Y192.767 E1.36823
G1 X101.424 Y192.767 E0.32367
G1 X101.106 Y126.425 E2.08014
G1 X101.080 Y111.706 E0.46152
G1 X101.115 Y93.334 E0.57604
G1 X101.180 Y82.330 E0.34503
M73 Q1 S105
M73 P1 R104
G1 X101.279 Y71.349 E0.34432
G1 X101.409 Y60.359 E0.34459
G1 X101.638 Y44.774 E0.48870
G1 X102.062 Y18.647 E0.81931
G1 X102.408 Y18.789 F10800.000
G1 F8640.000
G1 X105.354 Y18.629 E-0.76000
G1 E-0.04000 F2100.00000
G1 Z0.800 F10800.000
G1 X102.675 Y192.277
G1 Z0.200
G1 E0.80000 F2100.00000
G1 F1200.000
G1 X102.078 Y191.681 E0.02646
G1 X102.076 Y191.144 E0.01682
G1 X103.039 Y192.107 E0.04272
G1 X103.572 Y192.107 E0.01674
G1 X102.073 Y190.608 E0.06651
G1 X102.071 Y190.072 E0.01682
G1 X104.106 Y192.107 E0.09030
G1 X104.639 Y192.107 E0.01674
G1 X102.068 Y189.536 E0.11409
G1 X102.065 Y189.000 E0.01682
G1 X105.173 Y192.107 E0.13788
G1 X105.707 Y192.107 E0.01674
G1 X102.063 Y188.463 E0.16167
G1 X102.060 Y187.927 E0.01682
G1 X106.240 Y192.107 E0.18546
G1 X106.774 Y192.107 E0.01674
G1 X102.058 Y187.391 E0.20925
G1 X102.055 Y186.855 E0.01682
G1 X107.307 Y192.107 E0.23304
G1 X107.841 Y192.107 E0.01674
G1 X102.053 Y186.319 E0.25683
G1 X102.050 Y185.783 E0.01682
G1 X108.375 Y192.107 E0.28063
G1 X108.908 Y192.107 E0.01674
G1 X102.047 Y185.246 E0.30442
G1 X102.045 Y184.710 E0.01682
G1 X109.442 Y192.107 E0.32821
G1 X109.976 Y192.107 E0.01674
G1 X102.042 Y184.174 E0.35200
G1 X102.040 Y183.638 E0.01682
G1 X110.509 Y192.107 E0.37579
G1 X111.043 Y192.107 E0.01674
G1 X102.037 Y183.102 E0.39958
G1 X102.035 Y182.566 E0.01682
G1 X111.091 Y191.621 E0.40182
G1 X111.093 Y191.090 E0.01668
G1 X102.032 Y182.029 E0.40201
G1 X102.030 Y181.493 E0.01682
G1 X111.094 Y190.558 E0.40221
G1 X111.096 Y190.026 E0.01668
G1 X102.027 Y180.957 E0.40241
G1 X102.024 Y180.421 E0.01682
G1 X111.098 Y189.495 E0.40261
G1 X111.100 Y188.963 E0.01668
G1 X102.022 Y179.885 E0.40281
G1 X102.019 Y179.348 E0.01682
G1 X111.102 Y188.431 E0.40301
G1 X111.104 Y187.900 E0.01668
G1 X102.017 Y178.812 E0.40320
G1 X102.014 Y178.276 E0.01682
G1 X111.106 Y187.368 E0.40340
G1 X111.108 Y186.836 E0.01668
G1 X102.012 Y177.740 E0.40360
G1 X102.009 Y177.204 E0.01682
G1 X111.110 Y186.304 E0.40380
G1 X111.112 Y185.773 E0.01668
G1 X102.006 Y176.668 E0.40400
G1 X102.004 Y176.131 E0.01682
G1 X111.114 Y185.241 E0.40420
G1 X111.115 Y184.709 E0.01668
G1 X102.001 Y175.595 E0.40439
G1 X101.999 Y175.059 E0.01682
G1 X111.117 Y184.178 E0.40459
G1 X111.119 Y183.646 E0.01668
G1 X101.996 Y174.523 E0.40479
G1 X101.994 Y173.987 E0.01682
G1 X111.121 Y183.114 E0.40499
G1 X111.123 Y182.582 E0.01668
G1 X101.991 Y173.451 E0.40519
G1 X101.989 Y172.914 E0.01682
G1 X111.125 Y182.051 E0.40538
G1 X111.127 Y181.519 E0.01668
G1 X101.986 Y172.378 E0.40558
G1 X101.983 Y171.842 E0.01682
G1 X111.129 Y180.987 E0.40578
G1 X111.131 Y180.456 E0.01668
G1 X101.981 Y171.306 E0.40598
G1 X101.978 Y170.770 E0.01682
G1 X111.133 Y179.924 E0.40618
G1 X111.134 Y179.392 E0.01668
G1 X101.976 Y170.233 E0.40638
G1 X101.973 Y169.697 E0.01682
G1 X111.136 Y178.861 E0.40657
G1 X111.138 Y178.329 E0.01668
G1 X101.971 Y169.161 E0.40677
G1 X101.968 Y168.625 E0.01682
G1 X111.140 Y177.797 E0.40697
G1 X111.142 Y177.265 E0.01668
G1 X101.965 Y168.089 E0.40717
G1 X101.963 Y167.553 E0.01682
G1 X111.144 Y176.734 E0.40737
G1 X111.146 Y176.202 E0.01668
G1 X101.960 Y167.016 E0.40757
G1 X101.958 Y166.480 E0.01682
G1 X111.148 Y175.670 E0.40776
G1 X111.150 Y175.139 E0.01668
G1 X101.955 Y165.944 E0.40796
G1 X101.953 Y165.408 E0.01682
G1 X111.152 Y174.607 E0.40816
G1 X111.154 Y174.075 E0.01668
G1 X101.950 Y164.872 E0.40836
G1 X101.948 Y164.336 E0.01682
G1 X111.155 Y173.543 E0.40856
G1 X111.157 Y173.012 E0.01668
G1 X101.945 Y163.799 E0.40876
G1 X101.942 Y163.263 E0.01682
G1 X111.159 Y172.480 E0.40895
G1 X111.161 Y171.948 E0.01668
G1 X101.940 Y162.727 E0.40915
G1 X101.937 Y162.191 E0.01682
G1 X111.163 Y171.417 E0.40935
G1 X111.165 Y170.885 E0.01668
G1 X101.935 Y161.655 E0.40955
G1 X101.932 Y161.118 E0.01682
G1 X111.167 Y170.353 E0.40975
G1 X111.169 Y169.822 E0.01668
G1 X101.930 Y160.582 E0.40995
G1 X101.927 Y160.046 E0.01682
G1 X111.171 Y169.290 E0.41014
G1 X111.173 Y168.758 E0.01668
G1 X101.924 Y159.510 E0.41034
G1 X101.922 Y158.974 E0.01682
G1 X111.175 Y168.226 E0.41054
G1 X111.176 Y167.695 E0.01668
G1 X101.919 Y158.438 E0.41074
G1 X101.917 Y157.901 E0.01682
G1 X111.178 Y167.163 E0.41094
G1 X111.180 Y166.631 E0.01668
G1 X101.914 Y157.365 E0.41114
G1 X101.912 Y156.829 E0.01682
G1 X111.182 Y166.100 E0.41133
G1 X111.184 Y165.568 E0.01668
G1 X101.909 Y156.293 E0.41153
G1 X101.907 Y155.757 E0.01682
G1 X111.186 Y165.036 E0.41173
G1 X111.188 Y164.504 E0.01668
G1 X101.904 Y155.221 E0.41193
G1 X101.901 Y154.684 E0.01682
G1 X111.190 Y163.973 E0.41213
G1 X111.192 Y163.441 E0.01668
G1 X101.899 Y154.148 E0.41233
G1 X101.896 Y153.612 E0.01682
G1 X111.194 Y162.909 E0.41252
G1 X111.196 Y162.378 E0.01668
G1 X101.894 Y153.076 E0.41272
G1 X101.891 Y152.540 E0.01682
G1 X111.197 Y161.846 E0.41292
G1 X111.199 Y161.314 E0.01668
G1 X101.889 Y152.003 E0.41312
G1 X101.886 Y151.467 E0.01682
G1 X111.201 Y160.783 E0.41332
G1 X111.203 Y160.251 E0.01668
G1 X101.883 Y150.931 E0.41352
G1 X101.881 Y150.395 E0.01682
G1 X111.205 Y159.719 E0.41371
G1 X111.207 Y159.187 E0.01668
G1 X101.878 Y149.859 E0.41391
G1 X101.876 Y149.323 E0.01682
G1 X111.209 Y158.656 E0.41411
G1 X111.211 Y158.124 E0.01668
G1 X101.873 Y148.786 E0.41431
G1 X101.871 Y148.250 E0.01682
G1 X111.213 Y157.592 E0.41451
G1 X111.215 Y157.061 E0.01668
G1 X101.868 Y147.714 E0.41471
G1 X101.866 Y147.178 E0.01682
G1 X111.217 Y156.529 E0.41490
G1 X111.218 Y155.997 E0.01668
G1 X101.863 Y146.642 E0.41510
G1 X101.860 Y146.106 E0.01682
G1 X111.220 Y155.465 E0.41530
G1 X111.222 Y154.934 E0.01668
G1 X101.858 Y145.569 E0.41550
G1 X101.855 Y145.033 E0.01682
G1 X111.224 Y154.402 E0.41570
M73 Q1 S104
G1 X111.226 Y153.870 E0.01668
G1 X101.853 Y144.497 E0.41590
M73 P1 R103
G1 X101.850 Y143.961 E0.01682
G1 X111.228 Y153.339 E0.41609
G1 X111.230 Y152.807 E0.01668
G1 X101.848 Y143.425 E0.41629
G1 X101.845 Y142.888 E0.01682
G1 X111.232 Y152.275 E0.41649
G1 X111.234 Y151.743 E0.01668
G1 X101.842 Y142.352 E0.41669
G1 X101.840 Y141.816 E0.01682
G1 X111.236 Y151.212 E0.41689
G1 X111.237 Y150.680 E0.01668
G1 X101.837 Y141.280 E0.41709
G1 X101.835 Y140.744 E0.01682
G1 X111.239 Y150.148 E0.41728
G1 X111.241 Y149.617 E0.01668
G1 X101.832 Y140.208 E0.41748
G1 X101.830 Y139.671 E0.01682
G1 X111.243 Y149.085 E0.41767
G1 X111.243 Y148.551 E0.01674
G1 X101.827 Y139.135 E0.41779
G1 X101.825 Y138.599 E0.01682
G1 X111.243 Y148.017 E0.41790
G1 X111.243 Y147.484 E0.01674
G1 X101.822 Y138.063 E0.41801
G1 X101.819 Y137.527 E0.01682
G1 X111.243 Y146.950 E0.41812
G1 X111.243 Y146.417 E0.01674
G1 X101.817 Y136.991 E0.41823
G1 X101.814 Y136.454 E0.01682
G1 X111.243 Y145.883 E0.41835
G1 X111.243 Y145.349 E0.01674
G1 X101.812 Y135.918 E0.41846
G1 X101.809 Y135.382 E0.01682
G1 X111.243 Y144.816 E0.41857
G1 X111.243 Y144.282 E0.01674
G1 X101.807 Y134.846 E0.41868
G1 X101.804 Y134.310 E0.01682
G1 X111.243 Y143.748 E0.41879
G1 X111.243 Y143.215 E0.01674
G1 X101.801 Y133.773 E0.41891
G1 X101.799 Y133.237 E0.01682
G1 X111.243 Y142.681 E0.41902
G1 X111.243 Y142.147 E0.01674
G1 X101.796 Y132.701 E0.41913
G1 X101.794 Y132.165 E0.01682
G1 X111.243 Y141.614 E0.41924
G1 X111.242 Y141.080 E0.01674
G1 X101.791 Y131.629 E0.41935
G1 X101.789 Y131.093 E0.01682
G1 X111.242 Y140.546 E0.41947
G1 X111.242 Y140.013 E0.01674
G1 X101.786 Y130.556 E0.41958
G1 X101.784 Y130.020 E0.01682
G1 X111.242 Y139.479 E0.41969
G1 X111.242 Y138.945 E0.01674
G1 X101.781 Y129.484 E0.41980
G1 X101.778 Y128.948 E0.01682
G1 X111.242 Y138.412 E0.41991
G1 X111.242 Y137.878 E0.01674
G1 X101.776 Y128.412 E0.42003
G1 X101.773 Y127.876 E0.01682
G1 X111.242 Y137.344 E0.42014
G1 X111.242 Y136.811 E0.01674
G1 X101.771 Y127.339 E0.42025
G1 X101.768 Y126.803 E0.01682
G1 X111.242 Y136.277 E0.42036
G1 X111.242 Y135.743 E0.01674
G1 X101.766 Y126.267 E0.42045
G1 X101.765 Y125.733 E0.01677
G1 X111.242 Y135.210 E0.42049
G1 X111.242 Y134.676 E0.01674
G1 X101.764 Y125.198 E0.42054
G1 X101.763 Y124.664 E0.01677
G1 X111.242 Y134.143 E0.42058
G1 X111.242 Y133.609 E0.01674
G1 X101.762 Y124.129 E0.42062
G1 X101.761 Y123.595 E0.01677
G1 X111.242 Y133.075 E0.42066
G1 X111.242 Y132.542 E0.01674
G1 X101.760 Y123.060 E0.42070
G1 X101.759 Y122.525 E0.01677
G1 X111.242 Y132.008 E0.42074
G1 X111.242 Y131.474 E0.01674
G1 X101.758 Y121.991 E0.42078
G1 X101.757 Y121.456 E0.01677
G1 X111.242 Y130.941 E0.42083
G1 X111.242 Y130.407 E0.01674
G1 X101.756 Y120.922 E0.42087
G1 X101.755 Y120.387 E0.01677
G1 X111.242 Y129.873 E0.42091
G1 X111.242 Y129.340 E0.01674
G1 X101.754 Y119.852 E0.42095
G1 X101.753 Y119.318 E0.01677
G1 X111.242 Y128.806 E0.42099
G1 X111.242 Y128.272 E0.01674
G1 X101.752 Y118.783 E0.42103
G1 X101.751 Y118.249 E0.01677
G1 X111.242 Y127.739 E0.42107
G1 X111.241 Y127.204 E0.01677
G1 X101.750 Y117.714 E0.42108
G1 X101.750 Y117.179 E0.01677
G1 X111.240 Y126.670 E0.42108
G1 X111.239 Y126.135 E0.01677
G1 X101.749 Y116.645 E0.42108
G1 X101.748 Y116.110 E0.01677
G1 X111.238 Y125.600 E0.42108
G1 X111.237 Y125.066 E0.01677
G1 X101.747 Y115.576 E0.42108
G1 X101.746 Y115.041 E0.01677
G1 X111.236 Y124.531 E0.42107
G1 X111.235 Y123.997 E0.01677
G1 X101.745 Y114.507 E0.42107
G1 X101.744 Y113.972 E0.01677
G1 X111.234 Y123.462 E0.42107
G1 X111.233 Y122.927 E0.01677
G1 X101.743 Y113.437 E0.42107
G1 X101.742 Y112.903 E0.01677
G1 X111.232 Y122.393 E0.42107
G1 X111.231 Y121.858 E0.01677
G1 X101.741 Y112.368 E0.42107
G1 X101.740 Y111.834 E0.01677
G1 X111.230 Y121.323 E0.42106
G1 X111.229 Y120.789 E0.01677
G1 X101.740 Y111.301 E0.42099
G1 X101.741 Y110.768 E0.01671
G1 X111.228 Y120.254 E0.42090
G1 X111.227 Y119.720 E0.01677
G1 X101.742 Y110.235 E0.42081
G1 X101.743 Y109.703 E0.01671
G1 X111.226 Y119.185 E0.42072
G1 X111.225 Y118.650 E0.01677
G1 X101.744 Y109.170 E0.42063
G1 X101.745 Y108.638 E0.01671
G1 X111.223 Y118.116 E0.42054
G1 X111.222 Y117.581 E0.01677
G1 X101.746 Y108.105 E0.42045
G1 X101.748 Y107.572 E0.01671
G1 X111.221 Y117.046 E0.42036
G1 X111.220 Y116.512 E0.01677
G1 X101.749 Y107.040 E0.42027
G1 X101.750 Y106.507 E0.01671
G1 X111.219 Y115.977 E0.42018
G1 X111.218 Y115.443 E0.01677
G1 X101.751 Y105.975 E0.42009
G1 X101.752 Y105.442 E0.01671
G1 X111.217 Y114.908 E0.42000
G1 X111.216 Y114.373 E0.01677
G1 X101.753 Y104.909 E0.41991
G1 X101.754 Y104.377 E0.01671
G1 X111.215 Y113.839 E0.41982
G1 X111.214 Y113.304 E0.01677
G1 X101.755 Y103.844 E0.41973
G1 X101.756 Y103.312 E0.01671
G1 X111.213 Y112.769 E0.41964
G1 X111.212 Y112.235 E0.01677
G1 X101.757 Y102.779 E0.41955
G1 X101.758 Y102.247 E0.01671
G1 X111.211 Y111.700 E0.41946
G1 X111.210 Y111.165 E0.01677
G1 X101.759 Y101.714 E0.41937
G1 X101.760 Y101.181 E0.01671
G1 X111.209 Y110.631 E0.41928
G1 X111.208 Y110.096 E0.01677
G1 X101.761 Y100.649 E0.41919
G1 X101.762 Y100.116 E0.01671
G1 X111.207 Y109.562 E0.41910
G1 X111.206 Y109.027 E0.01677
G1 X101.763 Y99.584 E0.41901
M73 Q2 S103
G1 X101.764 Y99.051 E0.01671
G1 X111.205 Y108.492 E0.41892
M73 P2 R102
G1 X111.204 Y107.958 E0.01677
G1 X101.765 Y98.518 E0.41882
G1 X101.766 Y97.986 E0.01671
G1 X111.203 Y107.423 E0.41873
G1 X111.202 Y106.888 E0.01677
G1 X101.767 Y97.453 E0.41864
G1 X101.768 Y96.921 E0.01671
G1 X111.201 Y106.354 E0.41855
G1 X111.200 Y105.819 E0.01677
G1 X101.769 Y96.388 E0.41846
G1 X101.770 Y95.855 E0.01671
G1 X111.199 Y105.285 E0.41837
G1 X111.198 Y104.750 E0.01677
G1 X101.771 Y95.323 E0.41828
G1 X101.772 Y94.790 E0.01671
G1 X111.197 Y104.215 E0.41819
G1 X111.196 Y103.681 E0.01677
G1 X101.773 Y94.258 E0.41810
G1 X101.774 Y93.725 E0.01671
G1 X111.195 Y103.146 E0.41801
G1 X111.194 Y102.611 E0.01677
G1 X101.776 Y93.193 E0.41790
G1 X101.779 Y92.663 E0.01664
G1 X111.193 Y102.077 E0.41771
G1 X111.192 Y101.542 E0.01677
G1 X101.782 Y92.132 E0.41752
G1 X101.785 Y91.602 E0.01664
G1 X111.191 Y101.008 E0.41734
G1 X111.190 Y100.473 E0.01677
G1 X101.788 Y91.071 E0.41715
G1 X101.791 Y90.541 E0.01664
G1 X111.189 Y99.938 E0.41697
G1 X111.188 Y99.404 E0.01677
G1 X101.795 Y90.010 E0.41678
G1 X101.798 Y89.480 E0.01664
G1 X111.187 Y98.869 E0.41660
G1 X111.186 Y98.334 E0.01677
G1 X101.801 Y88.949 E0.41641
G1 X101.804 Y88.419 E0.01664
G1 X111.185 Y97.800 E0.41623
G1 X111.184 Y97.265 E0.01677
G1 X101.807 Y87.888 E0.41604
G1 X101.810 Y87.358 E0.01664
G1 X111.183 Y96.731 E0.41586
G1 X111.182 Y96.196 E0.01677
G1 X101.814 Y86.828 E0.41567
G1 X101.817 Y86.297 E0.01664
G1 X111.181 Y95.661 E0.41549
G1 X111.180 Y95.127 E0.01677
G1 X101.820 Y85.767 E0.41530
G1 X101.823 Y85.236 E0.01664
