; generated by PrusaSlicer 2.2.0+linux-x64 on 2020-07-01 at 09:35:14 UTC

; 

; external perimeters extrusion width = 0.45mm
; perimeters extrusion width = 0.45mm
; infill extrusion width = 0.45mm
; solid infill extrusion width = 0.45mm
; top infill extrusion width = 0.40mm
; first layer extrusion width = 0.42mm

M73 P0 R96
M73 Q0 S97
M201 X1000 Y1000 Z200 E5000 ; sets maximum accelerations, mm/sec^2
M203 X200 Y200 Z12 E120 ; sets maximum feedrates, mm/sec
M204 P1250 R1250 T1250 ; sets acceleration (P, T) and retract acceleration (R), mm/sec^2
M205 X8.00 Y8.00 Z0.40 E4.50 ; sets the jerk limits, mm/sec
M205 S0 T0 ; sets the minimum extruding and travel feed rate, mm/sec
M107
M862.3 P "MK3" ; printer model check
M862.1 P0.4 ; nozzle diameter check
M115 U3.9.0 ; tell printer latest fw version
G90 ; use absolute coordinates
M83 ; extruder relative mode
M104 S225 ; set extruder temp
M140 S60 ; set bed temp
M190 S60 ; wait for bed temp
M109 S225 ; wait for extruder temp
G28 W ; home all without mesh bed level
G80 ; mesh bed leveling
G1 Y-3.0 F1000.0 ; go outside print area
G92 E0.0
G1 X60.0 E9.0 F1000.0 ; intro line
M73 Q0 S97
M73 P0 R96
G1 X100.0 E12.5 F1000.0 ; intro line
G92 E0.0
M221 S95
G21 ; set units to millimeters
G90 ; use absolute coordinates
M83 ; use relative distances for extrusion
M900 K0.06 ; Filament gcode LA 1.5
M900 K30 ; Filament gcode LA 1.0
;BEFORE_LAYER_CHANGE
G92 E0.0
;0.2


G1 E-0.80000 F2100.00000
G1 Z0.600 F10800.000
;AFTER_LAYER_CHANGE
;0.2
G1 X89.532 Y29.612
G1 Z0.200
G1 E0.80000 F2100.00000
M204 S1000
G1 F1200.000
G1 X89.891 Y29.066 E0.02048
G1 X90.385 Y28.639 E0.02048
G1 X90.977 Y28.363 E0.02048
G1 X91.621 Y28.257 E0.02048
G1 X140.587 Y28.037 E1.53531
G1 X155.596 Y28.037 E0.47059
G1 X156.272 Y28.136 E0.02142
G1 X156.892 Y28.424 E0.02142
G1 X157.404 Y28.876 E0.02142
G1 X157.767 Y29.455 E0.02142
G1 X157.934 Y30.007 E0.01811
G1 X158.781 Y35.272 E0.16720
G1 X161.038 Y50.756 E0.49059
G1 X162.409 Y61.670 E0.34491
G1 X163.575 Y72.441 E0.33968
G1 X164.987 Y88.678 E0.51102
G1 X165.703 Y99.407 E0.33716
G1 X166.249 Y109.944 E0.33083
G1 X166.638 Y120.163 E0.32062
G1 X166.929 Y132.308 E0.38093
G1 X167.045 Y143.619 E0.35466
G1 X167.003 Y157.837 E0.44580
G1 X166.697 Y180.468 E0.70962
G1 X166.633 Y180.965 E0.01574
G1 X166.467 Y181.435 E0.01562
G1 X166.106 Y181.984 E0.02060
G1 X165.608 Y182.412 E0.02060
G1 X165.012 Y182.688 E0.02060
G1 X164.359 Y182.791 E0.02071
G1 X82.950 Y183.011 E2.55255
G1 X82.425 Y182.952 E0.01657
G1 X81.929 Y182.781 E0.01645
G1 X81.406 Y182.442 E0.01953
G1 X80.987 Y181.975 E0.01965
G1 X80.705 Y181.416 E0.01965
G1 X80.579 Y180.806 E0.01953
G1 X80.286 Y159.935 E0.65446
G1 X80.219 Y145.985 E0.43740
G1 X80.341 Y132.530 E0.42190
G1 X80.633 Y120.375 E0.38121
G1 X81.142 Y107.552 E0.40238
G1 X81.721 Y97.101 E0.32820
G1 X82.284 Y88.881 E0.25831
G1 X83.180 Y78.064 E0.34032
G1 X84.257 Y67.258 E0.34051
G1 X85.507 Y56.553 E0.33792
G1 X86.917 Y46.001 E0.33381
G1 X88.490 Y35.485 E0.33337
G1 X89.337 Y30.219 E0.16723
G1 X89.513 Y29.669 E0.01812
G1 F8640.000
G1 X89.891 Y29.066 E-0.16418
G1 X90.385 Y28.639 E-0.15080
G1 X90.977 Y28.363 E-0.15080
G1 X91.621 Y28.257 E-0.15080
G1 X92.242 Y28.255 E-0.14342
G1 E-0.04000 F2100.00000
G1 Z0.800 F10800.000
G1 X141.566 Y31.201
G1 Z0.200
G1 E0.80000 F2100.00000
G1 F1200.000
G1 X154.923 Y31.201 E0.41879
G1 X155.655 Y35.760 E0.14478
G1 X156.443 Y40.900 E0.16303
G1 X157.219 Y46.219 E0.16857
G1 X157.940 Y51.451 E0.16559
G1 X158.623 Y56.725 E0.16672
G1 X159.233 Y61.763 E0.15913
G1 X159.867 Y67.376 E0.17712
G1 X160.425 Y72.745 E0.16924
G1 X160.939 Y78.130 E0.16961
G1 X161.407 Y83.520 E0.16965
G1 X161.831 Y88.904 E0.16932
G1 X162.210 Y94.267 E0.16858
G1 X162.545 Y99.595 E0.16737
G1 X162.968 Y107.489 E0.24788
G1 X163.199 Y112.664 E0.16240
G1 X163.392 Y117.752 E0.15964
G1 X163.549 Y122.739 E0.15644
G1 X163.673 Y127.612 E0.15285
G1 X163.765 Y132.361 E0.14892
G1 X163.830 Y136.974 E0.14467
G1 X163.887 Y145.774 E0.27591
G1 X163.868 Y153.966 E0.25686
G1 X163.777 Y163.423 E0.29652
G1 X163.544 Y179.627 E0.50813
G1 X153.619 Y179.627 E0.31120
G1 X153.891 Y165.227 E0.45157
G1 X153.981 Y157.485 E0.24276
G1 X153.997 Y152.571 E0.15409
G1 X153.981 Y148.248 E0.13555
G1 X153.933 Y143.759 E0.14075
G1 X153.849 Y139.108 E0.14585
G1 X153.724 Y134.299 E0.15084
G1 X153.556 Y129.335 E0.15575
G1 X153.298 Y123.335 E0.18830
G1 X153.072 Y118.930 E0.13828
G1 X152.810 Y114.445 E0.14088
G1 X152.510 Y109.888 E0.14319
G1 X152.173 Y105.270 E0.14519
G1 X151.798 Y100.600 E0.14687
G1 X151.383 Y95.890 E0.14825
G1 X150.928 Y91.150 E0.14932
G1 X150.467 Y86.713 E0.13987
G1 X149.971 Y82.269 E0.14020
G1 X149.439 Y77.824 E0.14036
G1 X148.874 Y73.384 E0.14034
G1 X148.273 Y68.954 E0.14016
G1 X147.639 Y64.540 E0.13981
G1 X146.970 Y60.149 E0.13928
G1 X146.268 Y55.786 E0.13857
G1 X145.717 Y52.526 E0.10367
G1 X144.560 Y46.064 E0.20583
G1 X143.331 Y39.678 E0.20390
G1 X142.691 Y36.512 E0.10127
G1 X141.579 Y31.260 E0.16833
G1 X141.101 Y30.824 F10800.000
G1 F1200.000
G1 X155.244 Y30.824 E0.44346
G1 X156.027 Y35.702 E0.15489
G1 X156.816 Y40.844 E0.16311
G1 X157.592 Y46.166 E0.16866
G1 X158.314 Y51.401 E0.16569
G1 X158.997 Y56.678 E0.16681
G1 X159.608 Y61.719 E0.15923
G1 X160.242 Y67.335 E0.17722
G1 X160.800 Y72.707 E0.16934
G1 X161.314 Y78.096 E0.16971
G1 X161.783 Y83.489 E0.16975
G1 X162.207 Y88.876 E0.16942
G1 X162.586 Y94.242 E0.16867
G1 X162.921 Y99.573 E0.16747
G1 X163.344 Y107.471 E0.24799
G1 X163.576 Y112.648 E0.16250
G1 X163.769 Y117.739 E0.15972
G1 X163.926 Y122.728 E0.15652
G1 X164.050 Y127.604 E0.15292
G1 X164.142 Y132.354 E0.14899
G1 X164.207 Y136.970 E0.14475
G1 X164.264 Y145.773 E0.27600
G1 X164.245 Y153.968 E0.25696
G1 X164.154 Y163.427 E0.29659
G1 X163.916 Y180.004 E0.51981
G1 X153.235 Y180.004 E0.33491
G1 X153.514 Y165.222 E0.46357
G1 X153.604 Y157.482 E0.24267
G1 X153.620 Y152.571 E0.15400
G1 X153.604 Y148.251 E0.13547
G1 X153.556 Y143.765 E0.14066
G1 X153.472 Y139.117 E0.14576
G1 X153.347 Y134.310 E0.15075
G1 X153.179 Y129.349 E0.15565
G1 X152.922 Y123.352 E0.18820
G1 X152.696 Y118.951 E0.13818
G1 X152.433 Y114.468 E0.14079
G1 X152.134 Y109.914 E0.14310
G1 X151.797 Y105.298 E0.14510
G1 X151.422 Y100.632 E0.14678
G1 X151.007 Y95.925 E0.14816
G1 X150.552 Y91.187 E0.14923
G1 X150.092 Y86.753 E0.13978
G1 X149.596 Y82.312 E0.14011
G1 X149.065 Y77.870 E0.14027
G1 X148.500 Y73.433 E0.14025
G1 X147.900 Y69.006 E0.14007
G1 X147.266 Y64.596 E0.13971
G1 X146.598 Y60.207 E0.13918
G1 X145.896 Y55.847 E0.13847
G1 X145.345 Y52.590 E0.10356
G1 X144.189 Y46.133 E0.20569
G1 X142.961 Y39.751 E0.20377
G1 X142.322 Y36.588 E0.10116
G1 X141.113 Y30.883 E0.18287
G1 X141.460 Y31.000 F10800.000
G1 F8640.000
G1 X144.405 Y30.869 E-0.76000
G1 E-0.04000 F2100.00000
G1 Z0.800 F10800.000
G1 X154.497 Y179.514
G1 Z0.200
G1 E0.80000 F2100.00000
M73 Q1 S96
M73 P1 R95
G1 F1200.000
G1 X153.915 Y178.932 E0.02580
G1 X153.925 Y178.409 E0.01642
G1 X154.860 Y179.344 E0.04150
G1 X155.394 Y179.344 E0.01673
G1 X153.935 Y177.885 E0.06472
G1 X153.945 Y177.361 E0.01642
G1 X155.927 Y179.344 E0.08795
G1 X156.461 Y179.344 E0.01673
G1 X153.954 Y176.838 E0.11117
G1 X153.964 Y176.314 E0.01642
G1 X156.994 Y179.344 E0.13439
G1 X157.528 Y179.344 E0.01673
G1 X153.974 Y175.791 E0.15762
G1 X153.984 Y175.267 E0.01642
G1 X158.061 Y179.344 E0.18084
G1 X158.594 Y179.344 E0.01673
G1 X153.994 Y174.744 E0.20406
G1 X154.004 Y174.220 E0.01642
G1 X159.128 Y179.344 E0.22729
G1 X159.661 Y179.344 E0.01673
G1 X154.014 Y173.696 E0.25051
G1 X154.024 Y173.173 E0.01642
G1 X160.195 Y179.344 E0.27373
G1 X160.728 Y179.344 E0.01673
G1 X154.033 Y172.649 E0.29696
G1 X154.043 Y172.126 E0.01642
G1 X161.262 Y179.344 E0.32018
G1 X161.795 Y179.344 E0.01673
G1 X154.053 Y171.602 E0.34340
G1 X154.063 Y171.079 E0.01642
G1 X162.329 Y179.344 E0.36663
G1 X162.862 Y179.344 E0.01673
G1 X154.073 Y170.555 E0.38985
G1 X154.083 Y170.031 E0.01642
G1 X163.267 Y179.216 E0.40739
G1 X163.275 Y178.690 E0.01650
G1 X154.093 Y169.508 E0.40729
G1 X154.103 Y168.984 E0.01642
G1 X163.282 Y178.164 E0.40718
G1 X163.290 Y177.638 E0.01650
G1 X154.112 Y168.461 E0.40708
G1 X154.122 Y167.937 E0.01642
G1 X163.298 Y177.112 E0.40698
G1 X163.305 Y176.586 E0.01650
G1 X154.132 Y167.414 E0.40687
G1 X154.142 Y166.890 E0.01642
G1 X163.313 Y176.061 E0.40677
G1 X163.320 Y175.535 E0.01650
G1 X154.152 Y166.367 E0.40666
G1 X154.162 Y165.843 E0.01642
G1 X163.328 Y175.009 E0.40656
G1 X163.335 Y174.483 E0.01650
G1 X154.172 Y165.319 E0.40646
G1 X154.179 Y164.793 E0.01652
G1 X163.343 Y173.957 E0.40649
G1 X163.350 Y173.431 E0.01650
G1 X154.185 Y164.265 E0.40655
G1 X154.191 Y163.738 E0.01654
G1 X163.358 Y172.905 E0.40661
G1 X163.365 Y172.379 E0.01650
G1 X154.197 Y163.211 E0.40667
G1 X154.203 Y162.684 E0.01654
G1 X163.373 Y171.853 E0.40674
G1 X163.380 Y171.327 E0.01650
G1 X154.209 Y162.156 E0.40680
G1 X154.215 Y161.629 E0.01654
G1 X163.388 Y170.802 E0.40686
G1 X163.396 Y170.276 E0.01650
G1 X154.222 Y161.102 E0.40692
G1 X154.228 Y160.574 E0.01654
G1 X163.403 Y169.750 E0.40698
G1 X163.411 Y169.224 E0.01650
G1 X154.234 Y160.047 E0.40705
G1 X154.240 Y159.520 E0.01654
G1 X163.418 Y168.698 E0.40711
G1 X163.426 Y168.172 E0.01650
G1 X154.246 Y158.992 E0.40717
G1 X154.252 Y158.465 E0.01654
G1 X163.433 Y167.646 E0.40723
G1 X163.441 Y167.120 E0.01650
G1 X154.258 Y157.938 E0.40729
G1 X154.264 Y157.410 E0.01656
G1 X163.448 Y166.594 E0.40738
G1 X163.456 Y166.068 E0.01650
G1 X154.266 Y156.878 E0.40764
G1 X154.268 Y156.347 E0.01667
G1 X163.463 Y165.542 E0.40789
G1 X163.471 Y165.017 E0.01650
G1 X154.269 Y155.815 E0.40815
G1 X154.271 Y155.283 E0.01667
G1 X163.478 Y164.491 E0.40840
G1 X163.486 Y163.965 E0.01650
G1 X154.273 Y154.752 E0.40866
G1 X154.275 Y154.220 E0.01667
G1 X163.493 Y163.439 E0.40891
G1 X163.499 Y162.911 E0.01657
G1 X154.276 Y153.688 E0.40906
G1 X154.278 Y153.157 E0.01667
G1 X163.504 Y162.382 E0.40921
G1 X163.509 Y161.854 E0.01657
G1 X154.280 Y152.625 E0.40936
G1 X154.278 Y152.090 E0.01678
G1 X163.514 Y161.326 E0.40965
G1 X163.519 Y160.797 E0.01657
G1 X154.276 Y151.555 E0.40997
G1 X154.275 Y151.019 E0.01679
G1 X163.524 Y160.269 E0.41028
G1 X163.529 Y159.741 E0.01657
G1 X154.273 Y150.484 E0.41060
G1 X154.271 Y149.948 E0.01679
G1 X163.535 Y159.212 E0.41091
G1 X163.540 Y158.684 E0.01657
G1 X154.269 Y149.413 E0.41123
G1 X154.267 Y148.877 E0.01679
G1 X163.545 Y158.156 E0.41154
G1 X163.550 Y157.627 E0.01657
G1 X154.265 Y148.342 E0.41186
G1 X154.259 Y147.803 E0.01689
G1 X163.555 Y157.099 E0.41231
G1 X163.560 Y156.571 E0.01657
G1 X154.254 Y147.264 E0.41280
G1 X154.248 Y146.725 E0.01691
G1 X163.565 Y156.042 E0.41328
G1 X163.570 Y155.514 E0.01657
G1 X154.242 Y146.186 E0.41377
G1 X154.236 Y145.646 E0.01691
G1 X163.575 Y154.986 E0.41425
G1 X163.581 Y154.457 E0.01657
G1 X154.230 Y145.107 E0.41474
G1 X154.225 Y144.568 E0.01691
G1 X163.585 Y153.929 E0.41521
G1 X163.587 Y153.396 E0.01669
G1 X154.219 Y144.029 E0.41552
G1 X154.211 Y143.487 E0.01698
G1 X163.588 Y152.864 E0.41592
G1 X163.589 Y152.332 E0.01669
G1 X154.201 Y142.944 E0.41641
G1 X154.191 Y142.401 E0.01704
G1 X163.590 Y151.800 E0.41690
G1 X163.591 Y151.268 E0.01669
G1 X154.181 Y141.857 E0.41739
G1 X154.171 Y141.314 E0.01704
G1 X163.593 Y150.735 E0.41789
G1 X163.594 Y150.203 E0.01669
G1 X154.162 Y140.771 E0.41838
G1 X154.152 Y140.228 E0.01704
G1 X163.595 Y149.671 E0.41887
G1 X163.596 Y149.139 E0.01669
G1 X154.142 Y139.684 E0.41936
G1 X154.132 Y139.141 E0.01704
G1 X163.597 Y148.606 E0.41985
G1 X163.599 Y148.074 E0.01669
G1 X154.118 Y138.594 E0.42052
G1 X154.104 Y138.046 E0.01718
G1 X163.600 Y147.542 E0.42120
G1 X163.601 Y147.010 E0.01669
G1 X154.090 Y137.498 E0.42189
G1 X154.076 Y136.951 E0.01718
G1 X163.602 Y146.477 E0.42257
G1 X163.604 Y145.945 E0.01669
G1 X154.061 Y136.403 E0.42325
G1 X154.047 Y135.855 E0.01718
G1 X163.602 Y145.410 E0.42379
G1 X163.598 Y144.873 E0.01684
G1 X154.033 Y135.308 E0.42427
G1 X154.019 Y134.760 E0.01718
G1 X163.595 Y144.336 E0.42474
G1 X163.591 Y143.799 E0.01684
G1 X154.004 Y134.212 E0.42524
G1 X153.985 Y133.660 E0.01733
G1 X163.588 Y143.262 E0.42592
G1 X163.584 Y142.725 E0.01684
G1 X153.967 Y133.108 E0.42659
G1 X153.948 Y132.556 E0.01733
G1 X163.581 Y142.188 E0.42727
G1 X163.577 Y141.651 E0.01684
G1 X153.929 Y132.003 E0.42795
G1 X153.911 Y131.451 E0.01733
G1 X163.574 Y141.114 E0.42862
G1 X163.570 Y140.577 E0.01684
G1 X153.892 Y130.899 E0.42930
G1 X153.873 Y130.347 E0.01733
G1 X163.567 Y140.041 E0.42997
G1 X163.563 Y139.504 E0.01684
G1 X153.854 Y129.795 E0.43065
G1 X153.835 Y129.242 E0.01735
G1 X163.560 Y138.967 E0.43136
G1 X163.556 Y138.430 E0.01684
G1 X153.811 Y128.684 E0.43226
M73 Q2 S95
M73 P2 R94
G1 X153.787 Y128.127 E0.01750
G1 X163.553 Y137.893 E0.43317
G1 X163.549 Y137.356 E0.01684
G1 X153.763 Y127.570 E0.43408
G1 X153.739 Y127.012 E0.01750
G1 X163.545 Y136.818 E0.43493
G1 X163.537 Y136.277 E0.01697
G1 X153.715 Y126.455 E0.43566
G1 X153.691 Y125.898 E0.01750
G1 X163.530 Y135.736 E0.43638
G1 X163.522 Y135.195 E0.01697
G1 X153.668 Y125.340 E0.43711
G1 X153.644 Y124.783 E0.01750
G1 X163.514 Y134.654 E0.43783
G1 X163.507 Y134.113 E0.01697
G1 X153.620 Y124.226 E0.43856
G1 X153.596 Y123.668 E0.01750
G1 X163.499 Y133.572 E0.43928
G1 X163.492 Y133.031 E0.01697
G1 X153.570 Y123.109 E0.44009
G1 X153.541 Y122.547 E0.01766
G1 X163.484 Y132.490 E0.44104
G1 X163.482 Y132.365 E0.00390
G1 X163.474 Y131.946 E0.01315
G1 X153.512 Y121.984 E0.44188
G1 X153.483 Y121.422 E0.01766
G1 X163.464 Y131.402 E0.44269
G1 X163.453 Y130.858 E0.01707
G1 X153.454 Y120.860 E0.44350
G1 X153.425 Y120.297 E0.01766
G1 X163.442 Y130.314 E0.44431
G1 X163.432 Y129.770 E0.01707
G1 X153.397 Y119.735 E0.44512
G1 X153.368 Y119.173 E0.01766
G1 X163.421 Y129.226 E0.44593
G1 X163.411 Y128.682 E0.01707
G1 X153.337 Y118.608 E0.44685
G1 X153.303 Y118.041 E0.01780
G1 X163.400 Y128.138 E0.44785
G1 X163.390 Y127.618 E0.01630
G1 X163.389 Y127.594 E0.00077
G1 X153.270 Y117.475 E0.44884
G1 X153.237 Y116.908 E0.01780
G1 X163.375 Y127.046 E0.44969
G1 X163.361 Y126.499 E0.01717
G1 X153.204 Y116.342 E0.45055
G1 X153.171 Y115.775 E0.01780
G1 X163.348 Y125.952 E0.45140
G1 X163.334 Y125.405 E0.01717
G1 X153.138 Y115.208 E0.45226
G1 X153.104 Y114.642 E0.01780
G1 X163.320 Y124.857 E0.45311
G1 X163.306 Y124.310 E0.01717
G1 X153.069 Y114.073 E0.45409
G1 X153.031 Y113.502 E0.01795
G1 X163.292 Y123.763 E0.45514
G1 X163.278 Y123.215 E0.01717
G1 X152.994 Y112.931 E0.45619
G1 X152.956 Y112.360 E0.01795
G1 X163.264 Y122.667 E0.45721
G1 X163.247 Y122.117 E0.01728
G1 X152.919 Y111.789 E0.45811
G1 X152.881 Y111.218 E0.01795
G1 X163.229 Y121.566 E0.45900
G1 X163.212 Y121.015 E0.01728
G1 X152.844 Y110.647 E0.45989
G1 X152.806 Y110.076 E0.01795
G1 X163.195 Y120.464 E0.46079
G1 X163.177 Y119.914 E0.01728
G1 X152.766 Y109.502 E0.46181
G1 X152.724 Y108.927 E0.01810
G1 X163.160 Y119.363 E0.46290
G1 X163.143 Y118.812 E0.01728
G1 X152.682 Y108.351 E0.46400
G1 X152.640 Y107.776 E0.01810
G1 X163.125 Y118.261 E0.46509
G1 X163.109 Y117.761 E0.01568
G1 X163.107 Y117.710 E0.00161
G1 X152.598 Y107.200 E0.46617
G1 X152.556 Y106.625 E0.01810
G1 X163.086 Y117.156 E0.46710
G1 X163.065 Y116.601 E0.01740
G1 X152.514 Y106.049 E0.46803
G1 X152.472 Y105.474 E0.01810
G1 X163.044 Y116.047 E0.46896
G1 X163.023 Y115.492 E0.01740
G1 X152.427 Y104.896 E0.47001
G1 X152.380 Y104.316 E0.01825
G1 X163.002 Y114.938 E0.47115
G1 X162.981 Y114.383 E0.01740
G1 X152.334 Y103.736 E0.47228
G1 X152.287 Y103.155 E0.01825
G1 X162.960 Y113.829 E0.47342
G1 X162.939 Y113.274 E0.01740
G1 X152.240 Y102.575 E0.47456
G1 X152.194 Y101.995 E0.01825
G1 X162.918 Y112.720 E0.47569
G1 X162.893 Y112.162 E0.01752
G1 X152.147 Y101.415 E0.47667
G1 X152.100 Y100.835 E0.01825
G1 X162.869 Y111.603 E0.47763
G1 X162.844 Y111.045 E0.01753
G1 X152.051 Y100.252 E0.47872
G1 X151.999 Y99.667 E0.01842
G1 X162.819 Y110.486 E0.47989
G1 X162.794 Y109.928 E0.01753
G1 X151.948 Y99.082 E0.48107
G1 X151.896 Y98.497 E0.01842
G1 X162.769 Y109.370 E0.48225
G1 X162.744 Y108.811 E0.01753
G1 X151.845 Y97.912 E0.48343
G1 X151.793 Y97.327 E0.01842
G1 X162.719 Y108.253 E0.48461
G1 X162.694 Y107.694 E0.01753
G1 X151.742 Y96.742 E0.48579
G1 X151.690 Y96.157 E0.01842
G1 X162.665 Y107.132 E0.48681
