; generated by PrusaSlicer 2.2.0+linux-x64 on 2020-07-01 at 09:34:36 UTC

; 

; external perimeters extrusion width = 0.45mm
; perimeters extrusion width = 0.45mm
; infill extrusion width = 0.45mm
; solid infill extrusion width = 0.45mm
; top infill extrusion width = 0.40mm
; first layer extrusion width = 0.42mm

M73 P0 R90
M73 Q0 S91
M201 X1000 Y1000 Z200 E5000 ; sets maximum accelerations, mm/sec^2
M203 X200 Y200 Z12 E120 ; sets maximum feedrates, mm/sec
M204 P1250 R1250 T1250 ; sets acceleration (P, T) and retract acceleration (R), mm/sec^2
M205 X8.00 Y8.00 Z0.40 E4.50 ; sets the jerk limits, mm/sec
M205 S0 T0 ; sets the minimum extruding and travel feed rate, mm/sec
M107
M862.3 P "MK3" ; printer model check
M862.1 P0.4 ; nozzle diameter check
M115 U3.9.0 ; tell printer latest fw version
G90 ; use absolute coordinates
M83 ; extruder relative mode
M104 S225 ; set extruder temp
M140 S60 ; set bed temp
M190 S60 ; wait for bed temp
M109 S225 ; wait for extruder temp
G28 W ; home all without mesh bed level
G80 ; mesh bed leveling
G1 Y-3.0 F1000.0 ; go outside print area
G92 E0.0
G1 X60.0 E9.0 F1000.0 ; intro line
M73 Q0 S91
M73 P0 R90
G1 X100.0 E12.5 F1000.0 ; intro line
G92 E0.0
M221 S95
G21 ; set units to millimeters
G90 ; use absolute coordinates
M83 ; use relative distances for extrusion
M900 K0.06 ; Filament gcode LA 1.5
M900 K30 ; Filament gcode LA 1.0
;BEFORE_LAYER_CHANGE
G92 E0.0
;0.2


G1 E-0.80000 F2100.00000
G1 Z0.600 F10800.000
;AFTER_LAYER_CHANGE
;0.2
G1 X101.862 Y28.870
G1 Z0.200
G1 E0.80000 F2100.00000
M204 S1000
G1 F1200.000
G1 X102.296 Y28.216 E0.02461
G1 X102.923 Y27.737 E0.02473
G1 X103.667 Y27.490 E0.02461
G1 X115.540 Y27.462 E0.37225
G1 X147.046 Y27.798 E0.98791
G1 X147.796 Y27.973 E0.02414
G1 X148.450 Y28.379 E0.02414
G1 X148.941 Y28.972 E0.02414
G1 X149.217 Y29.695 E0.02426
G1 X149.652 Y116.117 E2.70976
G1 X149.604 Y135.764 E0.61600
G1 X149.326 Y163.735 E0.87705
G1 X149.054 Y180.441 E0.52390
G1 X148.855 Y181.158 E0.02331
G1 X148.444 Y181.777 E0.02331
G1 X147.865 Y182.238 E0.02319
G1 X147.169 Y182.499 E0.02331
G1 X135.222 Y182.547 E0.37461
G1 X104.115 Y182.214 E0.97539
G1 X103.348 Y182.048 E0.02461
G1 X102.680 Y181.643 E0.02449
G1 X102.178 Y181.044 E0.02449
G1 X101.899 Y180.315 E0.02449
G1 X101.453 Y152.054 E0.88622
G1 X101.272 Y123.642 E0.89086
G1 X101.294 Y104.899 E0.58765
G1 X101.665 Y29.630 E2.36004
G1 X101.847 Y28.928 E0.02273
G1 F8640.000
G1 X102.296 Y28.216 E-0.19438
G1 X102.923 Y27.737 E-0.18209
G1 X103.667 Y27.490 E-0.18123
G1 X104.544 Y27.488 E-0.20231
G1 E-0.04000 F2100.00000
G1 Z0.800 F10800.000
G1 X136.160 Y30.957
G1 Z0.200
G1 E0.80000 F2100.00000
G1 F1200.000
G1 X146.092 Y30.957 E0.31141
G1 X146.008 Y40.252 E0.29144
G1 X146.004 Y50.550 E0.32289
G1 X146.062 Y59.465 E0.27953
G1 X146.303 Y82.874 E0.73401
G1 X146.405 Y95.017 E0.38074
G1 X146.472 Y108.027 E0.40792
G1 X146.487 Y121.477 E0.42173
G1 X146.443 Y135.160 E0.42900
G1 X146.354 Y147.283 E0.38012
G1 X146.163 Y163.693 E0.51456
G1 X145.918 Y179.383 E0.49203
G1 X136.036 Y179.383 E0.30985
G1 X136.291 Y161.765 E0.55246
G1 X136.480 Y144.564 E0.53937
G1 X136.581 Y129.112 E0.48449
G1 X136.609 Y118.886 E0.32063
G1 X136.595 Y106.516 E0.38786
G1 X136.515 Y92.816 E0.42957
G1 X136.387 Y80.519 E0.38558
G1 X136.090 Y58.040 E0.70486
G1 X136.025 Y49.790 E0.25869
G1 X136.037 Y41.277 E0.26694
G1 X136.089 Y35.727 E0.17400
G1 X136.159 Y31.017 E0.14769
G1 X135.788 Y30.580 F10800.000
G1 F1200.000
G1 X146.473 Y30.580 E0.33500
G1 X146.385 Y40.254 E0.30332
G1 X146.381 Y50.549 E0.32280
G1 X146.439 Y59.462 E0.27947
G1 X146.680 Y82.871 E0.73400
G1 X146.782 Y95.014 E0.38077
G1 X146.849 Y108.026 E0.40796
G1 X146.865 Y121.478 E0.42178
G1 X146.820 Y135.162 E0.42905
G1 X146.731 Y147.286 E0.38017
G1 X146.540 Y163.698 E0.51461
G1 X146.289 Y179.760 E0.50369
G1 X135.653 Y179.760 E0.33349
G1 X135.914 Y161.760 E0.56443
G1 X136.103 Y144.561 E0.53932
G1 X136.204 Y129.110 E0.48444
G1 X136.231 Y118.886 E0.32058
G1 X136.218 Y106.517 E0.38781
G1 X136.138 Y92.819 E0.42952
G1 X136.010 Y80.523 E0.38554
G1 X135.713 Y58.044 E0.70487
G1 X135.648 Y49.791 E0.25877
G1 X135.660 Y41.275 E0.26704
G1 X135.712 Y35.723 E0.17408
G1 X135.787 Y30.640 E0.15938
G1 X136.134 Y30.782 F10800.000
G1 F8640.000
G1 X139.079 Y30.622 E-0.76000
G1 E-0.04000 F2100.00000
G1 Z0.800 F10800.000
G1 X136.914 Y179.270
G1 Z0.200
G1 E0.80000 F2100.00000
G1 F1200.000
G1 X136.329 Y178.685 E0.02599
G1 X136.336 Y178.158 E0.01654
G1 X137.278 Y179.100 E0.04183
G1 X137.812 Y179.100 E0.01677
G1 X136.344 Y177.632 E0.06522
G1 X136.352 Y177.105 E0.01654
G1 X138.347 Y179.100 E0.08860
G1 X138.881 Y179.100 E0.01677
G1 X136.359 Y176.579 E0.11199
G1 X136.367 Y176.052 E0.01654
G1 X139.415 Y179.100 E0.13537
G1 X139.949 Y179.100 E0.01677
G1 X136.374 Y175.526 E0.15875
G1 X136.382 Y174.999 E0.01654
G1 X140.483 Y179.100 E0.18214
G1 X141.017 Y179.100 E0.01677
G1 X136.390 Y174.473 E0.20552
G1 X136.397 Y173.946 E0.01654
G1 X141.551 Y179.100 E0.22890
M73 Q1 S90
G1 X142.085 Y179.100 E0.01677
G1 X136.405 Y173.420 E0.25229
G1 X136.413 Y172.893 E0.01654
G1 X142.620 Y179.100 E0.27567
M73 P1 R89
G1 X143.154 Y179.100 E0.01677
G1 X136.420 Y172.367 E0.29906
G1 X136.428 Y171.840 E0.01654
G1 X143.688 Y179.100 E0.32244
G1 X144.222 Y179.100 E0.01677
G1 X136.435 Y171.314 E0.34582
G1 X136.443 Y170.787 E0.01654
G1 X144.756 Y179.100 E0.36921
G1 X145.290 Y179.100 E0.01677
G1 X136.451 Y170.261 E0.39259
G1 X136.458 Y169.734 E0.01654
G1 X145.642 Y178.918 E0.40790
G1 X145.651 Y178.393 E0.01652
G1 X136.466 Y169.208 E0.40792
G1 X136.474 Y168.681 E0.01654
G1 X145.659 Y177.867 E0.40795
G1 X145.667 Y177.341 E0.01652
G1 X136.481 Y168.155 E0.40797
G1 X136.489 Y167.628 E0.01654
G1 X145.675 Y176.815 E0.40800
G1 X145.683 Y176.289 E0.01652
G1 X136.496 Y167.102 E0.40802
G1 X136.504 Y166.575 E0.01654
G1 X145.692 Y175.763 E0.40805
G1 X145.700 Y175.237 E0.01652
G1 X136.512 Y166.049 E0.40807
G1 X136.519 Y165.522 E0.01654
G1 X145.708 Y174.711 E0.40810
G1 X145.716 Y174.185 E0.01652
G1 X136.527 Y164.996 E0.40813
G1 X136.534 Y164.469 E0.01654
G1 X145.724 Y173.659 E0.40815
G1 X145.733 Y173.133 E0.01652
G1 X136.542 Y163.943 E0.40818
G1 X136.550 Y163.416 E0.01654
G1 X145.741 Y172.607 E0.40820
G1 X145.749 Y172.081 E0.01652
G1 X136.557 Y162.890 E0.40823
G1 X136.565 Y162.363 E0.01654
G1 X145.757 Y171.555 E0.40825
G1 X145.765 Y171.029 E0.01652
G1 X136.573 Y161.837 E0.40828
G1 X136.579 Y161.309 E0.01659
G1 X145.774 Y170.504 E0.40837
G1 X145.782 Y169.978 E0.01652
G1 X136.584 Y160.780 E0.40848
G1 X136.590 Y160.252 E0.01659
G1 X145.790 Y169.452 E0.40859
G1 X145.798 Y168.926 E0.01652
G1 X136.596 Y159.724 E0.40869
G1 X136.602 Y159.195 E0.01659
G1 X145.806 Y168.400 E0.40880
G1 X145.815 Y167.874 E0.01652
G1 X136.608 Y158.667 E0.40891
G1 X136.613 Y158.139 E0.01659
G1 X145.823 Y167.348 E0.40901
G1 X145.831 Y166.822 E0.01652
G1 X136.619 Y157.610 E0.40912
G1 X136.625 Y157.082 E0.01659
G1 X145.839 Y166.296 E0.40922
G1 X145.847 Y165.770 E0.01652
G1 X136.631 Y156.554 E0.40933
G1 X136.637 Y156.025 E0.01659
G1 X145.856 Y165.244 E0.40944
G1 X145.864 Y164.718 E0.01652
G1 X136.643 Y155.497 E0.40954
G1 X136.648 Y154.969 E0.01659
G1 X145.872 Y164.192 E0.40965
G1 X145.880 Y163.666 E0.01652
G1 X136.654 Y154.440 E0.40975
G1 X136.660 Y153.912 E0.01659
G1 X145.886 Y163.138 E0.40976
G1 X145.892 Y162.610 E0.01658
G1 X136.666 Y153.384 E0.40978
G1 X136.672 Y152.855 E0.01659
G1 X145.898 Y162.082 E0.40980
G1 X145.905 Y161.554 E0.01658
G1 X136.677 Y152.327 E0.40981
G1 X136.683 Y151.799 E0.01659
G1 X145.911 Y161.026 E0.40983
G1 X145.917 Y160.498 E0.01658
G1 X136.689 Y151.271 E0.40984
G1 X136.695 Y150.742 E0.01659
G1 X145.923 Y159.970 E0.40986
G1 X145.929 Y159.442 E0.01658
G1 X136.701 Y150.214 E0.40987
G1 X136.706 Y149.686 E0.01659
G1 X145.935 Y158.915 E0.40989
G1 X145.942 Y158.387 E0.01658
G1 X136.712 Y149.157 E0.40990
G1 X136.718 Y148.629 E0.01659
G1 X145.948 Y157.859 E0.40992
G1 X145.954 Y157.331 E0.01658
G1 X136.724 Y148.101 E0.40993
G1 X136.730 Y147.572 E0.01659
G1 X145.960 Y156.803 E0.40995
G1 X145.966 Y156.275 E0.01658
G1 X136.735 Y147.044 E0.40996
G1 X136.741 Y146.516 E0.01659
G1 X145.972 Y155.747 E0.40998
G1 X145.978 Y155.219 E0.01658
G1 X136.747 Y145.987 E0.40999
G1 X136.753 Y145.459 E0.01659
G1 X145.985 Y154.691 E0.41001
G1 X145.991 Y154.163 E0.01658
G1 X136.759 Y144.931 E0.41002
G1 X136.764 Y144.402 E0.01662
G1 X145.997 Y153.635 E0.41007
G1 X146.003 Y153.107 E0.01658
G1 X136.767 Y143.871 E0.41019
G1 X136.771 Y143.340 E0.01667
G1 X146.009 Y152.579 E0.41031
G1 X146.015 Y152.051 E0.01658
G1 X136.774 Y142.810 E0.41043
G1 X136.778 Y142.279 E0.01667
G1 X146.021 Y151.523 E0.41055
G1 X146.028 Y150.995 E0.01658
G1 X136.781 Y141.748 E0.41066
G1 X136.785 Y141.218 E0.01667
G1 X146.034 Y150.467 E0.41078
G1 X146.040 Y149.939 E0.01658
G1 X136.788 Y140.687 E0.41090
G1 X136.792 Y140.156 E0.01667
G1 X146.046 Y149.411 E0.41102
G1 X146.052 Y148.883 E0.01658
G1 X136.795 Y139.626 E0.41114
G1 X136.799 Y139.095 E0.01667
G1 X146.058 Y148.355 E0.41126
G1 X146.065 Y147.827 E0.01658
G1 X136.802 Y138.564 E0.41138
G1 X136.806 Y138.034 E0.01667
G1 X146.071 Y147.299 E0.41149
G1 X146.075 Y146.769 E0.01665
G1 X136.809 Y137.503 E0.41152
G1 X136.812 Y136.972 E0.01667
G1 X146.079 Y146.239 E0.41154
G1 X146.083 Y145.708 E0.01665
G1 X136.816 Y136.442 E0.41156
G1 X136.819 Y135.911 E0.01667
G1 X146.086 Y145.178 E0.41158
G1 X146.090 Y144.648 E0.01665
G1 X136.823 Y135.381 E0.41160
G1 X136.826 Y134.850 E0.01667
G1 X146.094 Y144.118 E0.41161
G1 X146.098 Y143.588 E0.01665
G1 X136.830 Y134.319 E0.41163
G1 X136.833 Y133.789 E0.01667
G1 X146.102 Y143.057 E0.41165
G1 X146.106 Y142.527 E0.01665
G1 X136.837 Y133.258 E0.41167
G1 X136.840 Y132.727 E0.01667
G1 X146.110 Y141.997 E0.41169
G1 X146.114 Y141.467 E0.01665
G1 X136.844 Y132.197 E0.41171
G1 X136.847 Y131.666 E0.01667
G1 X146.118 Y140.936 E0.41173
G1 X146.122 Y140.406 E0.01665
G1 X136.851 Y131.135 E0.41175
G1 X136.854 Y130.605 E0.01667
G1 X146.126 Y139.876 E0.41177
G1 X146.130 Y139.346 E0.01665
G1 X136.858 Y130.074 E0.41179
G1 X136.861 Y129.543 E0.01667
G1 X146.133 Y138.816 E0.41181
G1 X146.137 Y138.285 E0.01665
G1 X136.864 Y129.012 E0.41185
G1 X136.866 Y128.480 E0.01673
G1 X146.141 Y137.755 E0.41196
G1 X146.145 Y137.225 E0.01665
G1 X136.867 Y127.947 E0.41207
G1 X136.869 Y127.414 E0.01673
G1 X146.149 Y136.695 E0.41218
G1 X146.153 Y136.165 E0.01665
G1 X136.870 Y126.882 E0.41229
M73 Q2 S89
G1 X136.871 Y126.349 E0.01673
G1 X146.157 Y135.634 E0.41240
M73 P2 R88
G1 X146.161 Y135.104 E0.01666
G1 X136.873 Y125.816 E0.41250
G1 X136.874 Y125.283 E0.01673
G1 X146.162 Y134.571 E0.41251
G1 X146.164 Y134.039 E0.01672
G1 X136.876 Y124.751 E0.41253
G1 X136.877 Y124.218 E0.01673
G1 X146.166 Y133.507 E0.41254
G1 X146.168 Y132.974 E0.01672
G1 X136.879 Y123.685 E0.41255
G1 X136.880 Y123.153 E0.01673
G1 X146.169 Y132.442 E0.41257
G1 X146.171 Y131.909 E0.01672
G1 X136.881 Y122.620 E0.41258
G1 X136.883 Y122.087 E0.01673
G1 X146.173 Y131.377 E0.41259
G1 X146.174 Y130.845 E0.01672
G1 X136.884 Y121.554 E0.41260
G1 X136.886 Y121.022 E0.01673
G1 X146.176 Y130.312 E0.41262
G1 X146.178 Y129.780 E0.01672
G1 X136.887 Y120.489 E0.41263
G1 X136.889 Y119.956 E0.01673
G1 X146.180 Y129.247 E0.41264
G1 X146.181 Y128.715 E0.01672
G1 X136.890 Y119.424 E0.41266
G1 X136.891 Y118.891 E0.01673
G1 X146.183 Y128.183 E0.41267
G1 X146.185 Y127.650 E0.01672
G1 X136.891 Y118.356 E0.41277
G1 X136.890 Y117.822 E0.01679
G1 X146.186 Y127.118 E0.41287
G1 X146.188 Y126.585 E0.01672
G1 X136.890 Y117.287 E0.41297
G1 X136.889 Y116.752 E0.01679
G1 X146.190 Y126.053 E0.41308
G1 X146.192 Y125.521 E0.01672
G1 X136.889 Y116.217 E0.41318
G1 X136.888 Y115.683 E0.01679
G1 X146.193 Y124.988 E0.41328
G1 X146.195 Y124.456 E0.01672
G1 X136.887 Y115.148 E0.41338
G1 X136.887 Y114.613 E0.01679
G1 X146.197 Y123.923 E0.41348
G1 X146.198 Y123.391 E0.01672
G1 X136.886 Y114.079 E0.41358
G1 X136.886 Y113.544 E0.01679
G1 X146.200 Y122.858 E0.41369
G1 X146.202 Y122.326 E0.01672
G1 X136.885 Y113.009 E0.41379
G1 X136.885 Y112.475 E0.01679
G1 X146.204 Y121.794 E0.41389
G1 X146.205 Y121.477 E0.00995
G1 X146.204 Y121.260 E0.00680
G1 X136.884 Y111.940 E0.41395
G1 X136.883 Y111.405 E0.01679
G1 X146.204 Y120.726 E0.41395
G1 X146.203 Y120.191 E0.01679
G1 X136.883 Y110.870 E0.41395
G1 X136.882 Y110.336 E0.01679
G1 X146.203 Y119.656 E0.41394
G1 X146.202 Y119.121 E0.01679
G1 X136.882 Y109.801 E0.41394
G1 X136.881 Y109.266 E0.01679
G1 X146.201 Y118.587 E0.41394
G1 X146.201 Y118.052 E0.01679
G1 X136.881 Y108.732 E0.41394
G1 X136.880 Y108.197 E0.01679
G1 X146.200 Y117.517 E0.41394
G1 X146.200 Y116.982 E0.01679
G1 X136.879 Y107.662 E0.41394
G1 X136.879 Y107.128 E0.01679
G1 X146.199 Y116.448 E0.41393
G1 X146.198 Y115.913 E0.01679
G1 X136.878 Y106.593 E0.41393
G1 X136.875 Y106.056 E0.01686
G1 X146.198 Y115.378 E0.41403
G1 X146.197 Y114.843 E0.01679
G1 X136.872 Y105.519 E0.41414
G1 X136.869 Y104.981 E0.01687
G1 X146.196 Y114.309 E0.41426
G1 X146.196 Y113.774 E0.01679
G1 X136.866 Y104.444 E0.41437
G1 X136.863 Y103.907 E0.01687
G1 X146.195 Y113.239 E0.41448
G1 X146.195 Y112.704 E0.01679
G1 X136.860 Y103.369 E0.41460
G1 X136.856 Y102.832 E0.01687
G1 X146.194 Y112.170 E0.41471
G1 X146.193 Y111.635 E0.01679
G1 X136.853 Y102.295 E0.41482
G1 X136.850 Y101.758 E0.01687
G1 X146.193 Y111.100 E0.41494
G1 X146.192 Y110.566 E0.01679
G1 X136.847 Y101.220 E0.41505
G1 X136.844 Y100.683 E0.01687
G1 X146.192 Y110.031 E0.41517
G1 X146.191 Y109.496 E0.01679
G1 X136.841 Y100.146 E0.41528
G1 X136.837 Y99.608 E0.01687
G1 X146.190 Y108.961 E0.41539
G1 X146.190 Y108.427 E0.01679
G1 X136.834 Y99.071 E0.41551
G1 X136.831 Y98.534 E0.01687
G1 X146.189 Y107.891 E0.41560
G1 X146.186 Y107.354 E0.01686
G1 X136.828 Y97.996 E0.41561
G1 X136.825 Y97.459 E0.01687
G1 X146.183 Y106.817 E0.41563
G1 X146.180 Y106.281 E0.01686
G1 X136.822 Y96.922 E0.41565
G1 X136.818 Y96.385 E0.01687
G1 X146.178 Y105.744 E0.41567
G1 X146.175 Y105.207 E0.01686
G1 X136.815 Y95.847 E0.41569
G1 X136.812 Y95.310 E0.01687
G1 X146.172 Y104.670 E0.41571
G1 X146.169 Y104.133 E0.01686
G1 X136.809 Y94.773 E0.41572
G1 X136.806 Y94.235 E0.01687
G1 X146.167 Y103.596 E0.41574
G1 X146.164 Y103.059 E0.01686
G1 X136.803 Y93.698 E0.41576
G1 X136.799 Y93.161 E0.01687
G1 X146.161 Y102.522 E0.41578
G1 X146.158 Y101.986 E0.01686
G1 X136.795 Y92.623 E0.41584
G1 X136.790 Y92.083 E0.01695
G1 X146.156 Y101.449 E0.41596
G1 X146.153 Y100.912 E0.01686
G1 X136.784 Y91.543 E0.41609
G1 X136.779 Y91.003 E0.01695
G1 X146.150 Y100.375 E0.41621
G1 X146.147 Y99.838 E0.01686
G1 X136.773 Y90.464 E0.41634
G1 X136.767 Y89.924 E0.01695
G1 X146.145 Y99.301 E0.41647
G1 X146.142 Y98.764 E0.01686
G1 X136.762 Y89.384 E0.41659
G1 X136.756 Y88.845 E0.01695
G1 X146.139 Y98.227 E0.41672
G1 X146.136 Y97.690 E0.01686
G1 X136.751 Y88.305 E0.41684
G1 X136.745 Y87.765 E0.01695
G1 X146.133 Y97.154 E0.41697
G1 X146.131 Y96.617 E0.01686
G1 X136.739 Y87.225 E0.41710
G1 X136.734 Y86.686 E0.01695
G1 X146.128 Y96.080 E0.41722
G1 X146.125 Y95.543 E0.01686
G1 X136.728 Y86.146 E0.41735
G1 X136.723 Y85.606 E0.01695
G1 X146.122 Y95.006 E0.41747
G1 X146.118 Y94.467 E0.01692
G1 X136.717 Y85.066 E0.41752
G1 X136.711 Y84.527 E0.01695
G1 X146.113 Y93.929 E0.41757
G1 X146.109 Y93.390 E0.01692
G1 X136.706 Y83.987 E0.41761
G1 X136.700 Y83.447 E0.01695
G1 X146.104 Y92.851 E0.41766
G1 X146.100 Y92.313 E0.01692
G1 X136.695 Y82.908 E0.41771
G1 X136.689 Y82.368 E0.01695
G1 X146.095 Y91.774 E0.41775
G1 X146.091 Y91.235 E0.01692
G1 X136.684 Y81.828 E0.41780
G1 X136.678 Y81.288 E0.01695
G1 X146.086 Y90.697 E0.41785
G1 X146.082 Y90.158 E0.01692
G1 X136.672 Y80.749 E0.41789
M73 Q3 S88
G1 X136.666 Y80.208 E0.01698
G1 X146.077 Y89.619 E0.41798
M73 P3 R87
G1 X146.072 Y89.081 E0.01692
G1 X136.659 Y79.667 E0.41809
G1 X136.652 Y79.126 E0.01700
G1 X146.068 Y88.542 E0.41821
G1 X146.063 Y88.003 E0.01692
G1 X136.644 Y78.584 E0.41833
G1 X136.637 Y78.043 E0.01700
G1 X146.059 Y87.465 E0.41844
G1 X146.054 Y86.926 E0.01692
G1 X136.630 Y77.502 E0.41856
G1 X136.623 Y76.960 E0.01700
G1 X146.050 Y86.387 E0.41867
G1 X146.045 Y85.849 E0.01692
G1 X136.616 Y76.419 E0.41879
G1 X136.609 Y75.878 E0.01700
G1 X146.041 Y85.310 E0.41890
