; generated by PrusaSlicer 2.2.0+linux-x64 on 2020-07-05 at 07:21:04 UTC

; 

; external perimeters extrusion width = 0.45mm
; perimeters extrusion width = 0.45mm
; infill extrusion width = 0.45mm
; solid infill extrusion width = 0.45mm
; top infill extrusion width = 0.40mm
; first layer extrusion width = 0.42mm

M73 P0 R109
M73 Q0 S110
M201 X1000 Y1000 Z200 E5000 ; sets maximum accelerations, mm/sec^2
M203 X200 Y200 Z12 E120 ; sets maximum feedrates, mm/sec
M204 P1250 R1250 T1250 ; sets acceleration (P, T) and retract acceleration (R), mm/sec^2
M205 X8.00 Y8.00 Z0.40 E4.50 ; sets the jerk limits, mm/sec
M205 S0 T0 ; sets the minimum extruding and travel feed rate, mm/sec
M107
M862.3 P "MK3" ; printer model check
M862.1 P0.4 ; nozzle diameter check
M115 U3.9.0 ; tell printer latest fw version
G90 ; use absolute coordinates
M83 ; extruder relative mode
M104 S225 ; set extruder temp
M140 S60 ; set bed temp
M190 S60 ; wait for bed temp
M109 S225 ; wait for extruder temp
G28 W ; home all without mesh bed level
G80 ; mesh bed leveling
G1 Y-3.0 F1000.0 ; go outside print area
G92 E0.0
G1 X60.0 E9.0 F1000.0 ; intro line
M73 Q0 S110
M73 P0 R109
G1 X100.0 E12.5 F1000.0 ; intro line
G92 E0.0
M221 S95
G21 ; set units to millimeters
G90 ; use absolute coordinates
M83 ; use relative distances for extrusion
M900 K0.06 ; Filament gcode LA 1.5
M900 K30 ; Filament gcode LA 1.0
;BEFORE_LAYER_CHANGE
G92 E0.0
;0.2


G1 E-0.80000 F2100.00000
G1 Z0.600 F10800.000
;AFTER_LAYER_CHANGE
;0.2
G1 X99.287 Y17.378
G1 Z0.200
G1 E0.80000 F2100.00000
M204 S1000
G1 F1200.000
G1 X100.031 Y17.228 E0.02378
G1 X140.202 Y16.982 E1.25955
G1 X151.485 Y16.982 E0.35380
G1 X152.377 Y17.157 E0.02849
G1 X153.138 Y17.653 E0.02849
G1 X153.657 Y18.399 E0.02849
G1 X153.858 Y19.285 E0.02849
G1 X155.175 Y118.169 E3.10072
G1 X155.184 Y128.945 E0.33787
G1 X155.104 Y134.431 E0.17202
G1 X154.851 Y142.664 E0.25826
G1 X154.422 Y150.741 E0.25361
G1 X153.777 Y158.986 E0.25933
G1 X153.214 Y164.536 E0.17489
G1 X152.187 Y172.707 E0.25823
G1 X150.913 Y180.899 E0.25993
G1 X149.387 Y189.097 E0.26144
G1 X148.143 Y194.950 E0.18762
G1 X147.842 Y195.642 E0.02367
G1 X147.342 Y196.202 E0.02355
G1 X146.688 Y196.580 E0.02367
G1 X145.949 Y196.733 E0.02367
G1 X121.247 Y196.980 E0.77454
G1 X105.751 Y196.980 E0.48587
G1 X105.171 Y196.906 E0.01835
G1 X104.583 Y196.667 E0.01989
G1 X104.080 Y196.282 E0.01989
G1 X103.696 Y195.777 E0.01989
G1 X103.458 Y195.185 E0.02000
G1 X101.703 Y186.732 E0.27070
G1 X100.724 Y181.336 E0.17194
G1 X99.825 Y175.759 E0.17712
G1 X98.711 Y167.554 E0.25962
G1 X97.842 Y159.397 E0.25722
G1 X97.192 Y151.150 E0.25938
G1 X96.753 Y142.910 E0.25870
G1 X96.565 Y137.416 E0.17238
G1 X96.421 Y129.374 E0.25218
G1 X96.428 Y118.421 E0.34343
G1 X97.745 Y19.572 E3.09963
G1 X97.820 Y19.010 E0.01775
G1 X98.124 Y18.315 E0.02378
G1 X98.628 Y17.754 E0.02367
G1 X99.235 Y17.407 E0.02190
G1 F8640.000
G1 X100.031 Y17.228 E-0.18835
G1 X102.506 Y17.213 E-0.57165
G1 E-0.04000 F2100.00000
G1 Z0.800 F10800.000
G1 X140.996 Y20.146
G1 Z0.200
G1 E0.80000 F2100.00000
G1 F1200.000
G1 X150.693 Y20.146 E0.30405
G1 X150.677 Y30.604 E0.32791
G1 X150.687 Y41.650 E0.34636
G1 X150.745 Y52.544 E0.34157
G1 X150.871 Y63.842 E0.35426
G1 X151.060 Y74.652 E0.33898
G1 X151.840 Y107.215 E1.02129
G1 X151.942 Y112.752 E0.17363
G1 X152.011 Y118.203 E0.17094
G1 X152.040 Y123.484 E0.16559
G1 X152.020 Y128.929 E0.17073
G1 X151.940 Y134.372 E0.17067
G1 X151.792 Y139.813 E0.17066
G1 X151.566 Y145.255 E0.17078
G1 X151.422 Y147.973 E0.08535
G1 X151.064 Y153.416 E0.17101
G1 X150.625 Y158.709 E0.16653
G1 X150.362 Y161.430 E0.08571
G1 X150.071 Y164.179 E0.08668
G1 X149.752 Y166.929 E0.08680
G1 X149.428 Y169.505 E0.08140
G1 X149.054 Y172.267 E0.08741
G1 X148.652 Y175.031 E0.08756
G1 X148.221 Y177.795 E0.08771
G1 X147.793 Y180.374 E0.08198
G1 X147.306 Y183.138 E0.08801
G1 X146.791 Y185.903 E0.08818
G1 X146.283 Y188.483 E0.08244
G1 X145.713 Y191.247 E0.08848
G1 X145.206 Y193.572 E0.07460
G1 X131.441 Y193.572 E0.43160
G1 X132.037 Y191.678 E0.06225
G1 X132.913 Y188.759 E0.09555
G1 X133.746 Y185.844 E0.09507
G1 X134.534 Y182.932 E0.09458
G1 X135.126 Y180.627 E0.07461
G1 X135.690 Y178.324 E0.07434
G1 X136.226 Y176.023 E0.07411
G1 X136.734 Y173.721 E0.07390
G1 X137.216 Y171.420 E0.07372
G1 X137.671 Y169.118 E0.07356
G1 X138.100 Y166.816 E0.07343
G1 X138.504 Y164.511 E0.07336
G1 X139.234 Y159.903 E0.14629
G1 X139.562 Y157.591 E0.07321
G1 X140.145 Y152.969 E0.14609
G1 X140.402 Y150.648 E0.07321
G1 X140.846 Y146.003 E0.14629
G1 X141.062 Y143.314 E0.08460
G1 X141.250 Y140.618 E0.08471
G1 X141.413 Y137.915 E0.08491
G1 X141.665 Y132.492 E0.17023
G1 X141.830 Y127.039 E0.17106
G1 X141.920 Y121.557 E0.17189
G1 X141.941 Y118.803 E0.08635
G1 X141.939 Y113.277 E0.17326
G1 X141.891 Y107.719 E0.17427
G1 X141.808 Y102.130 E0.17528
G1 X141.216 Y72.714 E0.92249
G1 X141.064 Y62.804 E0.31076
G1 X141.009 Y57.381 E0.17006
G1 X140.971 Y51.952 E0.17022
G1 X140.941 Y41.084 E0.34075
G1 X140.956 Y30.217 E0.34074
G1 X140.996 Y20.206 E0.31389
G1 X140.621 Y19.769 F10800.000
G1 F1200.000
G1 X151.071 Y19.769 E0.32767
G1 X151.054 Y30.604 E0.33974
G1 X151.065 Y41.649 E0.34631
G1 X151.122 Y52.541 E0.34152
G1 X151.248 Y63.836 E0.35417
G1 X151.437 Y74.644 E0.33891
G1 X152.217 Y107.207 E1.02128
G1 X152.319 Y112.746 E0.17369
G1 X152.389 Y118.200 E0.17102
G1 X152.417 Y123.484 E0.16568
G1 X152.397 Y128.933 E0.17085
G1 X152.317 Y134.380 E0.17081
G1 X152.169 Y139.826 E0.17082
G1 X151.943 Y145.273 E0.17093
G1 X151.798 Y147.996 E0.08549
G1 X151.440 Y153.444 E0.17119
G1 X151.001 Y158.742 E0.16671
G1 X150.737 Y161.468 E0.08585
G1 X150.445 Y164.220 E0.08679
G1 X150.126 Y166.974 E0.08692
G1 X149.802 Y169.554 E0.08151
G1 X149.427 Y172.320 E0.08752
G1 X149.025 Y175.087 E0.08768
G1 X148.593 Y177.854 E0.08782
G1 X148.164 Y180.437 E0.08209
G1 X147.677 Y183.206 E0.08813
G1 X147.161 Y185.974 E0.08830
G1 X146.653 Y188.557 E0.08255
G1 X146.081 Y191.325 E0.08860
G1 X145.510 Y193.949 E0.08419
G1 X130.927 Y193.949 E0.45725
G1 X131.676 Y191.567 E0.07829
G1 X132.551 Y188.653 E0.09539
G1 X133.382 Y185.742 E0.09490
G1 X134.169 Y182.836 E0.09442
G1 X134.760 Y180.535 E0.07446
G1 X135.323 Y178.237 E0.07420
G1 X135.858 Y175.939 E0.07397
G1 X136.366 Y173.642 E0.07377
G1 X136.847 Y171.345 E0.07359
G1 X137.301 Y169.047 E0.07343
G1 X137.729 Y166.749 E0.07330
G1 X138.132 Y164.449 E0.07320
G1 X138.861 Y159.847 E0.14610
G1 X139.188 Y157.541 E0.07303
G1 X139.771 Y152.924 E0.14591
G1 X140.027 Y150.609 E0.07303
G1 X140.470 Y145.970 E0.14612
G1 X140.686 Y143.285 E0.08445
G1 X140.874 Y140.594 E0.08459
G1 X141.036 Y137.895 E0.08477
G1 X141.288 Y132.477 E0.17005
G1 X141.453 Y127.030 E0.17088
G1 X141.543 Y121.553 E0.17175
G1 X141.563 Y118.802 E0.08626
G1 X141.562 Y113.279 E0.17317
G1 X141.514 Y107.724 E0.17418
G1 X141.431 Y102.136 E0.17521
G1 X140.839 Y72.721 E0.92249
M73 Q0 S109
M73 P0 R108
G1 X140.687 Y62.809 E0.31081
G1 X140.632 Y57.384 E0.17011
G1 X140.594 Y51.954 E0.17026
G1 X140.564 Y41.085 E0.34080
G1 X140.579 Y30.216 E0.34078
G1 X140.620 Y19.829 E0.32568
G1 X140.967 Y19.969 F10800.000
G1 F8640.000
G1 X143.912 Y19.810 E-0.76000
G1 E-0.04000 F2100.00000
G1 Z0.800 F10800.000
G1 X132.352 Y193.458
G1 Z0.200
G1 E0.80000 F2100.00000
G1 F1200.000
G1 X131.912 Y193.018 E0.01956
G1 X132.039 Y192.612 E0.01337
G1 X132.716 Y193.289 E0.03006
G1 X133.250 Y193.289 E0.01677
G1 X132.167 Y192.206 E0.04810
G1 X132.295 Y191.799 E0.01337
G1 X133.785 Y193.289 E0.06614
G1 X134.319 Y193.289 E0.01677
G1 X132.419 Y191.389 E0.08437
G1 X132.542 Y190.978 E0.01347
G1 X134.853 Y193.289 E0.10261
G1 X135.387 Y193.289 E0.01677
G1 X132.665 Y190.567 E0.12085
G1 X132.789 Y190.157 E0.01347
G1 X135.921 Y193.289 E0.13909
G1 X136.455 Y193.289 E0.01677
G1 X132.912 Y189.746 E0.15733
G1 X133.035 Y189.335 E0.01347
G1 X136.989 Y193.289 E0.17557
G1 X137.523 Y193.289 E0.01677
G1 X133.159 Y188.925 E0.19381
G1 X133.278 Y188.510 E0.01355
G1 X138.057 Y193.289 E0.21222
G1 X138.591 Y193.289 E0.01677
G1 X133.397 Y188.095 E0.23066
G1 X133.516 Y187.679 E0.01357
G1 X139.125 Y193.289 E0.24911
G1 X139.659 Y193.289 E0.01677
G1 X133.634 Y187.264 E0.26756
G1 X133.753 Y186.848 E0.01357
G1 X140.193 Y193.289 E0.28601
G1 X140.727 Y193.289 E0.01677
G1 X133.872 Y186.433 E0.30446
G1 X133.990 Y186.017 E0.01357
G1 X141.262 Y193.289 E0.32291
G1 X141.796 Y193.289 E0.01677
G1 X134.105 Y185.598 E0.34153
G1 X134.219 Y185.178 E0.01367
G1 X142.330 Y193.289 E0.36019
G1 X142.864 Y193.289 E0.01677
G1 X134.333 Y184.758 E0.37886
G1 X134.446 Y184.337 E0.01367
G1 X143.398 Y193.289 E0.39752
G1 X143.932 Y193.289 E0.01677
G1 X134.560 Y183.917 E0.41619
G1 X134.674 Y183.497 E0.01367
G1 X144.466 Y193.289 E0.43486
G1 X144.979 Y193.289 E0.01610
G1 X144.982 Y193.271 E0.00057
G1 X134.787 Y183.076 E0.45274
G1 X134.897 Y182.652 E0.01376
G1 X145.078 Y192.833 E0.45210
G1 X145.173 Y192.394 E0.01410
G1 X135.007 Y182.227 E0.45149
G1 X135.116 Y181.802 E0.01378
G1 X145.269 Y191.955 E0.45088
G1 X145.364 Y191.517 E0.01410
G1 X135.225 Y181.377 E0.45027
G1 X135.334 Y180.952 E0.01378
G1 X145.459 Y191.077 E0.44962
G1 X145.550 Y190.634 E0.01419
G1 X135.442 Y180.526 E0.44891
G1 X135.547 Y180.097 E0.01387
G1 X145.642 Y190.192 E0.44830
G1 X145.733 Y189.749 E0.01419
G1 X135.652 Y179.668 E0.44770
G1 X135.757 Y179.239 E0.01387
G1 X145.825 Y189.307 E0.44709
G1 X145.916 Y188.864 E0.01419
G1 X135.862 Y178.810 E0.44649
G1 X135.967 Y178.381 E0.01387
G1 X146.007 Y188.421 E0.44588
G1 X146.095 Y187.975 E0.01428
G1 X136.068 Y177.947 E0.44530
G1 X136.169 Y177.514 E0.01397
G1 X146.183 Y187.529 E0.44472
G1 X146.271 Y187.082 E0.01428
G1 X136.269 Y177.081 E0.44414
G1 X136.370 Y176.648 E0.01397
G1 X146.358 Y186.636 E0.44355
G1 X146.446 Y186.190 E0.01428
G1 X136.471 Y176.215 E0.44297
G1 X136.569 Y175.779 E0.01404
G1 X146.533 Y185.742 E0.44248
G1 X146.617 Y185.292 E0.01438
G1 X136.666 Y175.341 E0.44191
G1 X136.763 Y174.904 E0.01407
G1 X146.701 Y184.842 E0.44135
G1 X146.785 Y184.392 E0.01438
G1 X136.859 Y174.466 E0.44078
G1 X136.956 Y174.029 E0.01407
G1 X146.869 Y183.942 E0.44022
G1 X146.953 Y183.492 E0.01438
G1 X137.051 Y173.590 E0.43973
G1 X137.143 Y173.148 E0.01417
G1 X147.036 Y183.041 E0.43933
G1 X147.116 Y182.587 E0.01448
G1 X137.236 Y172.707 E0.43878
G1 X137.328 Y172.265 E0.01417
G1 X147.196 Y182.133 E0.43822
G1 X147.276 Y181.679 E0.01448
G1 X137.421 Y171.823 E0.43766
G1 X137.512 Y171.381 E0.01419
G1 X147.356 Y181.225 E0.43715
G1 X147.436 Y180.770 E0.01448
G1 X137.600 Y170.935 E0.43678
G1 X137.688 Y170.489 E0.01427
G1 X147.516 Y180.316 E0.43641
G1 X147.592 Y179.858 E0.01458
G1 X137.777 Y170.043 E0.43587
G1 X137.865 Y169.597 E0.01427
G1 X147.668 Y179.400 E0.43533
G1 X147.744 Y178.942 E0.01458
G1 X137.953 Y169.151 E0.43480
G1 X138.037 Y168.701 E0.01438
G1 X147.820 Y178.484 E0.43445
G1 X147.896 Y178.026 E0.01458
G1 X138.121 Y168.251 E0.43410
G1 X138.204 Y167.801 E0.01438
G1 X147.970 Y177.566 E0.43368
G1 X148.042 Y177.104 E0.01468
G1 X138.288 Y167.350 E0.43315
G1 X138.372 Y166.900 E0.01438
G1 X148.114 Y176.642 E0.43263
G1 X148.186 Y176.180 E0.01468
G1 X138.452 Y166.446 E0.43228
G1 X138.532 Y165.991 E0.01449
G1 X148.258 Y175.718 E0.43195
G1 X148.330 Y175.256 E0.01468
G1 X138.611 Y165.537 E0.43161
G1 X138.691 Y165.082 E0.01449
G1 X148.401 Y174.792 E0.43120
G1 X148.469 Y174.326 E0.01479
G1 X138.770 Y164.628 E0.43068
G1 X138.844 Y164.168 E0.01463
G1 X148.536 Y173.860 E0.43041
G1 X148.604 Y173.394 E0.01479
G1 X138.917 Y163.707 E0.43018
G1 X138.990 Y163.246 E0.01466
G1 X148.672 Y172.928 E0.42995
G1 X148.740 Y172.461 E0.01479
G1 X139.063 Y162.785 E0.42972
G1 X139.137 Y162.324 E0.01466
G1 X148.806 Y171.993 E0.42940
G1 X148.869 Y171.523 E0.01491
G1 X139.210 Y161.863 E0.42898
G1 X139.283 Y161.402 E0.01466
G1 X148.933 Y171.052 E0.42856
G1 X148.997 Y170.582 E0.01491
G1 X139.356 Y160.941 E0.42815
G1 X139.429 Y160.480 E0.01466
G1 X149.060 Y170.111 E0.42773
G1 X149.124 Y169.641 E0.01491
G1 X139.502 Y160.019 E0.42731
G1 X139.569 Y159.552 E0.01480
G1 X149.185 Y169.168 E0.42703
G1 X149.245 Y168.693 E0.01502
G1 X139.636 Y159.084 E0.42673
G1 X139.702 Y158.617 E0.01483
G1 X149.304 Y168.219 E0.42642
G1 X149.364 Y167.745 E0.01502
G1 X139.769 Y158.149 E0.42612
G1 X139.835 Y157.681 E0.01483
G1 X149.424 Y167.270 E0.42582
G1 X149.482 Y166.795 E0.01504
G1 X139.896 Y157.208 E0.42574
G1 X139.955 Y156.734 E0.01501
G1 X149.538 Y166.316 E0.42554
G1 X149.593 Y165.838 E0.01513
G1 X140.015 Y156.260 E0.42535
G1 X140.075 Y155.785 E0.01501
G1 X149.649 Y165.359 E0.42516
G1 X149.704 Y164.881 E0.01513
G1 X140.135 Y155.311 E0.42497
M73 Q1 S108
G1 X140.195 Y154.837 E0.01501
G1 X149.760 Y164.402 E0.42477
M73 P1 R107
G1 X149.813 Y163.921 E0.01518
G1 X140.255 Y154.363 E0.42449
G1 X140.314 Y153.888 E0.01501
G1 X149.865 Y163.439 E0.42411
G1 X149.916 Y162.956 E0.01525
G1 X140.374 Y153.414 E0.42373
G1 X140.433 Y152.939 E0.01503
G1 X149.967 Y162.473 E0.42339
G1 X150.018 Y161.990 E0.01525
G1 X140.486 Y152.458 E0.42330
G1 X140.540 Y151.977 E0.01519
G1 X150.070 Y161.507 E0.42321
G1 X150.081 Y161.401 E0.00335
G1 X150.118 Y161.021 E0.01199
G1 X140.593 Y151.496 E0.42298
G1 X140.646 Y151.016 E0.01519
G1 X150.165 Y160.534 E0.42270
G1 X150.212 Y160.047 E0.01536
G1 X140.697 Y150.533 E0.42252
G1 X140.744 Y150.045 E0.01538
G1 X150.259 Y159.560 E0.42254
G1 X150.306 Y159.073 E0.01536
G1 X140.791 Y149.558 E0.42256
G1 X140.837 Y149.070 E0.01538
G1 X150.352 Y158.585 E0.42252
G1 X150.393 Y158.092 E0.01554
G1 X140.884 Y148.583 E0.42227
G1 X140.930 Y148.095 E0.01538
G1 X150.433 Y157.598 E0.42202
G1 X150.474 Y157.105 E0.01554
G1 X140.977 Y147.608 E0.42177
G1 X141.023 Y147.120 E0.01538
G1 X150.515 Y156.612 E0.42152
G1 X150.556 Y156.119 E0.01554
G1 X141.070 Y146.633 E0.42127
G1 X141.117 Y146.145 E0.01538
G1 X150.597 Y155.626 E0.42102
G1 X150.638 Y155.133 E0.01554
G1 X141.158 Y145.653 E0.42100
G1 X141.198 Y145.158 E0.01557
G1 X150.679 Y154.640 E0.42105
G1 X150.720 Y154.146 E0.01554
G1 X141.237 Y144.664 E0.42111
G1 X141.277 Y144.169 E0.01557
G1 X150.761 Y153.653 E0.42116
G1 X150.798 Y153.156 E0.01565
G1 X141.317 Y143.675 E0.42105
G1 X141.355 Y143.179 E0.01562
G1 X150.831 Y152.655 E0.42082
G1 X150.864 Y152.154 E0.01577
G1 X141.390 Y142.680 E0.42073
G1 X141.425 Y142.181 E0.01571
G1 X150.897 Y151.653 E0.42064
G1 X150.930 Y151.152 E0.01577
G1 X141.460 Y141.682 E0.42055
G1 X141.494 Y141.182 E0.01571
G1 X150.962 Y150.650 E0.42046
G1 X150.995 Y150.149 E0.01577
G1 X141.529 Y140.683 E0.42037
G1 X141.560 Y140.180 E0.01584
G1 X151.028 Y149.648 E0.42047
G1 X151.061 Y149.147 E0.01577
G1 X141.590 Y139.676 E0.42059
G1 X141.620 Y139.172 E0.01585
G1 X151.094 Y148.646 E0.42070
G1 X151.127 Y148.145 E0.01577
G1 X141.651 Y138.668 E0.42082
G1 X141.681 Y138.165 E0.01585
G1 X151.156 Y147.640 E0.42077
G1 X151.183 Y147.133 E0.01595
G1 X141.708 Y137.657 E0.42078
G1 X141.732 Y137.147 E0.01604
G1 X151.210 Y146.625 E0.42093
G1 X151.237 Y146.118 E0.01595
G1 X141.755 Y136.637 E0.42107
G1 X141.779 Y136.126 E0.01604
G1 X151.264 Y145.611 E0.42121
G1 X151.289 Y145.103 E0.01599
G1 X141.803 Y135.616 E0.42129
G1 X141.826 Y135.106 E0.01604
G1 X151.311 Y144.590 E0.42118
G1 X151.332 Y144.077 E0.01612
G1 X141.850 Y134.595 E0.42107
G1 X141.874 Y134.085 E0.01604
G1 X151.353 Y143.564 E0.42096
G1 X151.375 Y143.051 E0.01612
G1 X141.898 Y133.575 E0.42085
G1 X141.921 Y133.064 E0.01604
G1 X151.396 Y142.539 E0.42075
G1 X151.417 Y142.026 E0.01612
G1 X141.945 Y132.554 E0.42064
G1 X141.962 Y132.036 E0.01626
G1 X151.438 Y141.513 E0.42085
G1 X151.460 Y141.000 E0.01612
G1 X141.977 Y131.518 E0.42110
G1 X141.993 Y131.000 E0.01628
G1 X151.481 Y140.488 E0.42135
G1 X151.502 Y139.975 E0.01612
G1 X142.009 Y130.481 E0.42159
G1 X142.024 Y129.963 E0.01628
G1 X151.519 Y139.457 E0.42163
G1 X151.533 Y138.937 E0.01633
G1 X142.040 Y129.445 E0.42156
G1 X142.056 Y128.926 E0.01628
G1 X151.547 Y138.417 E0.42149
G1 X151.561 Y137.898 E0.01633
G1 X142.072 Y128.408 E0.42142
G1 X142.087 Y127.889 E0.01628
G1 X151.576 Y137.378 E0.42136
G1 X151.590 Y136.858 E0.01633
G1 X142.103 Y127.371 E0.42129
G1 X142.116 Y126.850 E0.01637
G1 X151.604 Y136.338 E0.42134
G1 X151.618 Y135.818 E0.01633
G1 X142.125 Y126.325 E0.42158
G1 X142.133 Y125.799 E0.01650
G1 X151.632 Y135.298 E0.42183
