; generated by PrusaSlicer 2.2.0+linux-x64 on 2020-07-05 at 09:26:19 UTC

; 

; external perimeters extrusion width = 0.45mm
; perimeters extrusion width = 0.45mm
; infill extrusion width = 0.45mm
; solid infill extrusion width = 0.45mm
; top infill extrusion width = 0.40mm
; first layer extrusion width = 0.42mm

M73 P0 R106
M73 Q0 S108
M201 X1000 Y1000 Z200 E5000 ; sets maximum accelerations, mm/sec^2
M203 X200 Y200 Z12 E120 ; sets maximum feedrates, mm/sec
M204 P1250 R1250 T1250 ; sets acceleration (P, T) and retract acceleration (R), mm/sec^2
M205 X8.00 Y8.00 Z0.40 E4.50 ; sets the jerk limits, mm/sec
M205 S0 T0 ; sets the minimum extruding and travel feed rate, mm/sec
M107
M862.3 P "MK3" ; printer model check
M862.1 P0.4 ; nozzle diameter check
M115 U3.9.0 ; tell printer latest fw version
G90 ; use absolute coordinates
M83 ; extruder relative mode
M104 S225 ; set extruder temp
M140 S60 ; set bed temp
M190 S60 ; wait for bed temp
M109 S225 ; wait for extruder temp
G28 W ; home all without mesh bed level
G80 ; mesh bed leveling
G1 Y-3.0 F1000.0 ; go outside print area
G92 E0.0
G1 X60.0 E9.0 F1000.0 ; intro line
M73 Q0 S107
M73 P0 R106
G1 X100.0 E12.5 F1000.0 ; intro line
G92 E0.0
M221 S95
G21 ; set units to millimeters
G90 ; use absolute coordinates
M83 ; use relative distances for extrusion
M900 K0.06 ; Filament gcode LA 1.5
M900 K30 ; Filament gcode LA 1.0
;BEFORE_LAYER_CHANGE
G92 E0.0
;0.2


G1 E-0.80000 F2100.00000
G1 Z0.600 F10800.000
;AFTER_LAYER_CHANGE
;0.2
G1 X92.841 Y15.693
G1 Z0.200
G1 E0.80000 F2100.00000
M204 S1000
G1 F1200.000
G1 X93.471 Y15.219 E0.02473
G1 X94.218 Y14.979 E0.02461
G1 X106.900 Y14.953 E0.39763
G1 X152.170 Y15.354 E1.41946
G1 X152.902 Y15.505 E0.02343
G1 X153.551 Y15.876 E0.02343
G1 X154.054 Y16.433 E0.02355
G1 X154.358 Y17.116 E0.02343
G1 X154.685 Y21.119 E0.12594
G1 X155.341 Y31.711 E0.33274
G1 X156.119 Y49.037 E0.54380
G1 X156.583 Y66.466 E0.54668
G1 X156.819 Y88.926 E0.70425
G1 X156.783 Y192.768 E3.25589
G1 X156.648 Y193.522 E0.02402
G1 X156.281 Y194.190 E0.02390
G1 X155.719 Y194.711 E0.02402
G1 X155.020 Y195.025 E0.02402
G1 X154.422 Y195.106 E0.01894
G1 X142.971 Y195.106 E0.35904
G1 X92.143 Y194.706 E1.59372
G1 X91.402 Y194.563 E0.02367
G1 X90.743 Y194.194 E0.02367
G1 X90.231 Y193.634 E0.02378
G1 X89.923 Y192.946 E0.02367
G1 X89.842 Y192.332 E0.01942
G1 X89.792 Y97.394 E2.97669
G1 X89.936 Y72.705 E0.77413
G1 X90.193 Y59.137 E0.42548
G1 X90.629 Y45.324 E0.43334
G1 X91.295 Y31.123 E0.44574
G1 X92.198 Y17.105 E0.44043
G1 X92.400 Y16.347 E0.02461
G1 X92.807 Y15.743 E0.02285
G1 F8640.000
G1 X93.471 Y15.219 E-0.19524
G1 X94.218 Y14.979 E-0.18123
G1 X95.879 Y14.975 E-0.38354
G1 E-0.04000 F2100.00000
G1 Z0.800 F10800.000
G1 X140.587 Y18.516
G1 Z0.200
G1 E0.80000 F2100.00000
G1 F1200.000
G1 X151.328 Y18.516 E0.33677
G1 X151.765 Y24.894 E0.20045
G1 X152.181 Y31.886 E0.21962
G1 X152.538 Y38.897 E0.22012
G1 X152.835 Y45.848 E0.21813
G1 X153.077 Y52.763 E0.21696
G1 X153.269 Y59.613 E0.21485
G1 X153.419 Y66.522 E0.21670
G1 X153.525 Y73.143 E0.20761
G1 X153.623 Y82.766 E0.30175
G1 X153.668 Y94.957 E0.38224
G1 X153.657 Y106.156 E0.35113
G1 X153.539 Y140.942 E1.09070
G1 X153.509 Y157.503 E0.51927
G1 X153.530 Y173.649 E0.50623
G1 X153.616 Y191.941 E0.57356
G1 X143.763 Y191.941 E0.30892
G1 X143.595 Y169.382 E0.70737
G1 X143.546 Y156.006 E0.41939
G1 X143.561 Y147.271 E0.27388
G1 X143.598 Y140.401 E0.21539
G1 X143.812 Y116.545 E0.74804
G1 X143.870 Y104.386 E0.38123
G1 X143.868 Y98.142 E0.19575
G1 X143.836 Y91.606 E0.20495
G1 X143.767 Y84.787 E0.21381
G1 X143.666 Y78.299 E0.20347
G1 X143.521 Y71.621 E0.20942
G1 X143.251 Y62.483 E0.28664
G1 X142.886 Y53.148 E0.29292
G1 X142.663 Y48.429 E0.14812
G1 X142.239 Y40.723 E0.24197
G1 X141.740 Y33.008 E0.24244
G1 X141.164 Y25.310 E0.24203
G1 X140.592 Y18.575 E0.21191
G1 X140.176 Y18.139 F10800.000
G1 F1200.000
G1 X151.679 Y18.139 E0.36068
G1 X152.141 Y24.870 E0.21154
G1 X152.558 Y31.865 E0.21972
G1 X152.915 Y38.879 E0.22022
G1 X153.212 Y45.833 E0.21822
G1 X153.454 Y52.751 E0.21705
G1 X153.646 Y59.603 E0.21493
G1 X153.796 Y66.515 E0.21677
G1 X153.902 Y73.138 E0.20767
G1 X154.000 Y82.764 E0.30182
G1 X154.045 Y94.957 E0.38231
G1 X154.035 Y106.157 E0.35117
G1 X153.916 Y140.943 E1.09070
G1 X153.886 Y157.503 E0.51924
G1 X153.907 Y173.648 E0.50619
G1 X153.995 Y192.319 E0.58542
G1 X143.389 Y192.319 E0.33253
G1 X143.218 Y169.384 E0.71913
G1 X143.169 Y156.006 E0.41944
G1 X143.183 Y147.269 E0.27394
G1 X143.221 Y140.399 E0.21543
G1 X143.435 Y116.542 E0.74804
M73 Q0 S106
M73 P1 R105
G1 X143.493 Y104.385 E0.38118
G1 X143.490 Y98.143 E0.19570
G1 X143.459 Y91.609 E0.20489
G1 X143.390 Y84.792 E0.21374
G1 X143.289 Y78.306 E0.20340
G1 X143.144 Y71.631 E0.20934
G1 X142.875 Y62.496 E0.28654
G1 X142.509 Y53.164 E0.29282
G1 X142.286 Y48.448 E0.14802
G1 X141.863 Y40.746 E0.24187
G1 X141.363 Y33.034 E0.24232
G1 X140.788 Y25.340 E0.24192
G1 X140.181 Y18.198 E0.22472
G1 X140.528 Y18.329 F10800.000
G1 F8640.000
G1 X143.473 Y18.181 E-0.76000
G1 E-0.04000 F2100.00000
G1 Z0.800 F10800.000
G1 X144.640 Y191.828
G1 Z0.200
G1 E0.80000 F2100.00000
G1 F1200.000
G1 X144.041 Y191.229 E0.02662
G1 X144.037 Y190.691 E0.01692
G1 X145.005 Y191.659 E0.04300
G1 X145.539 Y191.659 E0.01679
G1 X144.033 Y190.153 E0.06692
G1 X144.029 Y189.614 E0.01692
G1 X146.073 Y191.659 E0.09085
G1 X146.608 Y191.659 E0.01679
G1 X144.025 Y189.076 E0.11477
G1 X144.021 Y188.537 E0.01692
G1 X147.142 Y191.659 E0.13869
G1 X147.676 Y191.659 E0.01679
G1 X144.017 Y187.999 E0.16261
G1 X144.013 Y187.461 E0.01692
G1 X148.211 Y191.659 E0.18654
G1 X148.745 Y191.659 E0.01679
G1 X144.009 Y186.922 E0.21046
G1 X144.005 Y186.384 E0.01692
G1 X149.280 Y191.659 E0.23438
G1 X149.814 Y191.659 E0.01679
G1 X144.001 Y185.845 E0.25830
G1 X143.997 Y185.307 E0.01692
G1 X150.348 Y191.659 E0.28223
G1 X150.883 Y191.659 E0.01679
G1 X143.993 Y184.769 E0.30615
G1 X143.989 Y184.230 E0.01692
G1 X151.417 Y191.659 E0.33007
G1 X151.952 Y191.659 E0.01679
G1 X143.985 Y183.692 E0.35399
G1 X143.981 Y183.153 E0.01692
G1 X152.486 Y191.659 E0.37792
G1 X153.020 Y191.659 E0.01679
G1 X143.977 Y182.615 E0.40184
G1 X143.973 Y182.077 E0.01692
G1 X153.331 Y191.435 E0.41581
G1 X153.328 Y190.898 E0.01687
G1 X143.969 Y181.538 E0.41587
G1 X143.965 Y181.000 E0.01692
G1 X153.326 Y190.361 E0.41594
G1 X153.323 Y189.824 E0.01687
G1 X143.961 Y180.462 E0.41601
G1 X143.957 Y179.923 E0.01692
G1 X153.321 Y189.287 E0.41607
G1 X153.318 Y188.750 E0.01687
G1 X143.953 Y179.385 E0.41614
G1 X143.949 Y178.846 E0.01692
G1 X153.316 Y188.213 E0.41621
G1 X153.313 Y187.676 E0.01687
G1 X143.945 Y178.308 E0.41627
G1 X143.941 Y177.770 E0.01692
G1 X153.310 Y187.139 E0.41634
G1 X153.308 Y186.603 E0.01687
G1 X143.937 Y177.231 E0.41640
G1 X143.933 Y176.693 E0.01692
G1 X153.305 Y186.066 E0.41647
G1 X153.303 Y185.529 E0.01687
G1 X143.929 Y176.154 E0.41654
G1 X143.925 Y175.616 E0.01692
G1 X153.300 Y184.992 E0.41660
G1 X153.298 Y184.455 E0.01687
G1 X143.921 Y175.078 E0.41667
G1 X143.917 Y174.539 E0.01692
G1 X153.295 Y183.918 E0.41674
G1 X153.293 Y183.381 E0.01687
G1 X143.913 Y174.001 E0.41680
G1 X143.909 Y173.463 E0.01692
G1 X153.290 Y182.844 E0.41687
G1 X153.288 Y182.307 E0.01687
G1 X143.905 Y172.924 E0.41693
G1 X143.901 Y172.386 E0.01692
G1 X153.285 Y181.771 E0.41700
G1 X153.283 Y181.234 E0.01687
G1 X143.896 Y171.847 E0.41707
G1 X143.892 Y171.309 E0.01692
G1 X153.280 Y180.697 E0.41713
G1 X153.278 Y180.160 E0.01687
G1 X143.888 Y170.771 E0.41720
G1 X143.884 Y170.232 E0.01692
G1 X153.275 Y179.623 E0.41727
G1 X153.273 Y179.086 E0.01687
G1 X143.880 Y169.694 E0.41733
G1 X143.877 Y169.156 E0.01689
G1 X153.270 Y178.549 E0.41736
G1 X153.268 Y178.012 E0.01687
G1 X143.875 Y168.620 E0.41734
G1 X143.873 Y168.084 E0.01685
G1 X153.265 Y177.475 E0.41731
G1 X153.263 Y176.938 E0.01687
G1 X143.871 Y167.547 E0.41729
G1 X143.869 Y167.011 E0.01685
G1 X153.260 Y176.402 E0.41727
G1 X153.258 Y175.865 E0.01687
G1 X143.867 Y166.475 E0.41724
G1 X143.865 Y165.938 E0.01685
G1 X153.255 Y175.328 E0.41722
G1 X153.253 Y174.791 E0.01687
G1 X143.863 Y165.402 E0.41719
G1 X143.862 Y164.865 E0.01685
G1 X153.250 Y174.254 E0.41717
G1 X153.248 Y173.717 E0.01687
G1 X143.860 Y164.329 E0.41714
G1 X143.858 Y163.793 E0.01685
G1 X153.247 Y173.182 E0.41719
G1 X153.246 Y172.647 E0.01681
G1 X143.856 Y163.256 E0.41725
G1 X143.854 Y162.720 E0.01685
G1 X153.245 Y172.112 E0.41731
G1 X153.245 Y171.577 E0.01681
G1 X143.852 Y162.184 E0.41736
G1 X143.850 Y161.647 E0.01685
G1 X153.244 Y171.042 E0.41742
G1 X153.243 Y170.506 E0.01681
G1 X143.848 Y161.111 E0.41748
G1 X143.846 Y160.575 E0.01685
G1 X153.242 Y169.971 E0.41753
G1 X153.242 Y169.436 E0.01681
G1 X143.844 Y160.038 E0.41759
G1 X143.842 Y159.502 E0.01685
G1 X153.241 Y168.901 E0.41765
G1 X153.240 Y168.366 E0.01681
G1 X143.840 Y158.966 E0.41770
G1 X143.838 Y158.429 E0.01685
G1 X153.240 Y167.831 E0.41776
G1 X153.239 Y167.296 E0.01681
G1 X143.836 Y157.893 E0.41782
G1 X143.834 Y157.357 E0.01685
G1 X153.238 Y166.761 E0.41788
G1 X153.238 Y166.226 E0.01681
G1 X143.832 Y156.820 E0.41793
G1 X143.830 Y156.284 E0.01685
G1 X153.237 Y165.691 E0.41799
G1 X153.236 Y165.156 E0.01681
G1 X143.829 Y155.749 E0.41799
G1 X143.830 Y155.215 E0.01676
G1 X153.236 Y164.621 E0.41792
G1 X153.235 Y164.086 E0.01681
G1 X143.831 Y154.682 E0.41785
G1 X143.832 Y154.148 E0.01676
G1 X153.234 Y163.551 E0.41778
G1 X153.234 Y163.016 E0.01681
G1 X143.833 Y153.615 E0.41771
G1 X143.834 Y153.081 E0.01676
G1 X153.233 Y162.480 E0.41764
G1 X153.232 Y161.945 E0.01681
G1 X143.835 Y152.548 E0.41757
G1 X143.836 Y152.014 E0.01676
G1 X153.231 Y161.410 E0.41750
G1 X153.231 Y160.875 E0.01681
G1 X143.836 Y151.481 E0.41743
G1 X143.837 Y150.947 E0.01676
G1 X153.230 Y160.340 E0.41736
G1 X153.229 Y159.805 E0.01681
G1 X143.838 Y150.414 E0.41729
G1 X143.839 Y149.880 E0.01676
G1 X153.229 Y159.270 E0.41722
G1 X153.228 Y158.735 E0.01681
G1 X143.840 Y149.347 E0.41715
G1 X143.841 Y148.813 E0.01676
G1 X153.227 Y158.200 E0.41708
G1 X153.227 Y157.665 E0.01681
G1 X143.842 Y148.280 E0.41701
G1 X143.843 Y147.746 E0.01676
G1 X153.227 Y157.131 E0.41699
G1 X153.228 Y156.598 E0.01676
G1 X143.844 Y147.213 E0.41698
G1 X143.847 Y146.682 E0.01670
G1 X153.229 Y156.064 E0.41689
M73 Q1 S105
G1 X153.230 Y155.531 E0.01676
G1 X143.849 Y146.150 E0.41681
M73 P1 R104
G1 X143.852 Y145.619 E0.01670
G1 X153.231 Y154.997 E0.41672
G1 X153.232 Y154.464 E0.01676
G1 X143.855 Y145.087 E0.41664
G1 X143.858 Y144.556 E0.01670
G1 X153.233 Y153.930 E0.41655
G1 X153.234 Y153.397 E0.01676
G1 X143.861 Y144.024 E0.41647
G1 X143.864 Y143.493 E0.01670
G1 X153.235 Y152.864 E0.41638
G1 X153.236 Y152.330 E0.01676
G1 X143.867 Y142.961 E0.41629
G1 X143.870 Y142.430 E0.01670
G1 X153.237 Y151.797 E0.41621
G1 X153.238 Y151.263 E0.01676
G1 X143.873 Y141.898 E0.41612
G1 X143.876 Y141.367 E0.01670
G1 X153.239 Y150.730 E0.41604
G1 X153.240 Y150.197 E0.01676
G1 X143.878 Y140.835 E0.41595
G1 X143.882 Y140.304 E0.01669
G1 X153.241 Y149.663 E0.41585
G1 X153.241 Y149.130 E0.01676
G1 X143.886 Y139.775 E0.41568
G1 X143.891 Y139.245 E0.01664
G1 X153.242 Y148.596 E0.41551
G1 X153.243 Y148.063 E0.01676
G1 X143.896 Y138.715 E0.41534
G1 X143.901 Y138.186 E0.01664
G1 X153.244 Y147.529 E0.41518
G1 X153.245 Y146.996 E0.01676
G1 X143.905 Y137.656 E0.41501
G1 X143.910 Y137.126 E0.01664
G1 X153.246 Y146.463 E0.41484
G1 X153.247 Y145.929 E0.01676
G1 X143.915 Y136.597 E0.41467
G1 X143.920 Y136.067 E0.01664
G1 X153.248 Y145.396 E0.41451
G1 X153.249 Y144.862 E0.01676
G1 X143.924 Y135.538 E0.41434
G1 X143.929 Y135.008 E0.01664
G1 X153.250 Y144.329 E0.41417
G1 X153.251 Y143.796 E0.01676
G1 X143.934 Y134.478 E0.41400
G1 X143.939 Y133.949 E0.01664
G1 X153.252 Y143.262 E0.41383
G1 X153.253 Y142.729 E0.01676
G1 X143.943 Y133.419 E0.41367
G1 X143.948 Y132.889 E0.01664
G1 X153.254 Y142.195 E0.41350
G1 X153.255 Y141.662 E0.01676
G1 X143.953 Y132.360 E0.41333
G1 X143.958 Y131.830 E0.01664
G1 X153.256 Y141.128 E0.41316
G1 X153.257 Y140.596 E0.01674
G1 X143.962 Y131.300 E0.41302
G1 X143.967 Y130.771 E0.01664
G1 X153.259 Y140.063 E0.41289
G1 X153.261 Y139.530 E0.01673
G1 X143.972 Y130.241 E0.41276
G1 X143.977 Y129.712 E0.01664
G1 X153.263 Y138.998 E0.41263
G1 X153.265 Y138.465 E0.01673
G1 X143.981 Y129.182 E0.41250
G1 X143.986 Y128.652 E0.01664
G1 X153.267 Y137.933 E0.41237
G1 X153.268 Y137.400 E0.01673
G1 X143.991 Y128.123 E0.41224
G1 X143.995 Y127.593 E0.01664
G1 X153.270 Y136.868 E0.41211
G1 X153.272 Y136.335 E0.01673
G1 X144.000 Y127.063 E0.41198
G1 X144.005 Y126.534 E0.01664
G1 X153.274 Y135.803 E0.41185
G1 X153.276 Y135.270 E0.01673
G1 X144.010 Y126.004 E0.41172
G1 X144.014 Y125.474 E0.01664
G1 X153.277 Y134.737 E0.41159
G1 X153.279 Y134.205 E0.01673
G1 X144.019 Y124.945 E0.41146
G1 X144.024 Y124.415 E0.01664
G1 X153.281 Y133.672 E0.41133
G1 X153.283 Y133.140 E0.01673
G1 X144.029 Y123.886 E0.41120
G1 X144.033 Y123.356 E0.01664
G1 X153.285 Y132.607 E0.41107
G1 X153.286 Y132.075 E0.01673
G1 X144.038 Y122.826 E0.41094
G1 X144.043 Y122.297 E0.01664
G1 X153.288 Y131.542 E0.41081
G1 X153.290 Y131.009 E0.01673
G1 X144.048 Y121.767 E0.41068
G1 X144.052 Y121.237 E0.01664
G1 X153.292 Y130.477 E0.41055
G1 X153.294 Y129.944 E0.01673
G1 X144.057 Y120.708 E0.41042
G1 X144.062 Y120.178 E0.01664
G1 X153.296 Y129.412 E0.41028
G1 X153.297 Y128.879 E0.01673
G1 X144.067 Y119.648 E0.41015
G1 X144.071 Y119.119 E0.01664
G1 X153.299 Y128.347 E0.41002
G1 X153.301 Y127.814 E0.01673
G1 X144.076 Y118.589 E0.40989
G1 X144.081 Y118.060 E0.01664
G1 X153.303 Y127.281 E0.40976
G1 X153.305 Y126.749 E0.01673
G1 X144.086 Y117.530 E0.40963
G1 X144.090 Y117.000 E0.01664
G1 X153.306 Y126.216 E0.40950
G1 X153.308 Y125.684 E0.01673
G1 X144.095 Y116.470 E0.40939
G1 X144.097 Y115.939 E0.01671
G1 X153.310 Y125.151 E0.40935
G1 X153.312 Y124.619 E0.01673
G1 X144.100 Y115.407 E0.40932
G1 X144.102 Y114.875 E0.01671
G1 X153.314 Y124.086 E0.40929
G1 X153.315 Y123.554 E0.01673
G1 X144.105 Y114.343 E0.40926
G1 X144.108 Y113.811 E0.01671
G1 X153.317 Y123.021 E0.40922
G1 X153.319 Y122.488 E0.01673
G1 X144.110 Y113.279 E0.40919
G1 X144.113 Y112.748 E0.01671
G1 X153.321 Y121.956 E0.40916
G1 X153.323 Y121.423 E0.01673
G1 X144.115 Y112.216 E0.40912
G1 X144.118 Y111.684 E0.01671
G1 X153.324 Y120.891 E0.40909
G1 X153.326 Y120.358 E0.01673
G1 X144.120 Y111.152 E0.40906
G1 X144.123 Y110.620 E0.01671
G1 X153.328 Y119.826 E0.40903
G1 X153.330 Y119.293 E0.01673
G1 X144.125 Y110.088 E0.40899
G1 X144.128 Y109.557 E0.01671
G1 X153.332 Y118.760 E0.40896
G1 X153.334 Y118.228 E0.01673
G1 X144.130 Y109.025 E0.40893
G1 X144.133 Y108.493 E0.01671
G1 X153.335 Y117.695 E0.40889
G1 X153.337 Y117.163 E0.01673
G1 X144.136 Y107.961 E0.40886
G1 X144.138 Y107.429 E0.01671
G1 X153.339 Y116.630 E0.40883
G1 X153.341 Y116.098 E0.01673
G1 X144.141 Y106.897 E0.40879
G1 X144.143 Y106.366 E0.01671
G1 X153.343 Y115.565 E0.40876
G1 X153.344 Y115.032 E0.01673
G1 X144.146 Y105.834 E0.40873
G1 X144.148 Y105.302 E0.01671
G1 X153.346 Y114.500 E0.40870
G1 X153.348 Y113.967 E0.01673
G1 X144.151 Y104.770 E0.40866
G1 X144.153 Y104.238 E0.01673
G1 X153.350 Y113.435 E0.40866
G1 X153.352 Y112.902 E0.01673
G1 X144.152 Y103.703 E0.40875
G1 X144.152 Y103.168 E0.01680
G1 X153.353 Y112.370 E0.40884
G1 X153.355 Y111.837 E0.01673
G1 X144.152 Y102.634 E0.40893
G1 X144.152 Y102.099 E0.01680
G1 X153.357 Y111.305 E0.40902
G1 X153.359 Y110.772 E0.01673
G1 X144.152 Y101.565 E0.40911
G1 X144.151 Y101.030 E0.01680
G1 X153.361 Y110.239 E0.40920
G1 X153.363 Y109.707 E0.01673
G1 X144.151 Y100.496 E0.40929
M73 Q2 S104
G1 X144.151 Y99.961 E0.01680
G1 X153.364 Y109.174 E0.40938
M73 P2 R103
G1 X153.366 Y108.642 E0.01673
G1 X144.151 Y99.426 E0.40947
G1 X144.151 Y98.892 E0.01680
G1 X153.368 Y108.109 E0.40956
G1 X153.370 Y107.577 E0.01673
G1 X144.150 Y98.357 E0.40965
G1 X144.149 Y97.821 E0.01684
G1 X153.372 Y107.044 E0.40980
G1 X153.373 Y106.511 E0.01673
G1 X144.146 Y97.284 E0.41000
G1 X144.144 Y96.747 E0.01687
G1 X153.375 Y105.978 E0.41018
G1 X153.375 Y105.445 E0.01677
G1 X144.141 Y96.210 E0.41032
G1 X144.138 Y95.673 E0.01687
G1 X153.376 Y104.911 E0.41046
G1 X153.376 Y104.377 E0.01677
G1 X144.136 Y95.136 E0.41059
G1 X144.133 Y94.599 E0.01687
