; generated by PrusaSlicer 2.2.0+linux-x64 on 2020-07-05 at 09:27:05 UTC

; 

; external perimeters extrusion width = 0.45mm
; perimeters extrusion width = 0.45mm
; infill extrusion width = 0.45mm
; solid infill extrusion width = 0.45mm
; top infill extrusion width = 0.40mm
; first layer extrusion width = 0.42mm

M73 P0 R118
M73 Q0 S119
M201 X1000 Y1000 Z200 E5000 ; sets maximum accelerations, mm/sec^2
M203 X200 Y200 Z12 E120 ; sets maximum feedrates, mm/sec
M204 P1250 R1250 T1250 ; sets acceleration (P, T) and retract acceleration (R), mm/sec^2
M205 X8.00 Y8.00 Z0.40 E4.50 ; sets the jerk limits, mm/sec
M205 S0 T0 ; sets the minimum extruding and travel feed rate, mm/sec
M107
M862.3 P "MK3" ; printer model check
M862.1 P0.4 ; nozzle diameter check
M115 U3.9.0 ; tell printer latest fw version
G90 ; use absolute coordinates
M83 ; extruder relative mode
M104 S225 ; set extruder temp
M140 S60 ; set bed temp
M190 S60 ; wait for bed temp
M109 S225 ; wait for extruder temp
G28 W ; home all without mesh bed level
G80 ; mesh bed leveling
G1 Y-3.0 F1000.0 ; go outside print area
G92 E0.0
G1 X60.0 E9.0 F1000.0 ; intro line
M73 Q0 S119
M73 P0 R118
G1 X100.0 E12.5 F1000.0 ; intro line
G92 E0.0
M221 S95
G21 ; set units to millimeters
G90 ; use absolute coordinates
M83 ; use relative distances for extrusion
M900 K0.06 ; Filament gcode LA 1.5
M900 K30 ; Filament gcode LA 1.0
;BEFORE_LAYER_CHANGE
G92 E0.0
;0.2


G1 E-0.80000 F2100.00000
G1 Z0.600 F10800.000
;AFTER_LAYER_CHANGE
;0.2
G1 X102.667 Y17.329
G1 Z0.200
G1 E0.80000 F2100.00000
M204 S1000
G1 F1200.000
G1 X103.016 Y16.755 E0.02107
G1 X103.515 Y16.299 E0.02119
G1 X104.118 Y16.003 E0.02107
G1 X104.780 Y15.888 E0.02107
G1 X153.155 Y15.765 E1.51676
G1 X153.932 Y15.897 E0.02473
G1 X154.621 Y16.274 E0.02461
G1 X155.151 Y16.858 E0.02473
G1 X155.461 Y17.583 E0.02473
G1 X162.209 Y47.472 E0.96075
G1 X165.103 Y60.659 E0.42328
G1 X167.340 Y71.795 E0.35616
G1 X169.149 Y81.998 E0.32489
G1 X171.369 Y95.890 E0.44111
G1 X174.144 Y114.496 E0.58981
G1 X176.777 Y133.124 E0.58988
G1 X178.872 Y149.096 E0.50509
G1 X180.440 Y162.325 E0.41768
G1 X181.849 Y175.915 E0.42838
G1 X183.290 Y192.978 E0.53690
G1 X183.262 Y193.540 E0.01763
G1 X183.103 Y194.079 E0.01763
G1 X182.746 Y194.662 E0.02142
G1 X182.239 Y195.119 E0.02142
G1 X181.622 Y195.413 E0.02142
G1 X180.947 Y195.519 E0.02142
G1 X77.085 Y195.641 E3.25652
G1 X76.147 Y195.449 E0.03001
G1 X75.550 Y195.080 E0.02201
G1 X75.089 Y194.555 E0.02190
G1 X74.799 Y193.916 E0.02201
G1 X74.708 Y193.224 E0.02190
G1 X75.557 Y182.577 E0.33488
G1 X76.526 Y172.237 E0.32561
G1 X77.984 Y158.746 E0.42547
G1 X79.957 Y142.749 E0.50538
G1 X82.129 Y126.730 E0.50687
G1 X85.070 Y106.375 E0.64482
G1 X88.502 Y84.239 E0.70238
G1 X89.898 Y76.086 E0.25936
G1 X91.314 Y68.527 E0.24111
G1 X92.900 Y60.784 E0.24780
G1 X94.729 Y52.375 E0.26983
G1 X102.654 Y17.388 E1.12479
G1 F8640.000
G1 X103.016 Y16.755 E-0.16835
G1 X103.515 Y16.299 E-0.15602
G1 X104.118 Y16.003 E-0.15515
G1 X104.780 Y15.888 E-0.15515
G1 X105.323 Y15.887 E-0.12533
G1 E-0.04000 F2100.00000
G1 Z0.800 F10800.000
G1 X138.238 Y18.930
G1 Z0.200
G1 E0.80000 F2100.00000
G1 F1200.000
G1 X152.523 Y18.930 E0.44790
G1 X159.366 Y49.260 E0.97490
G1 X161.117 Y57.177 E0.25423
G1 X162.414 Y63.244 E0.19450
G1 X163.585 Y69.018 E0.18473
G1 X164.644 Y74.608 E0.17838
G1 X165.681 Y80.471 E0.18669
G1 X166.379 Y84.631 E0.13225
G1 X167.138 Y89.317 E0.14884
G1 X168.241 Y96.370 E0.22384
G1 X169.441 Y104.285 E0.25103
G1 X170.638 Y112.376 E0.25642
G1 X171.931 Y121.322 E0.28343
G1 X173.170 Y130.124 E0.27868
G1 X174.022 Y136.354 E0.19716
G1 X174.909 Y143.036 E0.21136
G1 X175.689 Y149.143 E0.19303
G1 X176.489 Y155.686 E0.20666
G1 X177.255 Y162.320 E0.20940
G1 X177.663 Y166.028 E0.11695
G1 X178.329 Y172.433 E0.20192
G1 X178.698 Y176.210 E0.11901
G1 X179.294 Y182.728 E0.20521
G1 X179.604 Y186.391 E0.11525
G1 X180.068 Y192.355 E0.18758
G1 X169.303 Y192.355 E0.33752
G1 X168.969 Y188.776 E0.11273
G1 X168.442 Y183.518 E0.16567
G1 X167.881 Y178.302 E0.16451
G1 X167.289 Y173.127 E0.16329
G1 X166.670 Y167.997 E0.16202
G1 X166.025 Y162.912 E0.16070
G1 X165.357 Y157.874 E0.15936
G1 X163.964 Y147.947 E0.31430
G1 X162.774 Y139.925 E0.25428
G1 X161.565 Y132.062 E0.24944
G1 X159.154 Y116.951 E0.47977
G1 X157.493 Y106.783 E0.32306
G1 X155.927 Y97.350 E0.29981
G1 X154.597 Y89.490 E0.24995
G1 X153.265 Y81.845 E0.24331
G1 X151.931 Y74.613 E0.23057
G1 X150.768 Y68.791 E0.18617
G1 X149.478 Y62.850 E0.19061
G1 X148.216 Y57.423 E0.17469
G1 X146.402 Y50.025 E0.23885
G1 X144.249 Y41.590 E0.27295
G1 X141.103 Y29.609 E0.38838
G1 X138.253 Y18.988 E0.34481
G1 X137.746 Y18.552 F10800.000
G1 F1200.000
G1 X152.824 Y18.552 E0.47277
G1 X159.734 Y49.178 E0.98438
G1 X161.485 Y57.097 E0.25430
G1 X162.783 Y63.167 E0.19460
G1 X163.955 Y68.945 E0.18487
G1 X165.015 Y74.540 E0.17853
G1 X166.052 Y80.407 E0.18682
G1 X166.751 Y84.569 E0.13234
G1 X167.510 Y89.257 E0.14891
G1 X168.614 Y96.312 E0.22390
G1 X169.814 Y104.230 E0.25108
G1 X171.011 Y112.321 E0.25646
G1 X172.304 Y121.269 E0.28348
G1 X173.543 Y130.072 E0.27873
G1 X174.396 Y136.303 E0.19721
G1 X175.283 Y142.988 E0.21141
G1 X176.063 Y149.096 E0.19309
G1 X176.863 Y155.641 E0.20673
G1 X177.630 Y162.278 E0.20947
G1 X178.038 Y165.987 E0.11702
G1 X178.704 Y172.395 E0.20199
G1 X179.074 Y176.175 E0.11908
G1 X179.669 Y182.695 E0.20529
G1 X179.980 Y186.360 E0.11533
G1 X180.475 Y192.732 E0.20040
G1 X168.960 Y192.732 E0.36106
G1 X168.593 Y188.812 E0.12346
G1 X168.067 Y183.557 E0.16559
G1 X167.506 Y178.343 E0.16443
G1 X166.915 Y173.171 E0.16321
G1 X166.296 Y168.043 E0.16195
M73 Q0 S118
M73 P0 R117
G1 X165.651 Y162.961 E0.16064
G1 X164.983 Y157.925 E0.15928
G1 X163.591 Y148.001 E0.31421
G1 X162.402 Y139.981 E0.25420
G1 X161.193 Y132.120 E0.24938
G1 X158.782 Y117.011 E0.47972
G1 X157.121 Y106.844 E0.32302
G1 X155.555 Y97.412 E0.29977
G1 X154.226 Y89.554 E0.24990
G1 X152.894 Y81.912 E0.24322
G1 X151.561 Y74.685 E0.23042
G1 X150.399 Y68.868 E0.18598
G1 X149.110 Y62.933 E0.19043
G1 X147.849 Y57.511 E0.17453
G1 X146.036 Y50.117 E0.23872
G1 X143.884 Y41.684 E0.27285
G1 X140.738 Y29.706 E0.38831
G1 X137.762 Y18.610 E0.36019
G1 X138.109 Y18.722 F10800.000
G1 F8640.000
G1 X141.053 Y18.598 E-0.76000
G1 E-0.04000 F2100.00000
G1 Z0.800 F10800.000
G1 X169.328 Y191.399
G1 Z0.200
G1 E0.80000 F2100.00000
G1 F1200.000
G1 X170.001 Y192.073 E0.02987
G1 X170.534 Y192.073 E0.01673
G1 X169.461 Y190.999 E0.04764
G1 X169.406 Y190.410 E0.01854
G1 X171.068 Y192.073 E0.07373
G1 X171.601 Y192.073 E0.01673
G1 X169.351 Y189.822 E0.09983
G1 X169.296 Y189.233 E0.01853
G1 X172.135 Y192.073 E0.12593
G1 X172.668 Y192.073 E0.01673
G1 X169.240 Y188.644 E0.15207
G1 X169.180 Y188.051 E0.01869
G1 X173.202 Y192.073 E0.17836
G1 X173.735 Y192.073 E0.01673
G1 X169.121 Y187.459 E0.20466
G1 X169.062 Y186.866 E0.01869
G1 X174.268 Y192.073 E0.23096
G1 X174.802 Y192.073 E0.01673
G1 X169.002 Y186.273 E0.25725
G1 X168.943 Y185.680 E0.01869
G1 X175.335 Y192.073 E0.28355
G1 X175.869 Y192.073 E0.01673
G1 X168.883 Y185.087 E0.30985
G1 X168.824 Y184.494 E0.01869
G1 X176.402 Y192.073 E0.33614
G1 X176.936 Y192.073 E0.01673
G1 X168.764 Y183.901 E0.36244
G1 X168.703 Y183.307 E0.01874
G1 X177.469 Y192.073 E0.38880
G1 X178.003 Y192.073 E0.01673
G1 X168.639 Y182.709 E0.41531
G1 X168.575 Y182.112 E0.01885
G1 X178.536 Y192.073 E0.44182
G1 X179.069 Y192.073 E0.01673
G1 X168.511 Y181.514 E0.46833
G1 X168.446 Y180.916 E0.01885
G1 X179.603 Y192.073 E0.49484
G1 X179.762 Y192.073 E0.00500
G1 X179.731 Y191.667 E0.01276
G1 X168.382 Y180.319 E0.50336
G1 X168.318 Y179.721 E0.01885
G1 X179.686 Y191.089 E0.50421
G1 X179.641 Y190.510 E0.01820
G1 X168.254 Y179.123 E0.50506
G1 X168.189 Y178.526 E0.01885
G1 X179.596 Y189.932 E0.50592
G1 X179.551 Y189.353 E0.01820
G1 X168.123 Y177.925 E0.50689
G1 X168.054 Y177.323 E0.01901
G1 X179.506 Y188.775 E0.50795
G1 X179.461 Y188.196 E0.01820
G1 X167.985 Y176.721 E0.50900
G1 X167.916 Y176.118 E0.01901
G1 X179.416 Y187.618 E0.51006
G1 X179.371 Y187.039 E0.01820
G1 X167.847 Y175.516 E0.51112
G1 X167.778 Y174.914 E0.01901
G1 X179.326 Y186.461 E0.51218
G1 X179.277 Y185.879 E0.01833
G1 X167.709 Y174.312 E0.51306
G1 X167.641 Y173.709 E0.01901
G1 X179.227 Y185.296 E0.51392
G1 X179.178 Y184.713 E0.01834
G1 X167.572 Y173.107 E0.51479
G1 X167.499 Y172.500 E0.01916
G1 X179.128 Y184.130 E0.51585
G1 X179.079 Y183.547 E0.01834
G1 X167.425 Y171.894 E0.51691
G1 X167.352 Y171.287 E0.01917
G1 X179.030 Y182.965 E0.51797
G1 X178.978 Y182.379 E0.01844
G1 X167.279 Y170.680 E0.51891
G1 X167.205 Y170.073 E0.01917
G1 X178.924 Y181.792 E0.51978
G1 X178.870 Y181.205 E0.01849
G1 X167.132 Y169.467 E0.52066
G1 X167.059 Y168.860 E0.01917
G1 X178.817 Y180.618 E0.52153
G1 X178.763 Y180.031 E0.01849
G1 X166.986 Y168.253 E0.52240
G1 X166.910 Y167.644 E0.01924
G1 X178.710 Y179.444 E0.52337
G1 X178.656 Y178.857 E0.01849
G1 X166.833 Y167.033 E0.52443
G1 X166.755 Y166.422 E0.01932
G1 X178.602 Y178.270 E0.52549
G1 X178.549 Y177.683 E0.01849
G1 X166.677 Y165.811 E0.52655
G1 X166.600 Y165.201 E0.01932
G1 X178.495 Y177.096 E0.52761
G1 X178.442 Y176.509 E0.01849
G1 X166.522 Y164.590 E0.52868
G1 X166.445 Y163.979 E0.01932
G1 X178.386 Y175.919 E0.52964
G1 X178.328 Y175.328 E0.01863
G1 X166.367 Y163.368 E0.53051
G1 X166.289 Y162.756 E0.01934
G1 X178.270 Y174.737 E0.53142
G1 X178.212 Y174.146 E0.01863
G1 X166.208 Y162.141 E0.53248
G1 X166.126 Y161.526 E0.01946
G1 X178.155 Y173.555 E0.53353
G1 X178.097 Y172.963 E0.01863
G1 X166.045 Y160.911 E0.53458
G1 X165.963 Y160.296 E0.01946
G1 X178.038 Y172.372 E0.53561
G1 X177.977 Y171.776 E0.01877
G1 X165.881 Y159.681 E0.53648
G1 X165.800 Y159.066 E0.01946
G1 X177.915 Y171.181 E0.53735
G1 X177.853 Y170.585 E0.01877
G1 X165.718 Y158.451 E0.53821
G1 X165.637 Y157.836 E0.01946
G1 X177.791 Y169.990 E0.53908
G1 X177.729 Y169.395 E0.01877
G1 X165.550 Y157.216 E0.54020
G1 X165.463 Y156.595 E0.01965
G1 X177.667 Y168.799 E0.54131
G1 X177.605 Y168.204 E0.01877
G1 X165.376 Y155.975 E0.54242
G1 X165.289 Y155.354 E0.01965
G1 X177.543 Y167.609 E0.54354
G1 X177.481 Y167.013 E0.01877
G1 X165.202 Y154.734 E0.54465
G1 X165.115 Y154.113 E0.01965
G1 X177.419 Y166.418 E0.54576
G1 X177.355 Y165.821 E0.01883
G1 X165.027 Y153.493 E0.54681
G1 X164.940 Y152.872 E0.01965
G1 X177.290 Y165.222 E0.54775
G1 X177.224 Y164.622 E0.01891
G1 X164.853 Y152.252 E0.54869
G1 X164.766 Y151.631 E0.01965
G1 X177.158 Y164.023 E0.54963
M73 Q1 S117
G1 X177.092 Y163.424 E0.01891
G1 X164.679 Y151.011 E0.55057
M73 P1 R116
G1 X164.592 Y150.390 E0.01965
G1 X177.026 Y162.824 E0.55151
G1 X176.960 Y162.224 E0.01894
G1 X164.505 Y149.770 E0.55242
G1 X164.418 Y149.149 E0.01965
G1 X176.890 Y161.621 E0.55319
G1 X176.820 Y161.018 E0.01904
G1 X164.331 Y148.529 E0.55396
G1 X164.244 Y147.908 E0.01965
G1 X176.750 Y160.415 E0.55473
G1 X176.681 Y159.812 E0.01904
G1 X164.151 Y147.282 E0.55575
G1 X164.058 Y146.656 E0.01986
G1 X176.611 Y159.209 E0.55678
G1 X176.541 Y158.606 E0.01904
G1 X163.965 Y146.030 E0.55780
G1 X163.873 Y145.403 E0.01986
G1 X176.472 Y158.002 E0.55883
G1 X176.402 Y157.399 E0.01904
G1 X163.780 Y144.777 E0.55986
G1 X163.687 Y144.151 E0.01986
G1 X176.332 Y156.796 E0.56088
G1 X176.262 Y156.193 E0.01904
G1 X163.594 Y143.524 E0.56191
G1 X163.501 Y142.898 E0.01986
G1 X176.192 Y155.589 E0.56289
G1 X176.118 Y154.981 E0.01920
G1 X163.408 Y142.272 E0.56372
G1 X163.315 Y141.646 E0.01986
G1 X176.043 Y154.374 E0.56455
G1 X175.969 Y153.766 E0.01920
G1 X163.223 Y141.019 E0.56537
G1 X163.130 Y140.393 E0.01986
G1 X175.895 Y153.158 E0.56620
G1 X175.821 Y152.551 E0.01920
G1 X163.036 Y139.766 E0.56706
G1 X162.939 Y139.136 E0.02000
G1 X175.746 Y151.943 E0.56806
G1 X175.672 Y151.335 E0.01920
G1 X162.842 Y138.505 E0.56907
G1 X162.745 Y137.875 E0.02000
G1 X175.598 Y150.728 E0.57008
G1 X175.524 Y150.120 E0.01920
G1 X162.648 Y137.245 E0.57108
G1 X162.551 Y136.614 E0.02000
G1 X175.449 Y149.512 E0.57209
G1 X175.409 Y149.178 E0.01055
G1 X175.373 Y148.903 E0.00871
G1 X162.454 Y135.984 E0.57302
G1 X162.358 Y135.353 E0.02000
G1 X175.295 Y148.291 E0.57385
G1 X175.217 Y147.680 E0.01934
G1 X162.261 Y134.723 E0.57469
G1 X162.164 Y134.093 E0.02000
G1 X175.139 Y147.068 E0.57552
G1 X175.061 Y146.456 E0.01934
G1 X162.067 Y133.462 E0.57636
G1 X161.970 Y132.832 E0.02000
G1 X174.983 Y145.845 E0.57719
G1 X174.905 Y145.233 E0.01934
G1 X161.873 Y132.202 E0.57802
G1 X161.773 Y131.568 E0.02011
G1 X174.826 Y144.622 E0.57899
G1 X174.748 Y144.010 E0.01934
G1 X161.672 Y130.933 E0.58002
G1 X161.570 Y130.299 E0.02016
G1 X174.670 Y143.399 E0.58105
G1 X174.629 Y143.073 E0.01030
G1 X174.590 Y142.785 E0.00909
G1 X161.469 Y129.664 E0.58200
G1 X161.368 Y129.029 E0.02016
G1 X174.509 Y142.170 E0.58288
G1 X174.427 Y141.555 E0.01946
G1 X161.266 Y128.395 E0.58375
G1 X161.165 Y127.760 E0.02016
G1 X174.346 Y140.940 E0.58462
G1 X174.264 Y140.325 E0.01946
G1 X161.064 Y127.125 E0.58549
G1 X160.963 Y126.490 E0.02016
G1 X174.182 Y139.710 E0.58637
G1 X174.101 Y139.095 E0.01946
G1 X160.861 Y125.856 E0.58724
G1 X160.760 Y125.221 E0.02016
G1 X174.019 Y138.480 E0.58811
G1 X173.938 Y137.865 E0.01946
G1 X160.659 Y124.586 E0.58899
G1 X160.557 Y123.952 E0.02016
G1 X173.856 Y137.250 E0.58986
G1 X173.774 Y136.635 E0.01946
G1 X160.456 Y123.317 E0.59073
G1 X160.355 Y122.682 E0.02016
G1 X173.691 Y136.018 E0.59153
G1 X173.606 Y135.400 E0.01956
G1 X160.254 Y122.047 E0.59227
G1 X160.152 Y121.413 E0.02016
G1 X173.522 Y134.782 E0.59301
G1 X173.437 Y134.164 E0.01956
G1 X160.051 Y120.778 E0.59375
G1 X159.950 Y120.143 E0.02016
G1 X173.353 Y133.546 E0.59449
G1 X173.268 Y132.928 E0.01956
G1 X159.848 Y119.509 E0.59523
G1 X159.747 Y118.874 E0.02016
G1 X173.184 Y132.310 E0.59597
G1 X173.099 Y131.692 E0.01956
G1 X159.646 Y118.239 E0.59671
G1 X159.545 Y117.604 E0.02016
G1 X173.014 Y131.074 E0.59746
G1 X172.930 Y130.456 E0.01956
G1 X159.443 Y116.970 E0.59820
G1 X159.339 Y116.332 E0.02025
G1 X172.844 Y129.837 E0.59899
G1 X172.756 Y129.216 E0.01966
G1 X159.235 Y115.695 E0.59973
G1 X159.131 Y115.057 E0.02026
G1 X172.669 Y128.595 E0.60048
G1 X172.582 Y127.974 E0.01966
G1 X159.027 Y114.420 E0.60122
G1 X158.923 Y113.782 E0.02026
G1 X172.494 Y127.354 E0.60197
G1 X172.407 Y126.733 E0.01966
G1 X158.819 Y113.144 E0.60271
G1 X158.714 Y112.507 E0.02026
G1 X172.320 Y126.112 E0.60346
G1 X172.232 Y125.491 E0.01966
G1 X158.610 Y111.869 E0.60420
M73 Q2 S116
G1 X158.506 Y111.232 E0.02026
G1 X172.145 Y124.870 E0.60494
M73 P2 R115
G1 X172.057 Y124.249 E0.01966
G1 X158.402 Y110.594 E0.60569
G1 X158.298 Y109.956 E0.02026
G1 X171.970 Y123.629 E0.60643
G1 X171.883 Y123.008 E0.01966
G1 X158.194 Y109.319 E0.60718
G1 X158.089 Y108.681 E0.02026
G1 X171.795 Y122.387 E0.60792
G1 X171.708 Y121.766 E0.01966
G1 X157.985 Y108.044 E0.60867
G1 X157.881 Y107.406 E0.02026
G1 X171.619 Y121.144 E0.60937
G1 X171.529 Y120.521 E0.01976
G1 X157.777 Y106.768 E0.60999
G1 X157.671 Y106.129 E0.02033
G1 X171.439 Y119.897 E0.61070
G1 X171.349 Y119.274 E0.01976
G1 X157.565 Y105.489 E0.61141
G1 X157.458 Y104.850 E0.02034
G1 X171.259 Y118.650 E0.61212
G1 X171.169 Y118.027 E0.01976
G1 X157.352 Y104.210 E0.61284
G1 X157.246 Y103.570 E0.02034
G1 X171.079 Y117.403 E0.61355
G1 X170.989 Y116.779 E0.01976
G1 X157.140 Y102.931 E0.61426
G1 X157.034 Y102.291 E0.02034
G1 X170.898 Y116.156 E0.61498
G1 X170.808 Y115.532 E0.01976
G1 X156.927 Y101.651 E0.61569
G1 X156.821 Y101.012 E0.02034
G1 X170.718 Y114.909 E0.61640
G1 X170.628 Y114.285 E0.01976
G1 X156.715 Y100.372 E0.61711
G1 X156.609 Y99.732 E0.02034
G1 X170.538 Y113.662 E0.61783
G1 X170.448 Y113.038 E0.01976
G1 X156.503 Y99.093 E0.61854
G1 X156.396 Y98.453 E0.02034
G1 X170.358 Y112.414 E0.61925
G1 X170.265 Y111.788 E0.01985
G1 X156.290 Y97.814 E0.61985
G1 X156.183 Y97.173 E0.02035
G1 X170.172 Y111.162 E0.62048
G1 X170.080 Y110.536 E0.01985
G1 X156.075 Y96.531 E0.62119
G1 X155.966 Y95.890 E0.02042
G1 X169.987 Y109.910 E0.62190
G1 X169.895 Y109.284 E0.01985
G1 X155.858 Y95.248 E0.62260
G1 X155.749 Y94.606 E0.02042
G1 X169.802 Y108.658 E0.62331
G1 X169.709 Y108.032 E0.01985
G1 X155.641 Y93.964 E0.62402
G1 X155.532 Y93.322 E0.02042
G1 X169.617 Y107.406 E0.62473
G1 X169.524 Y106.780 E0.01985
G1 X155.424 Y92.680 E0.62544
