; generated by PrusaSlicer 2.2.0+ on 2020-06-01 at 18:07:36 UTC

; 

; external perimeters extrusion width = 0.45mm
; perimeters extrusion width = 0.45mm
; infill extrusion width = 0.45mm
; solid infill extrusion width = 0.45mm
; top infill extrusion width = 0.40mm
; support material extrusion width = 0.35mm
; first layer extrusion width = 0.42mm

M73 P0 R83
M73 Q0 S84
M201 X1000 Y1000 Z200 E5000 ; sets maximum accelerations, mm/sec^2
M203 X200 Y200 Z12 E120 ; sets maximum feedrates, mm/sec
M204 P1250 R1250 T1250 ; sets acceleration (P, T) and retract acceleration (R), mm/sec^2
M205 X8.00 Y8.00 Z0.40 E4.50 ; sets the jerk limits, mm/sec
M205 S0 T0 ; sets the minimum extruding and travel feed rate, mm/sec
M107
M862.3 P "MK3" ; printer model check
M862.1 P0.4 ; nozzle diameter check
M115 U3.9.0 ; tell printer latest fw version
G90 ; use absolute coordinates
M83 ; extruder relative mode
M104 S215 ; set extruder temp
M140 S60 ; set bed temp
M190 S60 ; wait for bed temp
M109 S215 ; wait for extruder temp
G28 W ; home all without mesh bed level
G80 ; mesh bed leveling
G1 Y-3.0 F1000.0 ; go outside print area
G92 E0.0
G1 X60.0 E9.0 F1000.0 ; intro line
M73 Q0 S84
M73 P0 R83
G1 X100.0 E12.5 F1000.0 ; intro line
G92 E0.0
M221 S95
G21 ; set units to millimeters
G90 ; use absolute coordinates
M83 ; use relative distances for extrusion
M900 K0.06 ; Filament gcode LA 1.5
M900 K30 ; Filament gcode LA 1.0
;BEFORE_LAYER_CHANGE
G92 E0.0
;0.2


G1 E-0.80000 F2100.00000
G1 Z0.600 F10800.000
;AFTER_LAYER_CHANGE
;0.2
G1 X108.476 Y61.544
G1 Z0.200
G1 E0.80000 F2100.00000
M204 S1000
G1 F1200.000
G1 X108.992 Y60.774 E0.02907
G1 X109.764 Y60.260 E0.02907
G1 X110.674 Y60.080 E0.02907
G1 X139.476 Y60.254 E0.90310
G1 X140.191 Y60.412 E0.02296
G1 X140.828 Y60.782 E0.02308
G1 X141.318 Y61.325 E0.02296
G1 X141.620 Y61.993 E0.02296
G1 X141.706 Y62.621 E0.01989
G1 X141.705 Y108.205 E1.42925
G1 X139.438 Y143.073 E1.09558
G1 X139.217 Y143.919 E0.02743
G1 X136.836 Y148.607 E0.16486
G1 X136.240 Y149.268 E0.02790
G1 X135.439 Y149.664 E0.02802
G1 X131.791 Y149.920 E0.11464
G1 X116.670 Y149.920 E0.47412
G1 X114.627 Y149.681 E0.06450
G1 X113.818 Y149.310 E0.02790
G1 X113.202 Y148.667 E0.02790
G1 X110.643 Y143.542 E0.17964
G1 X108.295 Y108.040 E1.11555
G1 X108.294 Y62.457 E1.42922
G1 X108.464 Y61.603 E0.02731
G1 F8640.000
G1 X108.992 Y60.774 E-0.22696
G1 X109.764 Y60.260 E-0.21410
G1 X110.674 Y60.080 E-0.21410
G1 X111.128 Y60.083 E-0.10485
G1 E-0.04000 F2100.00000
G1 Z0.800 F10800.000
G1 X110.671 Y62.457
G1 Z0.200
G1 E0.80000 F2100.00000
G1 F1200.000
G1 X110.671 Y107.970 E1.42703
G1 X111.425 Y107.970 E0.02365
G1 X111.425 Y62.627 E1.42171
G1 X112.179 Y62.627 E0.02365
G1 X112.179 Y107.970 E1.42171
G1 X112.758 Y107.970 E0.01816
G1 X112.758 Y112.606 E0.14535
G1 X112.933 Y112.606 E0.00549
G1 X112.933 Y62.627 E1.56705
G1 X113.688 Y62.627 E0.02365
G1 X113.688 Y112.606 E1.56705
G1 X114.442 Y112.606 E0.02365
G1 X114.442 Y62.627 E1.56705
G1 X115.196 Y62.627 E0.02365
G1 X115.196 Y117.411 E1.71772
G1 F8640.000
G1 X115.196 Y114.120 E-0.76000
G1 E-0.04000 F2100.00000
G1 Z0.800 F10800.000
G1 X122.929 Y114.414
G1 Z0.200
G1 E0.80000 F2100.00000
G1 F1200.000
G1 X122.929 Y111.109 E0.08438
G1 X122.848 Y110.711 E0.01037
G1 X122.834 Y110.269 E0.01129
G1 X122.728 Y109.810 E0.01204
G1 X122.411 Y109.887 E0.00833
G1 X122.411 Y114.271 E0.11196
G1 X121.893 Y114.271 E0.01322
G1 X121.893 Y109.598 E0.11932
G1 X121.823 Y109.408 E0.00517
G1 X121.727 Y109.034 E0.00986
G1 X121.664 Y108.888 E0.00406
G1 X121.488 Y108.229 E0.01743
G1 X121.422 Y108.082 E0.00410
G1 X121.375 Y107.913 E0.00448
G1 X121.375 Y114.271 E0.16234
G1 X120.858 Y114.271 E0.01322
G1 X120.858 Y106.275 E0.20417
G1 X120.731 Y105.836 E0.01167
G1 X120.662 Y105.690 E0.00414
G1 X120.480 Y105.053 E0.01690
G1 X120.411 Y104.908 E0.00409
G1 X120.340 Y104.653 E0.00677
G1 X120.340 Y107.318 E0.06805
G1 X119.822 Y107.318 E0.01322
G1 X119.822 Y102.969 E0.11104
G1 X119.739 Y102.670 E0.00792
G1 X119.682 Y102.538 E0.00368
G1 X119.390 Y101.371 E0.03073
G1 X119.304 Y100.943 E0.01112
G1 X119.304 Y107.318 E0.16276
G1 X118.786 Y107.318 E0.01322
G1 X118.786 Y98.055 E0.23651
G1 X118.601 Y96.933 E0.02904
G1 X118.268 Y95.209 E0.04485
G1 X118.268 Y107.318 E0.30919
G1 X118.047 Y107.318 E0.00567
G1 X118.047 Y100.364 E0.17755
G1 X117.751 Y100.364 E0.00755
G1 X117.751 Y92.187 E0.20880
G1 X117.674 Y91.547 E0.01645
G1 X117.569 Y90.054 E0.03822
G1 X117.543 Y88.463 E0.04064
G1 X117.598 Y86.402 E0.05264
G1 X117.751 Y83.460 E0.07521
G1 X117.751 Y65.597 E0.45611
G1 X118.268 Y65.597 E0.01322
G1 X118.268 Y67.602 E0.05120
G1 X118.304 Y67.567 E0.00128
G1 X118.786 Y67.567 E0.01232
G1 X118.786 Y65.597 E0.05030
G1 X119.304 Y65.597 E0.01322
G1 X119.304 Y67.567 E0.05030
G1 X119.720 Y67.567 E0.01061
G1 X119.720 Y67.596 E0.00074
G1 X119.748 Y67.567 E0.00104
G1 X119.822 Y67.567 E0.00188
G1 X119.822 Y65.597 E0.05030
G1 X120.340 Y65.597 E0.01322
G1 X120.340 Y67.567 E0.05030
G1 X120.858 Y67.567 E0.01322
G1 X120.858 Y65.597 E0.05030
G1 X121.375 Y65.597 E0.01322
G1 X121.375 Y67.521 E0.04912
G1 X121.893 Y67.521 E0.01322
G1 X121.893 Y65.597 E0.04912
G1 X122.411 Y65.597 E0.01322
G1 X122.411 Y67.664 E0.05277
G1 F8640.000
G1 X122.411 Y65.597 E-0.47720
G1 X121.893 Y65.597 E-0.11956
G1 X121.893 Y66.304 E-0.16324
G1 E-0.04000 F2100.00000
G1 Z0.800 F10800.000
G1 X121.983 Y70.661
G1 Z0.200
G1 E0.80000 F2100.00000
G1 F1200.000
G1 X121.983 Y67.868 E0.08755
G1 X121.229 Y67.868 E0.02365
G1 X121.229 Y70.491 E0.08223
G1 X120.475 Y70.491 E0.02365
G1 X120.475 Y67.745 E0.08611
G1 F8640.000
G1 X120.475 Y70.491 E-0.63413
G1 X121.020 Y70.491 E-0.12587
G1 E-0.04000 F2100.00000
G1 Z0.800 F10800.000
G1 X118.967 Y68.419
G1 Z0.200
G1 E0.80000 F2100.00000
G1 F1200.000
G1 X118.967 Y67.914 E0.01583
G1 X118.448 Y67.914 E0.01626
G1 X118.322 Y68.041 E0.00560
G1 X118.336 Y74.525 E0.20332
G1 X118.300 Y78.463 E0.12348
G1 X118.213 Y81.152 E0.08435
G1 X118.213 Y93.978 E0.40215
G1 F8640.000
G1 X118.213 Y90.687 E-0.76000
G1 E-0.04000 F2100.00000
G1 Z0.800 F10800.000
G1 X131.787 Y94.019
G1 Z0.200
G1 E0.80000 F2100.00000
G1 F1200.000
G1 X131.787 Y81.152 E0.40342
G1 X131.700 Y78.463 E0.08435
G1 X131.665 Y74.937 E0.11058
G1 X131.679 Y68.040 E0.21624
G1 X131.553 Y67.914 E0.00558
G1 X131.033 Y67.914 E0.01630
G1 X131.033 Y68.419 E0.01583
G1 F8640.000
G1 X131.033 Y67.914 E-0.11657
G1 X131.553 Y67.914 E-0.12001
G1 X131.679 Y68.040 E-0.04106
G1 X131.675 Y70.129 E-0.48236
G1 E-0.04000 F2100.00000
G1 Z0.800 F10800.000
G1 X129.525 Y70.661
G1 Z0.200
G1 E0.80000 F2100.00000
G1 F1200.000
G1 X129.525 Y67.914 E0.08611
G1 X129.182 Y67.914 E0.01076
G1 X129.182 Y68.246 E0.01040
G1 X128.815 Y67.868 E0.01651
G1 X128.771 Y67.868 E0.00138
G1 X128.771 Y70.491 E0.08223
G1 X128.017 Y70.491 E0.02365
G1 X128.017 Y67.699 E0.08755
G1 F8640.000
G1 X128.017 Y70.491 E-0.64477
G1 X128.516 Y70.491 E-0.11523
G1 E-0.04000 F2100.00000
G1 Z0.800 F10800.000
G1 X127.589 Y65.454
G1 Z0.200
G1 E0.80000 F2100.00000
G1 F1200.000
G1 X127.589 Y67.521 E0.05277
G1 X128.107 Y67.521 E0.01322
G1 X128.107 Y65.597 E0.04912
G1 X128.625 Y65.597 E0.01322
G1 X128.625 Y67.521 E0.04912
G1 X128.962 Y67.521 E0.00861
G1 X129.007 Y67.567 E0.00164
G1 X129.142 Y67.567 E0.00347
G1 X129.142 Y65.597 E0.05030
G1 X129.660 Y65.597 E0.01322
G1 X129.660 Y67.567 E0.05030
G1 X130.178 Y67.567 E0.01322
G1 X130.178 Y65.597 E0.05030
G1 X130.696 Y65.597 E0.01322
G1 X130.696 Y67.567 E0.05030
G1 X131.214 Y67.567 E0.01322
G1 X131.214 Y65.597 E0.05030
G1 X131.732 Y65.597 E0.01322
G1 X131.732 Y67.602 E0.05118
G1 X132.026 Y67.895 E0.01061
G1 X132.013 Y74.935 E0.17976
G1 X132.047 Y78.456 E0.08990
G1 X132.145 Y81.455 E0.07661
G1 X132.249 Y83.460 E0.05128
G1 X132.249 Y65.597 E0.45611
G1 X132.767 Y65.597 E0.01322
G1 X132.767 Y100.364 E0.88774
G1 X133.285 Y100.364 E0.01322
G1 X133.285 Y65.597 E0.88774
G1 X133.803 Y65.597 E0.01322
G1 X133.803 Y100.507 E0.89139
G1 X134.050 Y100.542 F10800.000
G1 F1200.000
G1 X134.050 Y117.242 E0.52360
G1 X133.296 Y117.242 E0.02365
G1 X133.296 Y100.712 E0.51827
G1 X132.542 Y100.712 E0.02365
G1 X132.542 Y147.373 E1.46303
G1 X133.296 Y147.373 E0.02365
G1 X133.296 Y118.254 E0.91300
M73 Q1 S83
M73 P1 R82
G1 X134.050 Y118.254 E0.02365
G1 X134.050 Y147.373 E0.91300
G1 X134.804 Y147.373 E0.02365
G1 X134.804 Y118.254 E0.91300
G1 X134.924 Y118.254 E0.00375
G1 X134.924 Y120.572 E0.07267
G1 X135.558 Y120.572 E0.01990
G1 X135.558 Y142.737 E0.69498
G1 X136.312 Y142.737 E0.02365
G1 X136.312 Y120.572 E0.69498
G1 X137.067 Y120.572 E0.02365
G1 X137.067 Y142.907 E0.70030
G1 F8640.000
G1 X137.067 Y139.616 E-0.76000
G1 E-0.04000 F2100.00000
G1 Z0.800 F10800.000
G1 X131.787 Y147.543
G1 Z0.200
G1 E0.80000 F2100.00000
G1 F1200.000
G1 X131.787 Y107.665 E1.25033
G1 X131.033 Y107.665 E0.02365
G1 X131.033 Y147.373 E1.24501
G1 X130.279 Y147.373 E0.02365
G1 X130.279 Y107.665 E1.24501
G1 X129.983 Y107.665 E0.00928
G1 X129.983 Y114.619 E0.21802
G1 X129.525 Y114.619 E0.01437
G1 X129.525 Y147.373 E1.02699
G1 X128.771 Y147.373 E0.02365
G1 X128.771 Y114.619 E1.02699
G1 X128.017 Y114.619 E0.02365
G1 X128.017 Y147.373 E1.02699
G1 X127.262 Y147.373 E0.02365
G1 X127.262 Y114.619 E1.02699
G1 X126.548 Y114.619 E0.02239
G1 X126.508 Y115.433 E0.02555
G1 X126.508 Y147.543 E1.00679
G1 X116.704 Y147.543 F10800.000
G1 F1200.000
G1 X116.704 Y118.254 E0.91832
G1 X115.950 Y118.254 E0.02365
G1 X115.950 Y147.373 E0.91300
G1 X115.196 Y147.373 E0.02365
G1 X115.196 Y118.254 E0.91300
G1 X115.076 Y118.254 E0.00375
G1 X115.076 Y120.572 E0.07267
G1 X114.442 Y120.572 E0.01989
G1 X114.442 Y142.737 E0.69498
G1 X113.688 Y142.737 E0.02365
G1 X113.688 Y120.572 E0.69498
G1 X112.933 Y120.572 E0.02365
G1 X112.933 Y142.907 E0.70030
G1 F8640.000
G1 X112.933 Y139.616 E-0.76000
G1 E-0.04000 F2100.00000
G1 Z0.800 F10800.000
G1 X125.754 Y131.753
G1 Z0.200
G1 E0.80000 F2100.00000
G1 F1200.000
G1 X125.754 Y147.373 E0.48976
G1 X125.000 Y147.373 E0.02365
G1 X125.000 Y134.924 E0.39034
G1 X124.398 Y134.924 E0.01887
G1 X124.246 Y134.774 E0.00670
G1 X124.246 Y147.373 E0.39504
G1 X123.492 Y147.373 E0.02365
G1 X123.492 Y115.433 E1.00147
G1 X123.452 Y114.619 E0.02555
G1 X122.738 Y114.619 E0.02239
G1 X122.738 Y147.373 E1.02699
G1 X121.983 Y147.373 E0.02365
G1 X121.983 Y114.619 E1.02699
G1 X121.229 Y114.619 E0.02365
G1 X121.229 Y147.373 E1.02699
G1 X120.475 Y147.373 E0.02365
G1 X120.475 Y114.619 E1.02699
G1 X120.017 Y114.619 E0.01437
G1 X120.017 Y107.665 E0.21802
G1 X119.721 Y107.665 E0.00928
G1 X119.721 Y147.373 E1.24501
G1 X118.967 Y147.373 E0.02365
G1 X118.967 Y107.665 E1.24501
G1 X118.213 Y107.665 E0.02365
G1 X118.213 Y147.373 E1.24501
G1 X117.458 Y147.373 E0.02365
G1 X117.458 Y100.712 E1.46303
G1 X116.704 Y100.712 E0.02365
G1 X116.704 Y117.242 E0.51827
G1 X115.950 Y117.242 E0.02365
G1 X115.950 Y100.712 E0.51827
G1 X115.381 Y100.712 E0.01784
G1 X115.381 Y65.250 E1.11189
G1 X115.950 Y65.250 E0.01784
G1 X115.950 Y62.627 E0.08224
G1 X116.704 Y62.627 E0.02365
G1 X116.704 Y65.250 E0.08223
G1 X117.458 Y65.250 E0.02365
G1 X117.458 Y62.627 E0.08223
G1 X118.213 Y62.627 E0.02365
G1 X118.213 Y65.250 E0.08223
G1 X118.967 Y65.250 E0.02365
G1 X118.967 Y62.627 E0.08223
G1 X119.721 Y62.627 E0.02365
G1 X119.721 Y65.250 E0.08223
G1 X120.475 Y65.250 E0.02365
G1 X120.475 Y62.627 E0.08223
G1 X121.229 Y62.627 E0.02365
G1 X121.229 Y65.250 E0.08223
G1 X121.983 Y65.250 E0.02365
G1 X121.983 Y62.627 E0.08223
G1 X122.738 Y62.627 E0.02365
G1 X122.738 Y65.250 E0.08223
G1 X123.030 Y65.250 E0.00916
G1 X123.030 Y67.491 E0.07028
G1 X123.492 Y67.491 E0.01448
G1 X123.492 Y62.627 E0.15252
G1 X124.246 Y62.627 E0.02365
G1 X124.246 Y67.491 E0.15252
G1 X125.000 Y67.491 E0.02365
G1 X125.000 Y62.627 E0.15252
G1 X125.754 Y62.627 E0.02365
G1 X125.754 Y67.491 E0.15252
G1 X126.508 Y67.491 E0.02365
G1 X126.508 Y62.627 E0.15252
G1 X127.262 Y62.627 E0.02365
G1 X127.262 Y65.250 E0.08224
G1 X128.017 Y65.250 E0.02365
G1 X128.017 Y62.627 E0.08224
G1 X128.771 Y62.627 E0.02365
G1 X128.771 Y65.250 E0.08224
G1 X129.525 Y65.250 E0.02365
G1 X129.525 Y62.627 E0.08224
G1 X130.279 Y62.627 E0.02365
G1 X130.279 Y65.250 E0.08223
G1 X131.033 Y65.250 E0.02365
G1 X131.033 Y62.627 E0.08223
G1 X131.787 Y62.627 E0.02365
G1 X131.787 Y65.250 E0.08223
G1 X132.542 Y65.250 E0.02365
G1 X132.542 Y62.627 E0.08223
G1 X133.296 Y62.627 E0.02365
G1 X133.296 Y65.250 E0.08223
G1 X134.050 Y65.250 E0.02365
G1 X134.050 Y62.627 E0.08223
G1 X134.804 Y62.627 E0.02365
G1 X134.804 Y117.242 E1.71240
M73 Q2 S81
M73 P2 R81
G1 X134.924 Y117.242 E0.00375
G1 X134.924 Y112.606 E0.14535
G1 X135.558 Y112.606 E0.01990
G1 X135.558 Y62.627 E1.56705
G1 X136.312 Y62.627 E0.02365
G1 X136.312 Y112.606 E1.56705
G1 X137.067 Y112.606 E0.02365
G1 X137.067 Y62.627 E1.56705
G1 X137.821 Y62.627 E0.02365
G1 X137.821 Y107.970 E1.42171
G1 X138.575 Y107.970 E0.02365
G1 X138.575 Y62.627 E1.42171
G1 X139.329 Y62.627 E0.02365
G1 X139.329 Y108.140 E1.42703
G1 F8640.000
G1 X139.329 Y104.849 E-0.76000
G1 E-0.04000 F2100.00000
G1 Z0.800 F10800.000
G1 X128.771 Y106.832
G1 Z0.200
G1 E0.80000 F2100.00000
G1 F1200.000
G1 X128.771 Y104.665 E0.06792
G1 X128.017 Y104.665 E0.02365
G1 X128.017 Y108.700 E0.12650
G1 X127.865 Y109.235 E0.01745
G1 X127.402 Y109.032 E0.01587
G1 X127.397 Y109.187 E0.00488
G1 X127.262 Y109.155 E0.00434
G1 X127.262 Y104.496 E0.14610
G1 X129.525 Y104.506 F10800.000
G1 F1200.000
G1 X129.525 Y97.712 E0.21304
G1 X130.279 Y97.712 E0.02365
G1 X130.279 Y101.972 E0.13358
G1 F8640.000
G1 X130.279 Y98.681 E-0.76000
G1 E-0.04000 F2100.00000
G1 Z0.800 F10800.000
G1 X132.249 Y100.507
G1 Z0.200
G1 E0.80000 F2100.00000
G1 F1200.000
G1 X132.249 Y92.199 E0.21214
G1 X132.180 Y92.753 E0.01427
G1 X131.997 Y93.872 E0.02895
G1 X131.732 Y95.232 E0.03538
G1 X131.732 Y107.318 E0.30860
G1 X131.214 Y107.318 E0.01322
G1 X131.214 Y98.117 E0.23493
G1 X130.906 Y99.924 E0.04680
G1 X130.696 Y100.978 E0.02744
G1 X130.696 Y107.318 E0.16188
G1 X130.178 Y107.318 E0.01322
G1 X130.178 Y102.969 E0.11104
G1 X129.740 Y104.464 E0.03979
G1 X129.660 Y104.653 E0.00522
G1 X129.660 Y107.318 E0.06805
G1 X129.636 Y107.318 E0.00063
G1 X129.636 Y114.271 E0.17755
G1 X129.142 Y114.271 E0.01259
G1 X129.142 Y106.275 E0.20417
G1 X129.083 Y106.481 E0.00547
G1 X129.014 Y106.628 E0.00415
G1 X128.828 Y107.279 E0.01730
G1 X128.760 Y107.426 E0.00413
G1 X128.625 Y107.913 E0.01292
G1 X128.625 Y114.271 E0.16234
G1 X128.107 Y114.271 E0.01322
G1 X128.107 Y109.578 E0.11985
G1 X128.054 Y109.698 E0.00336
G1 X127.701 Y109.543 E0.00984
G1 X127.685 Y109.612 E0.00181
G1 X127.589 Y109.589 E0.00252
G1 X127.589 Y114.271 E0.11955
G1 X127.071 Y114.271 E0.01322
G1 X127.071 Y110.038 E0.10809
G1 F8640.000
G1 X127.071 Y113.329 E-0.76000
G1 E-0.04000 F2100.00000
G1 Z0.800 F10800.000
G1 X122.738 Y109.625
G1 Z0.200
G1 E0.80000 F2100.00000
G1 F1200.000
G1 X122.738 Y105.253 E0.13708
G1 X122.702 Y105.100 E0.00491
G1 X122.689 Y104.665 E0.01365
G1 X121.983 Y104.665 E0.02213
G1 X121.983 Y108.737 E0.12766
G1 X121.815 Y108.107 E0.02045
G1 X121.753 Y107.974 E0.00460
G1 X121.566 Y107.300 E0.02194
G1 X121.501 Y107.168 E0.00460
G1 X121.311 Y106.499 E0.02181
G1 X121.229 Y106.310 E0.00645
G1 X121.229 Y104.496 E0.05689
G1 X120.475 Y104.506 F10800.000
G1 F1200.000
G1 X120.475 Y97.712 E0.21304
G1 X119.721 Y97.712 E0.02365
G1 X119.721 Y101.960 E0.13320
G1 F8640.000
G1 X119.721 Y98.669 E-0.76000
G1 E-0.04000 F2100.00000
G1 Z0.800 F10800.000
G1 X117.233 Y100.507
G1 Z0.200
G1 E0.80000 F2100.00000
G1 F1200.000
G1 X117.233 Y65.597 E0.89139
G1 X116.715 Y65.597 E0.01322
G1 X116.715 Y100.364 E0.88774
G1 X116.197 Y100.364 E0.01322
G1 X116.197 Y65.454 E0.89139
G1 F8640.000
G1 X116.197 Y68.746 E-0.76000
G1 E-0.04000 F2100.00000
G1 Z0.800 F10800.000
G1 X123.686 Y68.692
G1 Z0.200
G1 E0.80000 F2100.00000
G1 F1200.000
G1 X126.310 Y68.692 E0.08225
G1 X126.272 Y71.179 E0.07799
G1 X126.291 Y74.529 E0.10505
G1 X126.377 Y77.917 E0.10625
G1 X126.622 Y84.662 E0.21163
G1 X126.668 Y87.913 E0.10193
G1 X126.626 Y90.777 E0.08982
G1 X126.427 Y96.544 E0.18092
G1 X126.307 Y101.208 E0.14631
G1 X126.201 Y101.640 E0.01394
G1 X126.101 Y104.944 E0.10365
G1 X125.944 Y105.501 E0.01812
G1 X125.919 Y106.329 E0.02598
G1 X125.873 Y106.493 E0.00533
G1 X125.848 Y107.324 E0.02608
