; generated by PrusaSlicer 2.2.0+ on 2020-06-08 at 18:04:02 UTC

; 

; external perimeters extrusion width = 0.45mm
; perimeters extrusion width = 0.45mm
; infill extrusion width = 0.45mm
; solid infill extrusion width = 0.45mm
; top infill extrusion width = 0.40mm
; first layer extrusion width = 0.42mm

M73 P0 R188
M73 Q0 S192
M201 X1000 Y1000 Z200 E5000 ; sets maximum accelerations, mm/sec^2
M203 X200 Y200 Z12 E120 ; sets maximum feedrates, mm/sec
M204 P1250 R1250 T1250 ; sets acceleration (P, T) and retract acceleration (R), mm/sec^2
M205 X8.00 Y8.00 Z0.40 E4.50 ; sets the jerk limits, mm/sec
M205 S0 T0 ; sets the minimum extruding and travel feed rate, mm/sec
M107
M862.3 P "MK3" ; printer model check
M862.1 P0.4 ; nozzle diameter check
M115 U3.9.0 ; tell printer latest fw version
G90 ; use absolute coordinates
M83 ; extruder relative mode
M104 S215 ; set extruder temp
M140 S60 ; set bed temp
M190 S60 ; wait for bed temp
M109 S215 ; wait for extruder temp
G28 W ; home all without mesh bed level
G80 ; mesh bed leveling
G1 Y-3.0 F1000.0 ; go outside print area
G92 E0.0
G1 X60.0 E9.0 F1000.0 ; intro line
M73 Q0 S192
M73 P0 R188
G1 X100.0 E12.5 F1000.0 ; intro line
G92 E0.0
M221 S95
G21 ; set units to millimeters
G90 ; use absolute coordinates
M83 ; use relative distances for extrusion
M900 K0.06 ; Filament gcode LA 1.5
M900 K30 ; Filament gcode LA 1.0
;BEFORE_LAYER_CHANGE
G92 E0.0
;0.2


G1 E-0.80000 F2100.00000
G1 Z0.600 F10800.000
;AFTER_LAYER_CHANGE
;0.2
G1 X48.732 Y27.815
G1 Z0.200
G1 E0.80000 F2100.00000
M204 S1000
G1 F1200.000
G1 X49.655 Y27.623 E0.02954
G1 X200.334 Y27.623 E4.72445
G1 X201.222 Y27.797 E0.02837
G1 X201.978 Y28.287 E0.02825
G1 X202.497 Y29.023 E0.02825
G1 X202.705 Y29.904 E0.02837
G1 X203.011 Y70.919 E1.28605
G1 X202.983 Y92.012 E0.66136
G1 X202.770 Y106.315 E0.44850
G1 X202.377 Y120.791 E0.45406
G1 X201.836 Y135.383 E0.45784
G1 X201.189 Y149.985 E0.45828
G1 X199.623 Y180.166 E0.94756
G1 X199.423 Y180.967 E0.02590
G1 X198.958 Y181.655 E0.02602
G1 X198.178 Y182.189 E0.02966
G1 X197.252 Y182.377 E0.02963
G1 X52.749 Y182.377 E4.53078
G1 X51.865 Y182.202 E0.02825
G1 X51.107 Y181.708 E0.02837
G1 X50.617 Y181.029 E0.02626
G1 X50.393 Y180.218 E0.02637
G1 X49.524 Y164.525 E0.49280
G1 X48.164 Y135.380 E0.91483
G1 X47.623 Y120.798 E0.45751
G1 X47.230 Y106.314 E0.45431
G1 X47.017 Y92.013 E0.44842
G1 X46.967 Y77.904 E0.44240
G1 X47.291 Y29.978 E1.50272
G1 X47.468 Y29.098 E0.02813
G1 X47.959 Y28.347 E0.02813
G1 X48.683 Y27.849 E0.02754
G1 F8640.000
G1 X49.655 Y27.623 E-0.23038
G1 X51.948 Y27.623 E-0.52962
G1 E-0.04000 F2100.00000
G1 Z0.800 F10800.000
G1 X50.451 Y30.787
G1 Z0.200
G1 E0.80000 F2100.00000
G1 F1200.000
G1 X199.547 Y30.787 E4.67480
G1 X199.565 Y34.741 E0.12398
G1 X199.803 Y63.992 E0.91717
G1 X199.869 Y77.908 E0.43632
G1 X199.862 Y84.923 E0.21995
G1 X199.819 Y91.983 E0.22139
G1 X199.736 Y99.091 E0.22288
G1 X199.607 Y106.248 E0.22443
G1 X199.432 Y113.452 E0.22595
G1 X199.215 Y120.695 E0.22718
G1 X198.960 Y127.965 E0.22810
G1 X198.674 Y135.253 E0.22870
G1 X198.028 Y149.844 E0.45792
G1 X197.680 Y157.116 E0.22829
G1 X197.037 Y169.683 E0.39453
G1 X196.507 Y179.213 E0.29927
G1 X53.502 Y179.213 E4.48383
G1 X52.963 Y169.683 E0.29928
G1 X52.323 Y157.171 E0.39284
G1 X51.646 Y142.705 E0.45404
G1 X51.335 Y135.460 E0.22739
G1 X51.040 Y127.965 E0.23517
G1 X50.785 Y120.695 E0.22810
G1 X50.568 Y113.452 E0.22718
G1 X50.393 Y106.248 E0.22595
G1 X50.264 Y99.091 E0.22443
M73 Q0 S191
M73 P0 R187
G1 X50.181 Y91.983 E0.22288
G1 X50.138 Y84.923 E0.22139
G1 X50.131 Y77.908 E0.21995
G1 X50.197 Y63.992 E0.43632
G1 X50.398 Y40.435 E0.73865
G1 X50.451 Y30.847 E0.30062
G1 X50.076 Y30.410 F10800.000
G1 F1200.000
G1 X199.922 Y30.410 E4.69833
G1 X199.942 Y34.739 E0.13573
G1 X200.180 Y63.990 E0.91717
G1 X200.246 Y77.907 E0.43638
G1 X200.239 Y84.924 E0.22001
G1 X200.196 Y91.987 E0.22145
G1 X200.113 Y99.097 E0.22295
G1 X199.984 Y106.256 E0.22451
G1 X199.809 Y113.463 E0.22602
G1 X199.592 Y120.707 E0.22724
G1 X199.337 Y127.979 E0.22816
G1 X199.051 Y135.269 E0.22875
G1 X198.405 Y149.861 E0.45797
G1 X198.057 Y157.135 E0.22833
G1 X197.414 Y169.703 E0.39457
G1 X196.864 Y179.590 E0.31048
G1 X53.147 Y179.590 E4.50615
G1 X52.586 Y169.703 E0.31050
G1 X51.946 Y157.189 E0.39288
G1 X51.270 Y142.722 E0.45409
G1 X50.958 Y135.475 E0.22743
G1 X50.663 Y127.979 E0.23522
G1 X50.408 Y120.707 E0.22816
G1 X50.191 Y113.463 E0.22724
G1 X50.016 Y106.256 E0.22602
G1 X49.887 Y99.097 E0.22451
G1 X49.804 Y91.987 E0.22295
G1 X49.761 Y84.924 E0.22145
G1 X49.754 Y77.907 E0.22001
G1 X49.820 Y63.990 E0.43638
G1 X50.020 Y40.432 E0.73866
G1 X50.076 Y30.470 E0.31236
G1 X50.422 Y30.611 F10800.000
G1 F8640.000
G1 X53.367 Y30.469 E-0.76000
G1 E-0.04000 F2100.00000
G1 Z0.800 F10800.000
G1 X199.438 Y31.667
G1 Z0.200
G1 E0.80000 F2100.00000
G1 F1200.000
G1 X198.841 Y31.070 E0.02649
G1 X198.307 Y31.070 E0.01675
G1 X199.270 Y32.032 E0.04272
G1 X199.272 Y32.569 E0.01683
G1 X197.774 Y31.070 E0.06652
G1 X197.240 Y31.070 E0.01675
G1 X199.275 Y33.105 E0.09032
G1 X199.277 Y33.641 E0.01683
G1 X196.706 Y31.070 E0.11411
G1 X196.172 Y31.070 E0.01675
G1 X199.280 Y34.177 E0.13791
G1 X199.282 Y34.713 E0.01683
G1 X195.639 Y31.070 E0.16171
G1 X195.105 Y31.070 E0.01675
G1 X199.286 Y35.251 E0.18559
G1 X199.291 Y35.790 E0.01689
G1 X194.571 Y31.070 E0.20947
G1 X194.037 Y31.070 E0.01675
G1 X199.295 Y36.328 E0.23335
G1 X199.300 Y36.866 E0.01689
G1 X193.504 Y31.070 E0.25724
G1 X192.970 Y31.070 E0.01675
G1 X199.304 Y37.404 E0.28112
G1 X199.308 Y37.942 E0.01689
G1 X192.436 Y31.070 E0.30501
G1 X191.902 Y31.070 E0.01675
G1 X199.313 Y38.480 E0.32889
G1 X199.317 Y39.018 E0.01689
G1 X191.369 Y31.070 E0.35277
G1 X190.835 Y31.070 E0.01675
G1 X199.321 Y39.557 E0.37666
G1 X199.326 Y40.095 E0.01689
G1 X190.301 Y31.070 E0.40054
G1 X189.767 Y31.070 E0.01675
G1 X199.330 Y40.633 E0.42442
G1 X199.335 Y41.171 E0.01689
G1 X189.234 Y31.070 E0.44831
G1 X188.700 Y31.070 E0.01675
G1 X199.339 Y41.709 E0.47219
G1 X199.343 Y42.247 E0.01689
G1 X188.166 Y31.070 E0.49607
G1 X187.632 Y31.070 E0.01675
G1 X199.348 Y42.785 E0.51996
G1 X199.352 Y43.324 E0.01689
G1 X187.098 Y31.070 E0.54384
G1 X186.565 Y31.070 E0.01675
G1 X199.357 Y43.862 E0.56772
G1 X199.361 Y44.400 E0.01689
G1 X186.031 Y31.070 E0.59161
G1 X185.497 Y31.070 E0.01675
G1 X199.365 Y44.938 E0.61549
G1 X199.370 Y45.476 E0.01689
G1 X184.963 Y31.070 E0.63937
G1 X184.430 Y31.070 E0.01675
G1 X199.374 Y46.014 E0.66326
G1 X199.378 Y46.552 E0.01689
G1 X183.896 Y31.070 E0.68714
G1 X183.362 Y31.070 E0.01675
G1 X199.383 Y47.090 E0.71102
G1 X199.387 Y47.629 E0.01689
G1 X182.828 Y31.070 E0.73491
G1 X182.295 Y31.070 E0.01675
G1 X199.392 Y48.167 E0.75879
G1 X199.396 Y48.705 E0.01689
G1 X181.761 Y31.070 E0.78267
G1 X181.227 Y31.070 E0.01675
G1 X199.400 Y49.243 E0.80656
G1 X199.405 Y49.781 E0.01689
G1 X180.693 Y31.070 E0.83044
G1 X180.160 Y31.070 E0.01675
G1 X199.409 Y50.319 E0.85433
M73 Q1 S190
M73 P1 R186
G1 X199.413 Y50.857 E0.01689
G1 X179.626 Y31.070 E0.87821
G1 X179.092 Y31.070 E0.01675
G1 X199.418 Y51.396 E0.90209
G1 X199.422 Y51.934 E0.01689
G1 X178.558 Y31.070 E0.92598
G1 X178.025 Y31.070 E0.01675
G1 X199.427 Y52.472 E0.94986
G1 X199.431 Y53.010 E0.01689
G1 X177.491 Y31.070 E0.97374
G1 X176.957 Y31.070 E0.01675
G1 X199.435 Y53.548 E0.99763
G1 X199.440 Y54.086 E0.01689
G1 X176.423 Y31.070 E1.02151
G1 X175.890 Y31.070 E0.01675
G1 X199.444 Y54.624 E1.04539
G1 X199.448 Y55.162 E0.01689
G1 X175.356 Y31.070 E1.06928
G1 X174.822 Y31.070 E0.01675
G1 X199.453 Y55.701 E1.09316
G1 X199.457 Y56.239 E0.01689
G1 X174.288 Y31.070 E1.11704
G1 X173.755 Y31.070 E0.01675
G1 X199.462 Y56.777 E1.14093
G1 X199.466 Y57.315 E0.01689
G1 X173.221 Y31.070 E1.16481
G1 X172.687 Y31.070 E0.01675
G1 X199.470 Y57.853 E1.18869
G1 X199.475 Y58.391 E0.01689
G1 X172.153 Y31.070 E1.21258
G1 X171.620 Y31.070 E0.01675
G1 X199.479 Y58.929 E1.23646
G1 X199.484 Y59.468 E0.01689
G1 X171.086 Y31.070 E1.26034
G1 X170.552 Y31.070 E0.01675
G1 X199.488 Y60.006 E1.28423
G1 X199.492 Y60.544 E0.01689
G1 X170.018 Y31.070 E1.30811
G1 X169.485 Y31.070 E0.01675
G1 X199.497 Y61.082 E1.33199
G1 X199.501 Y61.620 E0.01689
G1 X168.951 Y31.070 E1.35588
G1 X168.417 Y31.070 E0.01675
G1 X199.505 Y62.158 E1.37976
G1 X199.510 Y62.696 E0.01689
G1 X167.883 Y31.070 E1.40365
G1 X167.350 Y31.070 E0.01675
G1 X199.514 Y63.235 E1.42753
G1 X199.519 Y63.773 E0.01689
G1 X166.816 Y31.070 E1.45141
G1 X166.282 Y31.070 E0.01675
G1 X199.522 Y64.310 E1.47525
G1 X199.524 Y64.846 E0.01683
G1 X165.748 Y31.070 E1.49905
G1 X165.215 Y31.070 E0.01675
G1 X199.527 Y65.382 E1.52285
G1 X199.529 Y65.919 E0.01683
G1 X164.681 Y31.070 E1.54665
G1 X164.147 Y31.070 E0.01675
G1 X199.532 Y66.455 E1.57045
G1 X199.534 Y66.991 E0.01683
G1 X163.613 Y31.070 E1.59425
M73 Q1 S189
M73 P1 R185
G1 X163.080 Y31.070 E0.01675
G1 X199.537 Y67.527 E1.61805
G1 X199.540 Y68.064 E0.01683
G1 X162.546 Y31.070 E1.64185
G1 X162.012 Y31.070 E0.01675
G1 X199.542 Y68.600 E1.66566
G1 X199.545 Y69.136 E0.01683
G1 X161.478 Y31.070 E1.68946
G1 X160.944 Y31.070 E0.01675
G1 X199.547 Y69.672 E1.71326
G1 X199.550 Y70.209 E0.01683
G1 X160.411 Y31.070 E1.73706
G1 X159.877 Y31.070 E0.01675
G1 X199.552 Y70.745 E1.76086
G1 X199.555 Y71.281 E0.01683
G1 X159.343 Y31.070 E1.78466
G1 X158.809 Y31.070 E0.01675
G1 X199.557 Y71.818 E1.80846
G1 X199.560 Y72.354 E0.01683
G1 X158.276 Y31.070 E1.83226
G1 X157.742 Y31.070 E0.01675
G1 X199.562 Y72.890 E1.85606
G1 X199.565 Y73.426 E0.01683
G1 X157.208 Y31.070 E1.87986
G1 X156.674 Y31.070 E0.01675
G1 X199.567 Y73.963 E1.90367
G1 X199.570 Y74.499 E0.01683
G1 X156.141 Y31.070 E1.92747
G1 X155.607 Y31.070 E0.01675
G1 X199.572 Y75.035 E1.95127
G1 X199.575 Y75.572 E0.01683
G1 X155.073 Y31.070 E1.97507
G1 X154.539 Y31.070 E0.01675
G1 X199.577 Y76.108 E1.99887
G1 X199.580 Y76.644 E0.01683
G1 X154.006 Y31.070 E2.02267
G1 X153.472 Y31.070 E0.01675
G1 X199.582 Y77.180 E2.04647
G1 X199.585 Y77.717 E0.01683
G1 X152.938 Y31.070 E2.07027
G1 X152.404 Y31.070 E0.01675
G1 X199.585 Y78.251 E2.09399
M73 Q2 S188
M73 P2 R184
G1 X199.585 Y78.784 E0.01673
G1 X151.871 Y31.070 E2.11765
G1 X151.337 Y31.070 E0.01675
G1 X199.584 Y79.317 E2.14132
G1 X199.584 Y79.851 E0.01673
G1 X150.803 Y31.070 E2.16499
G1 X150.269 Y31.070 E0.01675
G1 X199.583 Y80.384 E2.18865
G1 X199.583 Y80.917 E0.01673
G1 X149.736 Y31.070 E2.21232
G1 X149.202 Y31.070 E0.01675
G1 X199.582 Y81.450 E2.23599
G1 X199.582 Y81.984 E0.01673
G1 X148.668 Y31.070 E2.25965
G1 X148.134 Y31.070 E0.01675
G1 X199.581 Y82.517 E2.28332
G1 X199.581 Y83.050 E0.01673
G1 X147.601 Y31.070 E2.30699
G1 X147.067 Y31.070 E0.01675
G1 X199.580 Y83.583 E2.33065
G1 X199.580 Y84.117 E0.01673
G1 X146.533 Y31.070 E2.35432
G1 X145.999 Y31.070 E0.01675
G1 X199.579 Y84.650 E2.37799
G1 X199.578 Y85.182 E0.01669
G1 X145.466 Y31.070 E2.40160
G1 X144.932 Y31.070 E0.01675
G1 X199.574 Y85.712 E2.42514
G1 X199.571 Y86.243 E0.01665
G1 X144.398 Y31.070 E2.44869
G1 X143.864 Y31.070 E0.01675
G1 X199.568 Y86.774 E2.47224
G1 X199.565 Y87.304 E0.01665
G1 X143.331 Y31.070 E2.49578
M73 Q2 S187
M73 P2 R182
G1 X142.797 Y31.070 E0.01675
G1 X199.562 Y87.835 E2.51933
G1 X199.558 Y88.365 E0.01665
G1 X142.263 Y31.070 E2.54288
G1 X141.729 Y31.070 E0.01675
G1 X199.555 Y88.896 E2.56642
G1 X199.552 Y89.426 E0.01665
G1 X141.196 Y31.070 E2.58997
G1 X140.662 Y31.070 E0.01675
G1 X199.549 Y89.957 E2.61351
G1 X199.545 Y90.487 E0.01665
G1 X140.128 Y31.070 E2.63706
G1 X139.594 Y31.070 E0.01675
G1 X199.542 Y91.018 E2.66061
G1 X199.539 Y91.548 E0.01665
G1 X139.061 Y31.070 E2.68415
G1 X138.527 Y31.070 E0.01675
G1 X199.535 Y92.078 E2.70768
G1 X199.529 Y92.606 E0.01656
G1 X137.993 Y31.070 E2.73109
G1 X137.459 Y31.070 E0.01675
G1 X199.523 Y93.134 E2.75451
G1 X199.517 Y93.661 E0.01656
G1 X136.925 Y31.070 E2.77792
G1 X136.392 Y31.070 E0.01675
G1 X199.511 Y94.189 E2.80133
G1 X199.504 Y94.716 E0.01656
G1 X135.858 Y31.070 E2.82475
M73 Q3 S186
M73 P3 R181
G1 X135.324 Y31.070 E0.01675
G1 X199.498 Y95.244 E2.84816
G1 X199.492 Y95.771 E0.01656
G1 X134.790 Y31.070 E2.87158
G1 X134.257 Y31.070 E0.01675
G1 X199.486 Y96.299 E2.89499
G1 X199.480 Y96.826 E0.01656
G1 X133.723 Y31.070 E2.91840
G1 X133.189 Y31.070 E0.01675
G1 X199.473 Y97.354 E2.94182
G1 X199.467 Y97.882 E0.01656
G1 X132.655 Y31.070 E2.96523
G1 X132.122 Y31.070 E0.01675
G1 X199.461 Y98.409 E2.98865
G1 X199.455 Y98.937 E0.01656
G1 X131.588 Y31.070 E3.01206
G1 X131.054 Y31.070 E0.01675
G1 X199.446 Y99.462 E3.03537
G1 X199.437 Y99.986 E0.01646
G1 X130.520 Y31.070 E3.05864
G1 X129.987 Y31.070 E0.01675
G1 X199.427 Y100.511 E3.08191
G1 X199.418 Y101.035 E0.01646
G1 X129.453 Y31.070 E3.10518
G1 X128.919 Y31.070 E0.01675
G1 X199.409 Y101.559 E3.12845
M73 Q3 S185
M73 P3 R180
G1 X199.399 Y102.084 E0.01646
G1 X128.385 Y31.070 E3.15172
G1 X127.852 Y31.070 E0.01675
G1 X199.390 Y102.608 E3.17500
G1 X199.380 Y103.132 E0.01646
G1 X127.318 Y31.070 E3.19827
G1 X126.784 Y31.070 E0.01675
G1 X199.371 Y103.657 E3.22154
G1 X199.361 Y104.181 E0.01646
G1 X126.250 Y31.070 E3.24481
G1 X125.717 Y31.070 E0.01675
G1 X199.352 Y104.705 E3.26808
G1 X199.342 Y105.229 E0.01646
G1 X125.183 Y31.070 E3.29135
G1 X124.649 Y31.070 E0.01675
G1 X199.333 Y105.754 E3.31462
G1 X199.323 Y106.278 E0.01645
G1 X124.115 Y31.070 E3.33788
G1 X123.582 Y31.070 E0.01675
G1 X199.311 Y106.799 E3.36100
G1 X199.298 Y107.320 E0.01636
G1 X123.048 Y31.070 E3.38413
G1 X122.514 Y31.070 E0.01675
G1 X199.285 Y107.841 E3.40726
M73 Q4 S184
M73 P4 R179
G1 X199.273 Y108.362 E0.01636
G1 X121.980 Y31.070 E3.43038
G1 X121.447 Y31.070 E0.01675
G1 X199.260 Y108.883 E3.45351
G1 X199.247 Y109.404 E0.01636
G1 X120.913 Y31.070 E3.47664
G1 X120.379 Y31.070 E0.01675
G1 X199.235 Y109.925 E3.49976
G1 X199.222 Y110.447 E0.01636
G1 X119.845 Y31.070 E3.52289
G1 X119.312 Y31.070 E0.01675
G1 X199.209 Y110.968 E3.54602
G1 X199.197 Y111.489 E0.01636
G1 X118.778 Y31.070 E3.56914
G1 X118.244 Y31.070 E0.01675
G1 X199.184 Y112.010 E3.59227
G1 X199.171 Y112.531 E0.01636
G1 X117.710 Y31.070 E3.61540
G1 X117.177 Y31.070 E0.01675
G1 X199.159 Y113.052 E3.63852
G1 X199.145 Y113.572 E0.01634
G1 X116.643 Y31.070 E3.66162
M73 Q4 S183
M73 P4 R178
G1 X116.109 Y31.070 E0.01675
G1 X199.130 Y114.091 E3.68462
G1 X199.114 Y114.609 E0.01627
G1 X115.575 Y31.070 E3.70762
G1 X115.042 Y31.070 E0.01675
G1 X199.099 Y115.127 E3.73062
G1 X199.083 Y115.645 E0.01627
G1 X114.508 Y31.070 E3.75362
G1 X113.974 Y31.070 E0.01675
G1 X199.068 Y116.163 E3.77662
G1 X199.052 Y116.682 E0.01627
G1 X113.440 Y31.070 E3.79962
G1 X112.907 Y31.070 E0.01675
G1 X199.037 Y117.200 E3.82262
G1 X199.021 Y117.718 E0.01627
G1 X112.373 Y31.070 E3.84562
G1 X111.839 Y31.070 E0.01675
G1 X199.005 Y118.236 E3.86861
G1 X198.990 Y118.755 E0.01627
G1 X111.305 Y31.070 E3.89161
M73 Q5 S182
M73 P5 R177
G1 X110.771 Y31.070 E0.01675
G1 X198.974 Y119.273 E3.91461
G1 X198.959 Y119.791 E0.01627
G1 X110.238 Y31.070 E3.93761
G1 X109.704 Y31.070 E0.01675
G1 X198.943 Y120.309 E3.96061
G1 X198.927 Y120.827 E0.01625
G1 X109.170 Y31.070 E3.98358
G1 X108.636 Y31.070 E0.01675
G1 X198.909 Y121.342 E4.00647
G1 X198.891 Y121.858 E0.01619
G1 X108.103 Y31.070 E4.02936
G1 X107.569 Y31.070 E0.01675
G1 X198.873 Y122.374 E4.05225
G1 X198.855 Y122.890 E0.01619
G1 X107.035 Y31.070 E4.07514
G1 X106.501 Y31.070 E0.01675
G1 X198.837 Y123.405 E4.09803
G1 X198.819 Y123.921 E0.01619
G1 X105.968 Y31.070 E4.12092
M73 Q5 S181
M73 P6 R176
G1 X105.434 Y31.070 E0.01675
G1 X198.801 Y124.437 E4.14381
G1 X198.783 Y124.953 E0.01619
G1 X104.900 Y31.070 E4.16669
G1 X104.366 Y31.070 E0.01675
G1 X198.765 Y125.468 E4.18958
G1 X198.747 Y125.984 E0.01619
G1 X103.833 Y31.070 E4.21247
G1 X103.299 Y31.070 E0.01675
G1 X198.729 Y126.500 E4.23536
G1 X198.711 Y127.015 E0.01619
G1 X102.765 Y31.070 E4.25825
G1 X102.231 Y31.070 E0.01675
G1 X198.693 Y127.531 E4.28114
G1 X198.674 Y128.047 E0.01618
G1 X101.698 Y31.070 E4.30401
G1 X101.164 Y31.070 E0.01675
G1 X198.654 Y128.560 E4.32680
M73 Q6 S180
M73 P6 R175
G1 X198.634 Y129.074 E0.01613
G1 X100.630 Y31.070 E4.34960
G1 X100.096 Y31.070 E0.01675
G1 X198.614 Y129.587 E4.37239
G1 X198.594 Y130.101 E0.01613
G1 X99.563 Y31.070 E4.39519
G1 X99.029 Y31.070 E0.01675
G1 X198.573 Y130.614 E4.41798
