; generated by PrusaSlicer 2.2.0+ on 2020-06-08 at 14:03:42 UTC

; 

; external perimeters extrusion width = 0.45mm
; perimeters extrusion width = 0.45mm
; infill extrusion width = 0.45mm
; solid infill extrusion width = 0.45mm
; top infill extrusion width = 0.40mm
; first layer extrusion width = 0.42mm

M73 P0 R159
M73 Q0 S162
M201 X1000 Y1000 Z200 E5000 ; sets maximum accelerations, mm/sec^2
M203 X200 Y200 Z12 E120 ; sets maximum feedrates, mm/sec
M204 P1250 R1250 T1250 ; sets acceleration (P, T) and retract acceleration (R), mm/sec^2
M205 X8.00 Y8.00 Z0.40 E4.50 ; sets the jerk limits, mm/sec
M205 S0 T0 ; sets the minimum extruding and travel feed rate, mm/sec
M107
M862.3 P "MK3" ; printer model check
M862.1 P0.4 ; nozzle diameter check
M115 U3.9.0 ; tell printer latest fw version
G90 ; use absolute coordinates
M83 ; extruder relative mode
M104 S215 ; set extruder temp
M140 S60 ; set bed temp
M190 S60 ; wait for bed temp
M109 S215 ; wait for extruder temp
G28 W ; home all without mesh bed level
G80 ; mesh bed leveling
G1 Y-3.0 F1000.0 ; go outside print area
G92 E0.0
G1 X60.0 E9.0 F1000.0 ; intro line
M73 Q0 S162
M73 P0 R159
G1 X100.0 E12.5 F1000.0 ; intro line
G92 E0.0
M221 S95
G21 ; set units to millimeters
G90 ; use absolute coordinates
M83 ; use relative distances for extrusion
M900 K0.06 ; Filament gcode LA 1.5
M900 K30 ; Filament gcode LA 1.0
;BEFORE_LAYER_CHANGE
G92 E0.0
;0.2


G1 E-0.80000 F2100.00000
G1 Z0.600 F10800.000
;AFTER_LAYER_CHANGE
;0.2
G1 X50.529 Y6.696
G1 Z0.200
G1 E0.80000 F2100.00000
M204 S1000
G1 F1200.000
G1 X50.872 Y6.070 E0.02237
G1 X51.389 Y5.573 E0.02249
G1 X52.031 Y5.253 E0.02249
G1 X52.735 Y5.138 E0.02237
G1 X197.255 Y5.138 E4.53134
G1 X198.179 Y5.326 E0.02954
G1 X198.956 Y5.858 E0.02954
G1 X199.464 Y6.647 E0.02942
G1 X199.628 Y7.575 E0.02954
G1 X198.837 Y20.179 E0.39598
G1 X198.299 Y27.250 E0.22234
G1 X197.341 Y37.502 E0.32285
G1 X196.205 Y46.829 E0.29459
G1 X195.351 Y52.538 E0.18099
G1 X194.318 Y58.441 E0.18791
G1 X193.109 Y64.375 E0.18987
G1 X191.767 Y70.106 E0.18456
G1 X189.286 Y79.143 E0.29383
G1 X187.363 Y85.191 E0.19899
G1 X185.320 Y90.999 E0.19304
G1 X181.701 Y100.199 E0.30999
G1 X177.768 Y109.115 E0.30553
G1 X173.300 Y118.348 E0.32161
G1 X170.344 Y124.083 E0.20231
G1 X167.095 Y130.138 E0.21544
G1 X127.059 Y203.540 E2.62155
G1 X126.528 Y204.173 E0.02590
G1 X125.812 Y204.586 E0.02590
G1 X124.995 Y204.729 E0.02602
G1 X124.182 Y204.583 E0.02590
G1 X123.453 Y204.156 E0.02649
G1 X122.919 Y203.501 E0.02649
G1 X79.654 Y124.079 E2.83574
G1 X75.166 Y115.264 E0.31016
G1 X70.982 Y106.375 E0.30804
G1 X68.161 Y99.865 E0.22246
G1 X64.683 Y91.008 E0.29836
G1 X61.644 Y82.152 E0.29355
G1 X60.627 Y78.847 E0.10842
G1 X59.002 Y73.093 E0.18746
G1 X56.841 Y64.144 E0.28866
G1 X55.682 Y58.440 E0.18252
G1 X54.681 Y52.733 E0.18165
G1 X53.404 Y43.888 E0.28020
G1 X52.294 Y33.909 E0.31482
G1 X51.673 Y26.907 E0.22040
G1 X50.704 Y13.211 E0.43051
G1 X50.384 Y7.577 E0.17691
G1 X50.519 Y6.755 E0.02614
G1 F8640.000
G1 X50.872 Y6.070 E-0.17785
G1 X51.389 Y5.573 E-0.16559
G1 X52.031 Y5.253 E-0.16559
G1 X52.735 Y5.138 E-0.16472
G1 X53.108 Y5.138 E-0.08624
G1 E-0.04000 F2100.00000
G1 Z0.800 F10800.000
G1 X53.594 Y8.302
G1 Z0.200
G1 E0.80000 F2100.00000
G1 F1200.000
G1 X196.417 Y8.302 E4.47812
G1 X196.138 Y13.009 E0.14784
G1 X195.680 Y19.964 E0.21854
G1 X195.156 Y26.874 E0.21728
G1 X194.543 Y33.745 E0.21628
G1 X194.195 Y37.166 E0.10783
G1 X193.812 Y40.584 E0.10782
G1 X193.457 Y43.488 E0.09173
G1 X193.071 Y46.393 E0.09190
G1 X192.678 Y49.129 E0.08667
G1 X192.228 Y52.032 E0.09210
G1 X191.739 Y54.938 E0.09242
G1 X191.209 Y57.851 E0.09282
G1 X190.677 Y60.565 E0.08671
G1 X190.018 Y63.697 E0.10038
G1 X189.404 Y66.410 E0.08719
G1 X188.696 Y69.346 E0.09470
G1 X187.937 Y72.292 E0.09537
G1 X187.126 Y75.248 E0.09611
G1 X186.261 Y78.215 E0.09692
G1 X185.340 Y81.194 E0.09777
G1 X184.363 Y84.186 E0.09867
G1 X183.430 Y86.903 E0.09008
G1 X182.350 Y89.908 E0.10011
G1 X181.215 Y92.923 E0.10101
G1 X180.025 Y95.948 E0.10192
G1 X178.781 Y98.982 E0.10282
G1 X177.483 Y102.024 E0.10370
G1 X176.286 Y104.734 E0.09290
G1 X174.900 Y107.779 E0.10488
G1 X173.297 Y111.179 E0.11787
G1 X171.993 Y113.873 E0.09383
G1 X170.478 Y116.918 E0.10666
G1 X168.926 Y119.959 E0.10704
G1 X167.343 Y122.992 E0.10727
G1 X164.310 Y128.636 E0.20089
G1 X161.226 Y134.193 E0.19929
G1 X158.716 Y138.611 E0.15930
G1 X156.429 Y142.567 E0.14327
G1 X151.891 Y150.280 E0.28060
G1 X143.667 Y164.051 E0.50291
G1 X138.869 Y172.173 E0.29579
G1 X136.541 Y176.201 E0.14586
G1 X134.959 Y178.993 E0.10062
G1 X132.379 Y183.683 E0.16782
G1 X130.460 Y187.331 E0.12926
G1 X129.461 Y189.311 E0.06952
G1 X127.975 Y192.399 E0.10746
G1 X127.244 Y194.007 E0.05538
G1 X126.642 Y195.396 E0.04747
G1 X125.840 Y197.361 E0.06654
G1 X125.507 Y198.234 E0.02929
G1 X125.061 Y199.496 E0.04197
G1 X125.001 Y199.718 E0.00720
G1 X124.938 Y199.493 E0.00733
G1 X124.493 Y198.234 E0.04186
G1 X124.160 Y197.361 E0.02929
G1 X123.358 Y195.396 E0.06656
G1 X122.756 Y194.008 E0.04744
G1 X122.098 Y192.557 E0.04994
G1 X121.230 Y190.722 E0.06366
G1 X119.540 Y187.333 E0.11874
G1 X117.621 Y183.683 E0.12929
G1 X115.041 Y178.993 E0.16783
G1 X113.459 Y176.201 E0.10062
G1 X111.131 Y172.173 E0.14585
G1 X107.384 Y165.818 E0.23135
G1 X98.109 Y150.280 E0.56735
G1 X93.571 Y142.567 E0.28061
G1 X91.284 Y138.611 E0.14327
G1 X88.774 Y134.193 E0.15930
G1 X85.689 Y128.636 E0.19930
G1 X82.657 Y122.992 E0.20088
G1 X81.074 Y119.959 E0.10726
G1 X79.338 Y116.549 E0.11998
G1 X78.007 Y113.873 E0.09372
G1 X76.703 Y111.179 E0.09383
G1 X75.100 Y107.779 E0.11787
G1 X73.714 Y104.734 E0.10488
G1 X72.517 Y102.024 E0.09290
G1 X71.219 Y98.982 E0.10370
G1 X69.975 Y95.948 E0.10282
G1 X68.785 Y92.923 E0.10192
G1 X67.650 Y89.908 E0.10101
G1 X66.570 Y86.903 E0.10011
G1 X65.637 Y84.186 E0.09008
G1 X64.660 Y81.195 E0.09866
G1 X63.664 Y77.957 E0.10621
G1 X62.874 Y75.248 E0.08849
G1 X62.063 Y72.292 E0.09612
G1 X61.304 Y69.346 E0.09537
G1 X60.596 Y66.410 E0.09470
G1 X59.982 Y63.697 E0.08719
G1 X59.323 Y60.565 E0.10038
G1 X58.791 Y57.851 E0.08671
G1 X58.261 Y54.938 E0.09282
G1 X57.772 Y52.032 E0.09242
G1 X57.322 Y49.129 E0.09210
G1 X56.929 Y46.393 E0.08667
G1 X56.543 Y43.488 E0.09190
G1 X56.188 Y40.584 E0.09173
G1 X55.805 Y37.166 E0.10782
G1 X55.457 Y33.745 E0.10783
G1 X54.844 Y26.874 E0.21628
G1 X54.320 Y19.964 E0.21728
M73 Q0 S161
G1 X53.862 Y13.010 E0.21852
M73 P0 R158
G1 X53.597 Y8.362 E0.14596
G1 X53.194 Y7.925 F10800.000
G1 F1200.000
G1 X196.817 Y7.925 E4.50317
G1 X196.515 Y13.032 E0.16043
G1 X196.056 Y19.990 E0.21864
G1 X195.531 Y26.905 E0.21742
G1 X194.918 Y33.780 E0.21643
G1 X194.570 Y37.206 E0.10797
G1 X194.187 Y40.627 E0.10794
G1 X193.831 Y43.535 E0.09185
G1 X193.445 Y46.445 E0.09202
G1 X193.051 Y49.185 E0.08680
G1 X192.600 Y52.092 E0.09224
G1 X192.110 Y55.003 E0.09257
G1 X191.580 Y57.921 E0.09298
G1 X191.047 Y60.640 E0.08687
G1 X190.386 Y63.778 E0.10055
G1 X189.772 Y66.496 E0.08737
G1 X189.062 Y69.437 E0.09488
G1 X188.301 Y72.388 E0.09556
G1 X187.489 Y75.350 E0.09630
G1 X186.622 Y78.324 E0.09711
G1 X185.699 Y81.309 E0.09796
G1 X184.720 Y84.306 E0.09885
G1 X183.786 Y87.028 E0.09025
G1 X182.704 Y90.038 E0.10029
G1 X181.567 Y93.058 E0.10119
G1 X180.375 Y96.088 E0.10209
G1 X179.129 Y99.127 E0.10298
G1 X177.829 Y102.174 E0.10386
G1 X176.631 Y104.889 E0.09304
G1 X175.242 Y107.937 E0.10503
G1 X173.637 Y111.342 E0.11801
G1 X172.331 Y114.039 E0.09395
G1 X170.814 Y117.088 E0.10678
G1 X169.261 Y120.132 E0.10716
G1 X167.676 Y123.168 E0.10739
G1 X164.641 Y128.817 E0.20104
G1 X161.554 Y134.378 E0.19943
G1 X159.043 Y138.798 E0.15940
G1 X156.755 Y142.757 E0.14336
G1 X152.215 Y150.472 E0.28068
G1 X143.991 Y164.244 E0.50292
G1 X139.195 Y172.363 E0.29570
G1 X136.868 Y176.388 E0.14575
G1 X135.288 Y179.177 E0.10050
G1 X132.711 Y183.861 E0.16764
G1 X130.796 Y187.504 E0.12905
G1 X129.799 Y189.478 E0.06931
G1 X128.317 Y192.559 E0.10722
G1 X127.589 Y194.160 E0.05515
G1 X126.989 Y195.542 E0.04724
G1 X126.191 Y197.500 E0.06628
G1 X125.861 Y198.364 E0.02901
G1 X125.421 Y199.608 E0.04137
G1 X125.270 Y200.168 E0.01820
G1 X125.224 Y200.533 E0.01154
G1 X125.208 Y200.868 E0.01050
G1 X125.000 Y201.582 E0.02334
G1 X124.791 Y200.865 E0.02342
G1 X124.755 Y200.396 E0.01476
G1 X124.699 Y200.034 E0.01146
G1 X124.578 Y199.607 E0.01393
G1 X124.139 Y198.364 E0.04133
G1 X123.809 Y197.500 E0.02901
G1 X123.011 Y195.542 E0.06629
G1 X122.411 Y194.161 E0.04721
G1 X121.756 Y192.716 E0.04974
G1 X120.891 Y190.887 E0.06344
G1 X119.205 Y187.505 E0.11849
G1 X117.289 Y183.862 E0.12905
G1 X114.712 Y179.177 E0.16765
G1 X113.132 Y176.388 E0.10050
G1 X110.805 Y172.364 E0.14575
G1 X107.059 Y166.010 E0.23126
G1 X97.785 Y150.472 E0.56736
G1 X93.245 Y142.756 E0.28069
G1 X90.957 Y138.798 E0.14336
G1 X88.446 Y134.378 E0.15940
G1 X85.358 Y128.817 E0.19944
G1 X82.324 Y123.168 E0.20103
G1 X80.739 Y120.132 E0.10739
G1 X79.002 Y116.719 E0.12009
G1 X77.669 Y114.039 E0.09384
G1 X76.363 Y111.342 E0.09396
G1 X74.758 Y107.937 E0.11801
G1 X73.369 Y104.889 E0.10503
G1 X72.171 Y102.174 E0.09304
G1 X70.871 Y99.127 E0.10386
G1 X69.625 Y96.088 E0.10298
G1 X68.433 Y93.058 E0.10209
G1 X67.296 Y90.038 E0.10119
G1 X66.214 Y87.028 E0.10029
G1 X65.280 Y84.306 E0.09025
G1 X64.301 Y81.309 E0.09885
G1 X63.303 Y78.065 E0.10640
G1 X62.511 Y75.350 E0.08867
G1 X61.699 Y72.388 E0.09630
G1 X60.938 Y69.437 E0.09556
G1 X60.228 Y66.496 E0.09488
G1 X59.614 Y63.778 E0.08737
G1 X58.953 Y60.640 E0.10055
G1 X58.420 Y57.921 E0.08687
G1 X57.890 Y55.003 E0.09298
G1 X57.400 Y52.092 E0.09257
G1 X56.949 Y49.185 E0.09224
G1 X56.555 Y46.445 E0.08680
G1 X56.169 Y43.535 E0.09202
G1 X55.813 Y40.627 E0.09185
G1 X55.430 Y37.206 E0.10794
G1 X55.082 Y33.780 E0.10797
G1 X54.469 Y26.905 E0.21643
G1 X53.944 Y19.990 E0.21742
G1 X53.485 Y13.033 E0.21863
G1 X53.198 Y7.985 E0.15853
G1 X53.545 Y8.118 F10800.000
G1 F8640.000
G1 X56.489 Y7.983 E-0.76000
G1 E-0.04000 F2100.00000
G1 Z0.800 F10800.000
G1 X196.254 Y9.135
G1 Z0.200
G1 E0.80000 F2100.00000
G1 F1200.000
G1 X195.704 Y8.585 E0.02441
G1 X195.170 Y8.585 E0.01676
G1 X196.064 Y9.478 E0.03967
G1 X196.034 Y9.982 E0.01585
G1 X194.636 Y8.585 E0.06205
G1 X194.102 Y8.585 E0.01676
G1 X196.004 Y10.487 E0.08443
G1 X195.974 Y10.991 E0.01585
G1 X193.568 Y8.585 E0.10682
G1 X193.035 Y8.585 E0.01676
G1 X195.945 Y11.495 E0.12920
G1 X195.915 Y11.999 E0.01585
G1 X192.501 Y8.585 E0.15158
G1 X191.967 Y8.585 E0.01676
G1 X195.885 Y12.503 E0.17396
G1 X195.855 Y13.007 E0.01585
G1 X191.433 Y8.585 E0.19634
G1 X190.899 Y8.585 E0.01676
G1 X195.822 Y13.508 E0.21858
G1 X195.789 Y14.009 E0.01576
G1 X190.365 Y8.585 E0.24082
G1 X189.831 Y8.585 E0.01676
G1 X195.756 Y14.510 E0.26306
G1 X195.723 Y15.011 E0.01576
G1 X189.297 Y8.585 E0.28529
G1 X188.763 Y8.585 E0.01676
G1 X195.690 Y15.512 E0.30753
G1 X195.657 Y16.013 E0.01576
G1 X188.229 Y8.585 E0.32977
G1 X187.695 Y8.585 E0.01676
G1 X195.624 Y16.513 E0.35201
G1 X195.591 Y17.014 E0.01576
G1 X187.161 Y8.585 E0.37425
G1 X186.627 Y8.585 E0.01676
G1 X195.558 Y17.515 E0.39649
G1 X195.525 Y18.016 E0.01576
G1 X186.093 Y8.585 E0.41873
G1 X185.560 Y8.585 E0.01676
G1 X195.492 Y18.517 E0.44097
G1 X195.459 Y19.018 E0.01576
G1 X185.026 Y8.585 E0.46320
G1 X184.492 Y8.585 E0.01676
G1 X195.426 Y19.519 E0.48544
G1 X195.392 Y20.019 E0.01574
G1 X183.958 Y8.585 E0.50765
G1 X183.424 Y8.585 E0.01676
G1 X195.355 Y20.515 E0.52968
G1 X195.317 Y21.012 E0.01562
G1 X182.890 Y8.585 E0.55171
G1 X182.356 Y8.585 E0.01676
G1 X195.279 Y21.508 E0.57375
G1 X195.242 Y22.004 E0.01562
G1 X181.822 Y8.585 E0.59578
G1 X181.288 Y8.585 E0.01676
G1 X195.204 Y22.500 E0.61781
G1 X195.166 Y22.997 E0.01562
G1 X180.754 Y8.585 E0.63984
G1 X180.220 Y8.585 E0.01676
G1 X195.129 Y23.493 E0.66188
G1 X195.091 Y23.989 E0.01562
G1 X179.686 Y8.585 E0.68391
G1 X179.152 Y8.585 E0.01676
G1 X195.053 Y24.486 E0.70594
G1 X195.016 Y24.982 E0.01562
G1 X178.618 Y8.585 E0.72797
G1 X178.085 Y8.585 E0.01676
G1 X194.978 Y25.478 E0.75000
G1 X194.940 Y25.974 E0.01562
G1 X177.551 Y8.585 E0.77204
G1 X177.017 Y8.585 E0.01676
G1 X194.903 Y26.471 E0.79407
G1 X194.863 Y26.965 E0.01558
G1 X176.483 Y8.585 E0.81604
G1 X175.949 Y8.585 E0.01676
G1 X194.820 Y27.456 E0.83780
G1 X194.776 Y27.946 E0.01545
G1 X175.415 Y8.585 E0.85957
G1 X174.881 Y8.585 E0.01676
G1 X194.732 Y28.436 E0.88133
M73 Q1 S160
G1 X194.689 Y28.926 E0.01545
G1 X174.347 Y8.585 E0.90309
M73 P1 R157
G1 X173.813 Y8.585 E0.01676
G1 X194.645 Y29.417 E0.92486
G1 X194.601 Y29.907 E0.01545
G1 X173.279 Y8.585 E0.94662
G1 X172.745 Y8.585 E0.01676
G1 X194.557 Y30.397 E0.96839
G1 X194.514 Y30.887 E0.01545
G1 X172.211 Y8.585 E0.99015
G1 X171.677 Y8.585 E0.01676
G1 X194.470 Y31.377 E1.01191
G1 X194.426 Y31.868 E0.01545
G1 X171.143 Y8.585 E1.03368
G1 X170.609 Y8.585 E0.01676
G1 X194.383 Y32.358 E1.05544
G1 X194.339 Y32.848 E0.01545
G1 X170.076 Y8.585 E1.07720
G1 X169.542 Y8.585 E0.01676
G1 X194.295 Y33.338 E1.09897
G1 X194.250 Y33.827 E0.01541
G1 X169.008 Y8.585 E1.12068
G1 X168.474 Y8.585 E0.01676
G1 X194.201 Y34.312 E1.14219
G1 X194.152 Y34.796 E0.01529
G1 X167.940 Y8.585 E1.16371
G1 X167.406 Y8.585 E0.01676
G1 X194.102 Y35.281 E1.18522
G1 X194.053 Y35.766 E0.01529
G1 X166.872 Y8.585 E1.20674
G1 X166.338 Y8.585 E0.01676
G1 X194.004 Y36.250 E1.22825
G1 X193.954 Y36.735 E0.01529
G1 X165.804 Y8.585 E1.24976
G1 X165.270 Y8.585 E0.01676
G1 X193.904 Y37.219 E1.27125
G1 X193.850 Y37.699 E0.01517
G1 X164.736 Y8.585 E1.29256
G1 X164.202 Y8.585 E0.01676
G1 X193.797 Y38.179 E1.31388
G1 X193.743 Y38.659 E0.01517
G1 X163.668 Y8.585 E1.33520
G1 X163.134 Y8.585 E0.01676
G1 X193.689 Y39.139 E1.35652
G1 X193.636 Y39.620 E0.01517
G1 X162.601 Y8.585 E1.37784
G1 X162.067 Y8.585 E0.01676
G1 X193.582 Y40.100 E1.39916
G1 X193.528 Y40.580 E0.01516
G1 X161.533 Y8.585 E1.42047
G1 X160.999 Y8.585 E0.01676
G1 X193.470 Y41.056 E1.44159
G1 X193.411 Y41.531 E0.01505
G1 X160.465 Y8.585 E1.46271
G1 X159.931 Y8.585 E0.01676
G1 X193.353 Y42.007 E1.48383
G1 X193.295 Y42.483 E0.01505
G1 X159.397 Y8.585 E1.50495
G1 X158.863 Y8.585 E0.01676
G1 X193.237 Y42.959 E1.52608
G1 X193.179 Y43.434 E0.01505
G1 X158.329 Y8.585 E1.54720
M73 Q1 S159
M73 P1 R156
G1 X157.795 Y8.585 E0.01676
G1 X193.116 Y43.906 E1.56813
G1 X193.054 Y44.377 E0.01493
G1 X157.261 Y8.585 E1.58906
G1 X156.727 Y8.585 E0.01676
G1 X192.991 Y44.849 E1.60998
G1 X192.929 Y45.320 E0.01493
G1 X156.193 Y8.585 E1.63091
G1 X155.659 Y8.585 E0.01676
G1 X192.866 Y45.791 E1.65184
G1 X192.803 Y46.263 E0.01493
G1 X155.126 Y8.585 E1.67276
G1 X154.592 Y8.585 E0.01676
G1 X192.737 Y46.730 E1.69353
G1 X192.670 Y47.197 E0.01481
G1 X154.058 Y8.585 E1.71426
G1 X153.524 Y8.585 E0.01676
G1 X192.603 Y47.664 E1.73498
G1 X192.536 Y48.131 E0.01481
G1 X152.990 Y8.585 E1.75571
G1 X152.456 Y8.585 E0.01676
G1 X192.469 Y48.598 E1.77644
G1 X192.402 Y49.065 E0.01481
G1 X151.922 Y8.585 E1.79717
G1 X151.388 Y8.585 E0.01676
G1 X192.330 Y49.527 E1.81770
G1 X192.259 Y49.989 E0.01468
G1 X150.854 Y8.585 E1.83821
G1 X150.320 Y8.585 E0.01676
G1 X192.187 Y50.451 E1.85873
G1 X192.115 Y50.914 E0.01468
G1 X149.786 Y8.585 E1.87925
G1 X149.252 Y8.585 E0.01676
G1 X192.043 Y51.376 E1.89977
G1 X191.972 Y51.838 E0.01468
G1 X148.718 Y8.585 E1.92029
G1 X148.184 Y8.585 E0.01676
G1 X191.896 Y52.297 E1.94065
G1 X191.820 Y52.754 E0.01455
G1 X147.651 Y8.585 E1.96094
G1 X147.117 Y8.585 E0.01676
G1 X191.743 Y53.211 E1.98124
M73 Q2 S158
M73 P2 R155
G1 X191.666 Y53.668 E0.01455
G1 X146.583 Y8.585 E2.00153
G1 X146.049 Y8.585 E0.01676
G1 X191.589 Y54.125 E2.02182
G1 X191.512 Y54.582 E0.01455
G1 X145.515 Y8.585 E2.04211
G1 X144.981 Y8.585 E0.01676
G1 X191.434 Y55.037 E2.06233
G1 X191.351 Y55.489 E0.01442
G1 X144.447 Y8.585 E2.08239
G1 X143.913 Y8.585 E0.01676
G1 X191.269 Y55.941 E2.10245
G1 X191.187 Y56.393 E0.01442
G1 X143.379 Y8.585 E2.12250
G1 X142.845 Y8.585 E0.01676
G1 X191.105 Y56.845 E2.14256
G1 X191.023 Y57.296 E0.01442
G1 X142.311 Y8.585 E2.16262
G1 X141.777 Y8.585 E0.01676
G1 X190.941 Y57.748 E2.18268
G1 X190.854 Y58.195 E0.01430
G1 X141.243 Y8.585 E2.20252
G1 X140.709 Y8.585 E0.01676
G1 X190.766 Y58.641 E2.22234
G1 X190.679 Y59.088 E0.01428
G1 X140.176 Y8.585 E2.24216
G1 X139.642 Y8.585 E0.01676
G1 X190.591 Y59.534 E2.26198
G1 X190.504 Y59.981 E0.01428
