; generated by PrusaSlicer 2.2.0+linux-x64 on 2020-06-09 at 11:32:12 UTC

; 

; external perimeters extrusion width = 0.45mm
; perimeters extrusion width = 0.45mm
; infill extrusion width = 0.45mm
; solid infill extrusion width = 0.45mm
; top infill extrusion width = 0.40mm
; first layer extrusion width = 0.42mm

M73 P0 R220
M73 Q0 S221
M201 X1000 Y1000 Z200 E5000 ; sets maximum accelerations, mm/sec^2
M203 X200 Y200 Z12 E120 ; sets maximum feedrates, mm/sec
M204 P1250 R1250 T1250 ; sets acceleration (P, T) and retract acceleration (R), mm/sec^2
M205 X8.00 Y8.00 Z0.40 E4.50 ; sets the jerk limits, mm/sec
M205 S0 T0 ; sets the minimum extruding and travel feed rate, mm/sec
M107
M862.3 P "MK3" ; printer model check
M862.1 P0.4 ; nozzle diameter check
M115 U3.9.0 ; tell printer latest fw version
G90 ; use absolute coordinates
M83 ; extruder relative mode
M104 S215 ; set extruder temp
M140 S60 ; set bed temp
M190 S60 ; wait for bed temp
M109 S215 ; wait for extruder temp
G28 W ; home all without mesh bed level
G80 ; mesh bed leveling
G1 Y-3.0 F1000.0 ; go outside print area
G92 E0.0
G1 X60.0 E9.0 F1000.0 ; intro line
M73 Q0 S221
M73 P0 R220
G1 X100.0 E12.5 F1000.0 ; intro line
G92 E0.0
M221 S95
G21 ; set units to millimeters
G90 ; use absolute coordinates
M83 ; use relative distances for extrusion
M900 K0.06 ; Filament gcode LA 1.5
M900 K30 ; Filament gcode LA 1.0
;BEFORE_LAYER_CHANGE
G92 E0.0
;0.2


G1 E-0.80000 F2100.00000
G1 Z0.600 F10800.000
;AFTER_LAYER_CHANGE
;0.2
G1 X23.338 Y18.922
G1 Z0.200
G1 E0.80000 F2100.00000
M204 S1000
G1 F1200.000
G1 X24.095 Y18.440 E0.02813
G1 X24.973 Y18.273 E0.02802
G1 X229.810 Y34.366 E6.44230
G1 X230.619 Y34.580 E0.02626
G1 X231.304 Y35.062 E0.02626
G1 X231.785 Y35.762 E0.02661
G1 X231.988 Y36.585 E0.02661
G1 X231.960 Y45.507 E0.27973
G1 X209.875 Y202.647 E4.97544
G1 X209.645 Y203.378 E0.02402
G1 X209.198 Y203.995 E0.02390
G1 X208.533 Y204.460 E0.02543
G1 X207.755 Y204.674 E0.02532
G1 X203.427 Y204.559 E0.13573
G1 X194.301 Y204.044 E0.28662
G1 X190.103 Y203.663 E0.13216
G1 X185.997 Y203.175 E0.12965
G1 X180.604 Y202.332 E0.17115
G1 X175.248 Y201.239 E0.17138
G1 X170.548 Y200.062 E0.15193
G1 X162.567 Y197.783 E0.26023
G1 X158.381 Y196.401 E0.13820
G1 X154.093 Y194.851 E0.14297
G1 X31.720 Y148.824 E4.09934
G1 X31.266 Y148.594 E0.01597
G1 X30.874 Y148.275 E0.01585
G1 X30.409 Y147.610 E0.02543
G1 X30.195 Y146.827 E0.02543
G1 X22.534 Y60.755 E2.70941
G1 X22.597 Y20.513 E1.26176
G1 X22.816 Y19.647 E0.02802
G1 X23.303 Y18.971 E0.02614
G1 F8640.000
G1 X24.095 Y18.440 E-0.22012
G1 X24.973 Y18.273 E-0.20633
G1 X26.413 Y18.386 E-0.33355
G1 E-0.04000 F2100.00000
G1 Z0.800 F10800.000
G1 X25.756 Y21.606
G1 Z0.200
G1 E0.80000 F2100.00000
G1 F1200.000
G1 X29.170 Y22.268 E0.10903
G1 X34.402 Y23.216 E0.16673
G1 X37.000 Y23.659 E0.08261
G1 X42.141 Y24.487 E0.16329
G1 X44.690 Y24.875 E0.08083
G1 X49.729 Y25.602 E0.15962
G1 X54.693 Y26.273 E0.15708
G1 X59.578 Y26.895 E0.15438
G1 X65.895 Y27.655 E0.19952
G1 X75.067 Y28.700 E0.28943
G1 X83.841 Y29.660 E0.27674
G1 X97.694 Y31.134 E0.43681
G1 X105.707 Y31.961 E0.25257
G1 X111.461 Y32.528 E0.18128
G1 X118.224 Y33.151 E0.21296
G1 X122.886 Y33.538 E0.14668
G1 X129.648 Y34.023 E0.21254
G1 X134.100 Y34.290 E0.13984
G1 X140.872 Y34.624 E0.21259
G1 X146.497 Y34.851 E0.17652
G1 X157.193 Y35.212 E0.33556
G1 X198.225 Y36.475 E1.28712
G1 X228.827 Y37.496 E0.96006
G1 X228.816 Y44.437 E0.21763
G1 X199.025 Y45.339 E0.93451
G1 X157.176 Y46.497 E1.31267
G1 X146.478 Y46.825 E0.33556
G1 X140.852 Y47.035 E0.17652
G1 X134.079 Y47.348 E0.21259
G1 X129.626 Y47.601 E0.13984
G1 X122.864 Y48.065 E0.21254
G1 X118.200 Y48.438 E0.14669
G1 X110.858 Y49.092 E0.23112
G1 X103.973 Y49.757 E0.21688
G1 X96.898 Y50.469 E0.22296
G1 X83.806 Y51.822 E0.41266
G1 X75.030 Y52.754 E0.27674
G1 X65.855 Y53.770 E0.28943
G1 X59.535 Y54.511 E0.19951
G1 X54.610 Y55.123 E0.15561
G1 X49.603 Y55.784 E0.15834
G1 X44.521 Y56.502 E0.16094
G1 X41.951 Y56.886 E0.08148
G1 X36.764 Y57.707 E0.16466
G1 X34.144 Y58.147 E0.08331
G1 X28.865 Y59.089 E0.16813
G1 X25.697 Y59.695 E0.10112
G1 X25.756 Y21.666 E1.19238
M73 Q0 S220
M73 P0 R219
G1 X25.380 Y21.149 F10800.000
G1 F1200.000
G1 X29.239 Y21.898 E0.12327
G1 X34.468 Y22.844 E0.16660
G1 X37.061 Y23.287 E0.08250
G1 X42.200 Y24.114 E0.16319
G1 X44.745 Y24.502 E0.08073
G1 X49.781 Y25.229 E0.15953
G1 X54.742 Y25.899 E0.15698
G1 X59.624 Y26.521 E0.15430
G1 X65.939 Y27.281 E0.19944
G1 X75.109 Y28.326 E0.28936
G1 X83.881 Y29.285 E0.27669
G1 X97.733 Y30.759 E0.43677
G1 X105.745 Y31.586 E0.25252
G1 X111.496 Y32.153 E0.18122
G1 X118.257 Y32.775 E0.21287
G1 X122.915 Y33.162 E0.14656
G1 X129.672 Y33.647 E0.21240
G1 X134.120 Y33.913 E0.13971
G1 X140.889 Y34.247 E0.21248
G1 X146.511 Y34.474 E0.17643
G1 X157.205 Y34.835 E0.33550
G1 X198.237 Y36.098 E1.28712
G1 X229.205 Y37.131 E0.97153
G1 X229.193 Y44.802 E0.24054
G1 X199.036 Y45.716 E0.94597
G1 X157.187 Y46.874 E1.31267
G1 X146.491 Y47.202 E0.33550
G1 X140.868 Y47.411 E0.17643
G1 X134.099 Y47.724 E0.21248
G1 X129.650 Y47.977 E0.13971
G1 X122.892 Y48.441 E0.21240
G1 X118.232 Y48.813 E0.14656
G1 X110.893 Y49.468 E0.23102
G1 X104.010 Y50.132 E0.21681
G1 X96.936 Y50.844 E0.22292
G1 X83.846 Y52.197 E0.41263
G1 X75.070 Y53.129 E0.27669
G1 X65.898 Y54.145 E0.28936
G1 X59.580 Y54.885 E0.19943
G1 X54.658 Y55.497 E0.15552
G1 X49.654 Y56.158 E0.15824
G1 X44.575 Y56.876 E0.16084
G1 X42.008 Y57.259 E0.08139
G1 X36.824 Y58.079 E0.16455
G1 X34.208 Y58.518 E0.08319
G1 X28.933 Y59.460 E0.16800
G1 X25.319 Y60.151 E0.11537
G1 X25.380 Y21.209 E1.22101
G1 X25.705 Y21.381 F10800.000
G1 F8640.000
G1 X28.620 Y21.787 E-0.76000
G1 E-0.04000 F2100.00000
G1 Z0.800 F10800.000
G1 X228.713 Y38.368
G1 Z0.200
G1 E0.80000 F2100.00000
G1 F1200.000
G1 X228.099 Y37.754 E0.02728
G1 X227.546 Y37.736 E0.01737
G1 X228.542 Y38.732 E0.04427
G1 X228.542 Y39.266 E0.01676
G1 X226.993 Y37.717 E0.06879
G1 X226.441 Y37.699 E0.01737
G1 X228.541 Y39.799 E0.09330
G1 X228.540 Y40.333 E0.01676
G1 X225.888 Y37.680 E0.11782
G1 X225.335 Y37.662 E0.01737
G1 X228.539 Y40.866 E0.14234
G1 X228.538 Y41.399 E0.01676
G1 X224.782 Y37.644 E0.16686
G1 X224.230 Y37.625 E0.01737
G1 X228.537 Y41.933 E0.19138
G1 X228.537 Y42.466 E0.01676
G1 X223.677 Y37.607 E0.21590
G1 X223.124 Y37.588 E0.01737
G1 X228.536 Y43.000 E0.24042
G1 X228.535 Y43.533 E0.01676
G1 X222.571 Y37.570 E0.26494
G1 X222.019 Y37.551 E0.01737
G1 X228.534 Y44.067 E0.28945
G1 X228.534 Y44.162 E0.00300
G1 X228.108 Y44.175 E0.01338
G1 X221.466 Y37.533 E0.29508
G1 X220.913 Y37.515 E0.01737
G1 X227.590 Y44.191 E0.29660
G1 X227.071 Y44.206 E0.01630
G1 X220.361 Y37.496 E0.29812
G1 X219.808 Y37.478 E0.01737
G1 X226.552 Y44.222 E0.29963
G1 X226.034 Y44.238 E0.01630
G1 X219.255 Y37.459 E0.30115
G1 X218.702 Y37.441 E0.01737
G1 X225.515 Y44.254 E0.30267
G1 X224.997 Y44.269 E0.01630
G1 X218.150 Y37.422 E0.30418
G1 X217.597 Y37.404 E0.01737
G1 X224.478 Y44.285 E0.30570
G1 X223.959 Y44.301 E0.01630
G1 X217.044 Y37.385 E0.30722
G1 X216.492 Y37.367 E0.01737
G1 X223.441 Y44.316 E0.30873
G1 X222.922 Y44.332 E0.01630
G1 X215.939 Y37.349 E0.31025
G1 X215.386 Y37.330 E0.01737
G1 X222.404 Y44.348 E0.31177
G1 X221.885 Y44.364 E0.01630
G1 X214.833 Y37.312 E0.31328
G1 X214.281 Y37.293 E0.01737
G1 X221.367 Y44.379 E0.31480
G1 X220.848 Y44.395 E0.01630
G1 X213.728 Y37.275 E0.31632
G1 X213.175 Y37.256 E0.01737
G1 X220.329 Y44.411 E0.31783
G1 X219.811 Y44.426 E0.01630
G1 X212.622 Y37.238 E0.31935
G1 X212.070 Y37.220 E0.01737
G1 X219.292 Y44.442 E0.32087
G1 X218.774 Y44.458 E0.01630
G1 X211.517 Y37.201 E0.32238
G1 X210.964 Y37.183 E0.01737
G1 X218.255 Y44.473 E0.32390
G1 X217.736 Y44.489 E0.01630
G1 X210.412 Y37.164 E0.32542
G1 X209.859 Y37.146 E0.01737
G1 X217.218 Y44.505 E0.32693
G1 X216.699 Y44.521 E0.01630
G1 X209.306 Y37.127 E0.32845
G1 X208.753 Y37.109 E0.01737
G1 X216.181 Y44.536 E0.32997
G1 X215.662 Y44.552 E0.01630
G1 X208.201 Y37.090 E0.33148
G1 X207.648 Y37.072 E0.01737
G1 X215.143 Y44.568 E0.33300
G1 X214.625 Y44.583 E0.01630
G1 X207.095 Y37.054 E0.33452
G1 X206.542 Y37.035 E0.01737
G1 X214.106 Y44.599 E0.33603
G1 X213.588 Y44.615 E0.01630
G1 X205.990 Y37.017 E0.33755
G1 X205.437 Y36.998 E0.01737
G1 X213.069 Y44.630 E0.33907
G1 X212.551 Y44.646 E0.01630
G1 X204.884 Y36.980 E0.34058
G1 X204.332 Y36.961 E0.01737
G1 X212.032 Y44.662 E0.34210
G1 X211.513 Y44.678 E0.01630
G1 X203.779 Y36.943 E0.34362
G1 X203.226 Y36.925 E0.01737
G1 X210.995 Y44.693 E0.34513
G1 X210.476 Y44.709 E0.01630
G1 X202.673 Y36.906 E0.34665
G1 X202.121 Y36.888 E0.01737
G1 X209.958 Y44.725 E0.34817
G1 X209.439 Y44.740 E0.01630
G1 X201.568 Y36.869 E0.34968
G1 X201.015 Y36.851 E0.01737
G1 X208.920 Y44.756 E0.35120
G1 X208.402 Y44.772 E0.01630
G1 X200.462 Y36.832 E0.35272
G1 X199.910 Y36.814 E0.01737
G1 X207.883 Y44.787 E0.35423
G1 X207.365 Y44.803 E0.01630
G1 X199.357 Y36.796 E0.35575
G1 X198.804 Y36.777 E0.01737
G1 X206.846 Y44.819 E0.35727
G1 X206.328 Y44.835 E0.01630
G1 X198.252 Y36.759 E0.35878
G1 X197.700 Y36.742 E0.01733
G1 X205.809 Y44.850 E0.36024
G1 X205.290 Y44.866 E0.01630
G1 X197.149 Y36.725 E0.36169
G1 X196.598 Y36.708 E0.01733
G1 X204.772 Y44.882 E0.36314
G1 X204.253 Y44.897 E0.01630
G1 X196.046 Y36.691 E0.36459
G1 X195.495 Y36.674 E0.01733
G1 X203.735 Y44.913 E0.36605
G1 X203.216 Y44.929 E0.01630
G1 X194.944 Y36.657 E0.36750
G1 X194.393 Y36.640 E0.01733
G1 X202.697 Y44.945 E0.36895
G1 X202.179 Y44.960 E0.01630
G1 X193.841 Y36.623 E0.37040
G1 X193.290 Y36.606 E0.01733
G1 X201.660 Y44.976 E0.37185
G1 X201.142 Y44.992 E0.01630
G1 X192.739 Y36.589 E0.37330
G1 X192.188 Y36.572 E0.01733
G1 X200.623 Y45.007 E0.37475
G1 X200.105 Y45.023 E0.01630
G1 X191.636 Y36.555 E0.37620
M73 Q0 S219
G1 X191.085 Y36.538 E0.01733
G1 X199.586 Y45.039 E0.37765
G1 X199.067 Y45.054 E0.01630
M73 P0 R218
G1 X190.534 Y36.521 E0.37911
G1 X189.983 Y36.504 E0.01733
G1 X198.548 Y45.069 E0.38050
G1 X198.028 Y45.083 E0.01634
G1 X189.431 Y36.487 E0.38190
G1 X188.880 Y36.470 E0.01733
G1 X197.508 Y45.098 E0.38329
G1 X196.988 Y45.112 E0.01634
G1 X188.329 Y36.453 E0.38468
G1 X187.778 Y36.436 E0.01733
G1 X196.468 Y45.127 E0.38608
G1 X195.948 Y45.141 E0.01634
G1 X187.226 Y36.419 E0.38747
G1 X186.675 Y36.402 E0.01733
G1 X195.428 Y45.155 E0.38886
G1 X194.908 Y45.170 E0.01634
G1 X186.124 Y36.385 E0.39026
G1 X185.573 Y36.368 E0.01733
G1 X194.388 Y45.184 E0.39165
G1 X193.869 Y45.198 E0.01634
G1 X185.021 Y36.351 E0.39304
G1 X184.470 Y36.334 E0.01733
G1 X193.349 Y45.213 E0.39443
G1 X192.829 Y45.227 E0.01634
G1 X183.919 Y36.318 E0.39583
G1 X183.368 Y36.301 E0.01733
G1 X192.309 Y45.242 E0.39722
G1 X191.789 Y45.256 E0.01634
G1 X182.816 Y36.284 E0.39861
G1 X182.265 Y36.267 E0.01733
G1 X191.269 Y45.270 E0.40001
G1 X190.749 Y45.285 E0.01634
G1 X181.714 Y36.250 E0.40140
G1 X181.163 Y36.233 E0.01733
G1 X190.229 Y45.299 E0.40279
G1 X189.709 Y45.314 E0.01634
G1 X180.611 Y36.216 E0.40419
G1 X180.060 Y36.199 E0.01733
G1 X189.189 Y45.328 E0.40558
G1 X188.670 Y45.342 E0.01634
G1 X179.509 Y36.182 E0.40697
G1 X178.958 Y36.165 E0.01733
G1 X188.150 Y45.357 E0.40837
G1 X187.630 Y45.371 E0.01634
G1 X178.406 Y36.148 E0.40976
G1 X177.855 Y36.131 E0.01733
G1 X187.110 Y45.386 E0.41115
G1 X186.590 Y45.400 E0.01634
G1 X177.304 Y36.114 E0.41254
G1 X176.753 Y36.097 E0.01733
G1 X186.070 Y45.414 E0.41394
G1 X185.550 Y45.429 E0.01634
G1 X176.201 Y36.080 E0.41533
G1 X175.650 Y36.063 E0.01733
G1 X185.030 Y45.443 E0.41672
G1 X184.510 Y45.458 E0.01634
G1 X175.099 Y36.046 E0.41812
G1 X174.548 Y36.029 E0.01733
G1 X183.991 Y45.472 E0.41951
G1 X183.471 Y45.486 E0.01634
G1 X173.996 Y36.012 E0.42090
G1 X173.445 Y35.995 E0.01733
G1 X182.951 Y45.501 E0.42230
G1 X182.431 Y45.515 E0.01634
G1 X172.894 Y35.978 E0.42369
G1 X172.343 Y35.961 E0.01733
G1 X181.911 Y45.530 E0.42508
G1 X181.391 Y45.544 E0.01634
G1 X171.791 Y35.944 E0.42647
G1 X171.240 Y35.927 E0.01733
G1 X180.871 Y45.558 E0.42787
G1 X180.351 Y45.573 E0.01634
G1 X170.689 Y35.910 E0.42926
G1 X170.138 Y35.893 E0.01733
G1 X179.831 Y45.587 E0.43065
G1 X179.311 Y45.602 E0.01634
G1 X169.586 Y35.876 E0.43205
G1 X169.035 Y35.860 E0.01733
G1 X178.792 Y45.616 E0.43344
G1 X178.272 Y45.630 E0.01634
G1 X168.484 Y35.843 E0.43483
G1 X167.933 Y35.826 E0.01733
G1 X177.752 Y45.645 E0.43623
G1 X177.232 Y45.659 E0.01634
G1 X167.381 Y35.809 E0.43762
G1 X166.830 Y35.792 E0.01733
G1 X176.712 Y45.673 E0.43901
G1 X176.192 Y45.688 E0.01634
G1 X166.279 Y35.775 E0.44041
G1 X165.728 Y35.758 E0.01733
G1 X175.672 Y45.702 E0.44180
G1 X175.152 Y45.717 E0.01634
G1 X165.176 Y35.741 E0.44319
G1 X164.625 Y35.724 E0.01733
G1 X174.632 Y45.731 E0.44458
G1 X174.113 Y45.745 E0.01634
G1 X164.074 Y35.707 E0.44598
G1 X163.523 Y35.690 E0.01733
G1 X173.593 Y45.760 E0.44737
G1 X173.073 Y45.774 E0.01634
G1 X162.971 Y35.673 E0.44876
G1 X162.420 Y35.656 E0.01733
G1 X172.553 Y45.789 E0.45016
G1 X172.033 Y45.803 E0.01634
G1 X161.869 Y35.639 E0.45155
G1 X161.318 Y35.622 E0.01733
G1 X171.513 Y45.817 E0.45294
G1 X170.993 Y45.832 E0.01634
G1 X160.766 Y35.605 E0.45434
G1 X160.215 Y35.588 E0.01733
G1 X170.473 Y45.846 E0.45573
G1 X169.953 Y45.861 E0.01634
G1 X159.664 Y35.571 E0.45712
G1 X159.113 Y35.554 E0.01733
G1 X169.433 Y45.875 E0.45851
G1 X168.914 Y45.889 E0.01634
G1 X158.561 Y35.537 E0.45991
G1 X158.010 Y35.520 E0.01733
G1 X168.394 Y45.904 E0.46130
G1 X167.874 Y45.918 E0.01634
G1 X157.459 Y35.503 E0.46269
G1 X156.907 Y35.485 E0.01735
G1 X167.354 Y45.933 E0.46412
G1 X166.834 Y45.947 E0.01634
G1 X156.354 Y35.467 E0.46559
G1 X155.801 Y35.448 E0.01738
G1 X166.314 Y45.961 E0.46706
G1 X165.794 Y45.976 E0.01634
G1 X155.248 Y35.429 E0.46853
G1 X154.695 Y35.411 E0.01738
G1 X165.274 Y45.990 E0.47000
G1 X164.754 Y46.005 E0.01634
G1 X154.142 Y35.392 E0.47147
G1 X153.589 Y35.373 E0.01738
G1 X164.234 Y46.019 E0.47294
G1 X163.715 Y46.033 E0.01634
G1 X153.036 Y35.355 E0.47441
G1 X152.483 Y35.336 E0.01738
G1 X163.195 Y46.048 E0.47587
G1 X162.675 Y46.062 E0.01634
G1 X151.930 Y35.317 E0.47734
G1 X151.377 Y35.299 E0.01738
G1 X162.155 Y46.076 E0.47881
G1 X161.635 Y46.091 E0.01634
G1 X150.824 Y35.280 E0.48028
G1 X150.271 Y35.261 E0.01738
G1 X161.115 Y46.105 E0.48175
G1 X160.595 Y46.120 E0.01634
G1 X149.718 Y35.243 E0.48322
G1 X149.165 Y35.224 E0.01738
G1 X160.075 Y46.134 E0.48469
G1 X159.555 Y46.148 E0.01634
G1 X148.612 Y35.205 E0.48616
G1 X148.059 Y35.187 E0.01738
G1 X159.036 Y46.163 E0.48762
G1 X158.516 Y46.177 E0.01634
G1 X147.507 Y35.168 E0.48909
G1 X146.954 Y35.149 E0.01738
G1 X157.996 Y46.192 E0.49056
G1 X157.476 Y46.206 E0.01634
G1 X146.400 Y35.130 E0.49206
G1 X145.843 Y35.108 E0.01750
G1 X156.957 Y46.221 E0.49372
M73 Q1 S218
G1 X156.438 Y46.237 E0.01629
G1 X145.287 Y35.085 E0.49543
M73 P1 R217
G1 X144.730 Y35.063 E0.01750
G1 X155.920 Y46.253 E0.49713
G1 X155.401 Y46.269 E0.01629
G1 X144.173 Y35.040 E0.49884
G1 X143.616 Y35.018 E0.01750
G1 X154.883 Y46.285 E0.50054
G1 X154.365 Y46.300 E0.01629
G1 X143.059 Y34.995 E0.50224
G1 X142.503 Y34.973 E0.01750
G1 X153.846 Y46.316 E0.50395
G1 X153.328 Y46.332 E0.01629
G1 X141.946 Y34.950 E0.50565
G1 X141.389 Y34.928 E0.01750
G1 X152.809 Y46.348 E0.50736
G1 X152.291 Y46.364 E0.01629
G1 X140.832 Y34.905 E0.50907
G1 X140.270 Y34.877 E0.01768
G1 X151.773 Y46.380 E0.51101
G1 X151.254 Y46.396 E0.01629
G1 X139.708 Y34.850 E0.51295
G1 X139.146 Y34.822 E0.01768
G1 X150.736 Y46.412 E0.51489
G1 X150.217 Y46.428 E0.01629
G1 X138.584 Y34.794 E0.51682
G1 X138.022 Y34.767 E0.01768
G1 X149.699 Y46.443 E0.51876
G1 X149.181 Y46.459 E0.01629
G1 X137.460 Y34.739 E0.52070
G1 X136.898 Y34.711 E0.01768
G1 X148.662 Y46.475 E0.52264
G1 X148.144 Y46.491 E0.01629
G1 X136.336 Y34.683 E0.52458
G1 X135.774 Y34.656 E0.01768
G1 X147.625 Y46.507 E0.52651
G1 X147.107 Y46.523 E0.01629
G1 X135.212 Y34.628 E0.52845
G1 X134.650 Y34.600 E0.01768
G1 X146.589 Y46.539 E0.53039
G1 X146.073 Y46.557 E0.01622
G1 X134.088 Y34.572 E0.53244
G1 X133.520 Y34.538 E0.01789
G1 X145.558 Y46.576 E0.53481
G1 X145.042 Y46.596 E0.01619
G1 X132.951 Y34.504 E0.53717
G1 X132.383 Y34.470 E0.01789
G1 X144.527 Y46.615 E0.53954
G1 X144.012 Y46.634 E0.01619
G1 X131.814 Y34.436 E0.54191
G1 X131.246 Y34.402 E0.01789
G1 X143.497 Y46.653 E0.54427
G1 X142.982 Y46.672 E0.01619
