; generated by PrusaSlicer 2.2.0+ on 2020-05-27 at 14:04:18 UTC

; 

; external perimeters extrusion width = 0.45mm
; perimeters extrusion width = 0.45mm
; infill extrusion width = 0.45mm
; solid infill extrusion width = 0.45mm
; top infill extrusion width = 0.40mm
; support material extrusion width = 0.35mm
; first layer extrusion width = 0.42mm

M73 P0 R41
M73 Q0 S42
M201 X1000 Y1000 Z1000 E5000 ; sets maximum accelerations, mm/sec^2
M203 X200 Y200 Z12 E120 ; sets maximum feedrates, mm/sec
M204 P1250 R1250 T1250 ; sets acceleration (P, T) and retract acceleration (R), mm/sec^2
M205 X8.00 Y8.00 Z0.40 E4.50 ; sets the jerk limits, mm/sec
M205 S0 T0 ; sets the minimum extruding and travel feed rate, mm/sec
M107
M862.3 P "MK3" ; printer model check
M862.1 P0.4 ; nozzle diameter check
M115 U3.8.1 ; tell printer latest fw version
G90 ; use absolute coordinates
M83 ; extruder relative mode
M104 S215 ; set extruder temp
M140 S60 ; set bed temp
M190 S60 ; wait for bed temp
M109 S215 ; wait for extruder temp
G28 W ; home all without mesh bed level
G80 ; mesh bed leveling
G1 Y-3.0 F1000.0 ; go outside print area
G92 E0.0
G1 X60.0 E9.0 F1000.0 ; intro line
M73 Q0 S42
M73 P0 R41
G1 X100.0 E12.5 F1000.0 ; intro line
G92 E0.0
M221 S95
G21 ; set units to millimeters
G90 ; use absolute coordinates
M83 ; use relative distances for extrusion
M900 K30 ; Filament gcode
;BEFORE_LAYER_CHANGE
G92 E0.0
;0.2


G1 E-0.80000 F2100.00000
G1 Z0.600 F10800.000
;AFTER_LAYER_CHANGE
;0.2
G1 X118.649 Y60.505
G1 Z0.200
G1 E0.80000 F2100.00000
M204 S1000
G1 F1200.000
G1 X119.561 Y60.255 E0.02966
G1 X130.292 Y60.250 E0.33645
G1 X131.019 Y60.365 E0.02308
G1 X131.673 Y60.695 E0.02296
G1 X132.197 Y61.211 E0.02308
G1 X132.538 Y61.859 E0.02296
G1 X137.245 Y80.660 E0.60768
G1 X139.436 Y101.840 E0.66763
G1 X139.440 Y117.537 E0.49217
G1 X137.157 Y145.561 E0.88160
G1 X136.958 Y146.231 E0.02190
G1 X134.589 Y151.067 E0.16886
G1 X134.035 Y151.710 E0.02661
G1 X133.290 Y152.117 E0.02661
G1 X132.557 Y152.238 E0.02331
G1 X117.121 Y152.213 E0.48398
G1 X116.623 Y152.086 E0.01609
G1 X116.168 Y151.857 E0.01597
G1 X115.770 Y151.534 E0.01609
G1 X115.450 Y151.132 E0.01609
G1 X113.036 Y146.047 E0.17650
G1 X112.860 Y145.497 E0.01811
G1 X110.561 Y117.385 E0.88438
G1 X110.561 Y101.712 E0.49142
G1 X112.843 Y80.832 E0.65857
G1 X117.418 Y62.038 E0.60649
G1 X117.609 Y61.537 E0.01680
G1 X117.907 Y61.091 E0.01680
G1 X118.602 Y60.542 E0.02778
G1 F8640.000
G1 X119.561 Y60.255 E-0.23123
G1 X121.851 Y60.254 E-0.52877
G1 E-0.04000 F2100.00000
G1 Z0.800 F10800.000
G1 X125.000 Y80.593
G1 Z0.200
G1 E0.80000 F2100.00000
G1 F1200.000
G1 X125.000 Y62.627 E0.56332
G1 X124.246 Y62.627 E0.02365
G1 X124.246 Y86.792 E0.75768
G1 X123.492 Y86.792 E0.02365
G1 X123.492 Y83.571 E0.10100
G1 X123.347 Y84.217 E0.02076
G1 X122.915 Y84.025 E0.01483
G1 X122.738 Y84.340 E0.01134
G1 X122.738 Y89.110 E0.14956
G1 X121.983 Y89.110 E0.02365
G1 X121.983 Y85.022 E0.12818
G1 X121.893 Y85.066 F10800.000
G1 F1200.000
G1 X121.893 Y84.140 E0.02365
G1 X122.411 Y84.140 E0.01322
G1 X122.411 Y84.497 E0.00912
G1 X122.929 Y83.807 F10800.000
G1 F1200.000
G1 X122.929 Y81.822 E0.05069
G1 X123.447 Y81.822 E0.01322
G1 X123.447 Y82.977 E0.02950
G1 F8640.000
G1 X123.447 Y81.822 E-0.26680
G1 X122.929 Y81.822 E-0.11956
G1 X122.929 Y83.440 E-0.37364
G1 E-0.04000 F2100.00000
G1 Z0.800 F10800.000
G1 X123.492 Y81.644
G1 Z0.200
G1 E0.80000 F2100.00000
G1 F1200.000
G1 X123.492 Y62.627 E0.59627
G1 X122.738 Y62.627 E0.02365
G1 X122.738 Y81.474 E0.59095
G1 X122.335 Y81.474 E0.01263
G1 X122.335 Y83.792 E0.07267
G1 X121.983 Y83.792 E0.01101
G1 X121.983 Y62.627 E0.66362
G1 X121.229 Y62.627 E0.02365
G1 X121.229 Y83.792 E0.66362
G1 X120.475 Y83.792 E0.02365
G1 X120.475 Y62.627 E0.66362
G1 X119.721 Y62.627 E0.02365
G1 X119.721 Y86.110 E0.73629
G1 X118.967 Y86.110 E0.02365
G1 X118.967 Y78.852 E0.22758
G1 X118.213 Y78.852 E0.02365
G1 X118.213 Y86.280 E0.23290
G1 X118.268 Y86.314 F10800.000
G1 F1200.000
G1 X118.268 Y94.358 E0.20539
G1 X118.304 Y91.462 E0.07397
G1 X118.345 Y91.318 E0.00382
G1 X118.786 Y90.583 E0.02189
G1 X118.786 Y86.457 E0.10533
G1 X119.304 Y86.457 E0.01322
G1 X119.304 Y89.659 E0.08174
G1 X119.589 Y89.117 E0.01564
G1 X119.822 Y88.597 E0.01453
G1 X119.822 Y86.457 E0.05464
G1 X120.340 Y86.457 E0.01322
G1 X120.340 Y88.380 E0.04910
G1 X120.360 Y88.389 E0.00057
G1 X120.629 Y87.572 E0.02198
G1 X120.858 Y86.774 E0.02120
G1 X120.858 Y84.140 E0.06726
G1 X121.375 Y84.140 E0.01322
G1 X121.375 Y85.992 E0.04730
G1 X121.229 Y86.178 F10800.000
G1 F1200.000
G1 X121.229 Y89.280 E0.09724
G1 F8640.000
G1 X121.229 Y86.178 E-0.71608
G1 E-0.08392 F2100.00000
G1 Z0.800 F10800.000
G1 X131.732 Y96.672
G1 Z0.200
G1 E0.80000 F2100.00000
G1 F1200.000
G1 X131.732 Y86.457 E0.26082
G1 X131.214 Y86.457 E0.01322
G1 X131.214 Y90.574 E0.10511
G1 X130.696 Y89.663 E0.02677
G1 X130.696 Y86.457 E0.08184
G1 X130.178 Y86.457 E0.01322
G1 X130.178 Y88.581 E0.05423
G1 X129.979 Y88.112 E0.01302
G1 X129.660 Y88.247 E0.00884
G1 X129.660 Y86.457 E0.04568
G1 X129.636 Y86.457 E0.00063
G1 X129.636 Y84.140 E0.05918
G1 X129.142 Y84.140 E0.01259
G1 X129.142 Y86.758 E0.06684
G1 X128.961 Y86.141 E0.01642
G1 X128.861 Y85.994 E0.00453
G1 X128.625 Y85.811 E0.00763
G1 X128.625 Y84.140 E0.04269
G1 X128.107 Y84.140 E0.01322
G1 X128.107 Y84.858 E0.01833
G1 X127.957 Y84.700 E0.00555
G1 X127.589 Y84.172 E0.01644
G1 X127.589 Y83.997 E0.00447
G1 X127.071 Y83.821 F10800.000
G1 F1200.000
G1 X127.071 Y81.822 E0.05105
G1 X126.553 Y81.822 E0.01322
G1 X126.553 Y82.916 E0.02794
G1 F8640.000
G1 X126.553 Y81.822 E-0.25269
G1 X127.071 Y81.822 E-0.11956
G1 X127.071 Y83.501 E-0.38775
G1 E-0.04000 F2100.00000
G1 Z0.800 F10800.000
G1 X125.000 Y83.284
G1 Z0.200
G1 E0.80000 F2100.00000
G1 F1200.000
G1 X125.000 Y86.962 E0.11532
G1 F8640.000
G1 X125.000 Y83.670 E-0.76000
G1 E-0.04000 F2100.00000
G1 Z0.800 F10800.000
G1 X128.771 Y89.280
G1 Z0.200
G1 E0.80000 F2100.00000
G1 F1200.000
G1 X128.771 Y86.178 E0.09725
G1 F8640.000
G1 X128.771 Y89.280 E-0.71621
G1 E-0.08379 F2100.00000
G1 Z0.800 F10800.000
G1 X128.017 Y85.021
G1 Z0.200
G1 E0.80000 F2100.00000
G1 F1200.000
G1 X128.017 Y89.110 E0.12821
G1 X127.262 Y89.110 E0.02365
G1 X127.262 Y84.311 E0.15047
G1 X127.103 Y84.031 E0.01011
G1 X126.673 Y84.222 E0.01475
G1 X126.508 Y83.503 E0.02310
G1 X126.508 Y86.792 E0.10312
G1 X125.754 Y86.792 E0.02365
G1 X125.754 Y62.627 E0.75768
G1 X126.508 Y62.627 E0.02365
G1 X126.508 Y81.474 E0.59095
G1 X127.262 Y81.474 E0.02365
G1 X127.262 Y62.627 E0.59095
G1 X128.017 Y62.627 E0.02365
G1 X128.017 Y83.792 E0.66362
G1 X128.771 Y83.792 E0.02365
G1 X128.771 Y62.627 E0.66362
G1 X129.525 Y62.627 E0.02365
G1 X129.525 Y83.792 E0.66362
G1 X129.983 Y83.792 E0.01436
G1 X129.983 Y86.110 E0.07267
G1 X130.279 Y86.110 E0.00928
G1 X130.288 Y62.627 E0.73629
G1 X130.288 Y78.852 E0.50871
G1 X131.033 Y78.852 E0.02336
G1 X131.033 Y86.110 E0.22758
G1 X131.787 Y86.110 E0.02365
G1 X131.787 Y78.852 E0.22758
G1 X132.542 Y78.852 E0.02365
G1 X132.542 Y149.861 E2.22643
G1 X131.787 Y149.861 F10800.000
G1 F1200.000
G1 X131.787 Y119.254 E0.95964
G1 X131.033 Y119.254 E0.02365
G1 X131.033 Y149.691 E0.95431
G1 X130.279 Y149.691 E0.02365
G1 X130.279 Y119.254 E0.95431
G1 X129.983 Y119.254 E0.00928
G1 X129.983 Y126.208 E0.21802
G1 X129.525 Y126.208 E0.01437
G1 X129.525 Y149.691 E0.73629
G1 X128.771 Y149.691 E0.02365
G1 X128.771 Y126.208 E0.73629
G1 X128.017 Y126.208 E0.02365
G1 X128.017 Y149.691 E0.73629
G1 X127.262 Y149.691 E0.02365
G1 X127.262 Y126.208 E0.73629
G1 X126.508 Y126.208 E0.02365
G1 X126.508 Y149.691 E0.73629
G1 X125.754 Y149.691 E0.02365
G1 X125.754 Y137.422 E0.38469
G1 X125.689 Y139.589 E0.06799
G1 X125.449 Y139.820 E0.01044
G1 X125.000 Y139.820 E0.01406
G1 X125.000 Y149.691 E0.30950
G1 X124.246 Y149.691 E0.02365
G1 X124.246 Y137.422 E0.38469
G1 X124.151 Y134.205 E0.10089
G1 X124.049 Y132.098 E0.06615
G1 X124.015 Y130.431 E0.05226
G1 X123.967 Y129.791 E0.02013
G1 X123.858 Y128.975 E0.02583
G1 X123.898 Y126.208 E0.08676
G1 X123.492 Y126.208 E0.01274
G1 X123.492 Y149.691 E0.73629
M73 Q2 S41
M73 P2 R40
G1 X122.738 Y149.691 E0.02365
G1 X122.738 Y126.208 E0.73629
G1 X122.523 Y126.208 E0.00672
G1 X121.983 Y126.208 E0.01693
G1 X121.983 Y149.691 E0.73629
G1 X121.229 Y149.691 E0.02365
G1 X121.229 Y126.208 E0.73629
G1 X120.475 Y126.208 E0.02365
G1 X120.475 Y149.691 E0.73629
G1 X119.721 Y149.691 E0.02365
G1 X119.721 Y119.254 E0.95431
G1 X118.967 Y119.254 E0.02365
G1 X118.967 Y149.691 E0.95431
G1 X118.213 Y149.691 E0.02365
G1 X118.213 Y119.254 E0.95431
G1 X117.699 Y119.254 E0.01610
G1 X117.699 Y86.110 E1.03922
G1 X120.017 Y86.110 E0.07267
G1 X120.017 Y83.792 E0.07267
G1 X122.335 Y83.792 E0.07267
G1 X122.335 Y81.474 E0.07267
G1 X124.073 Y81.474 E0.05452
G1 X124.008 Y82.237 E0.02399
G1 X123.986 Y83.295 E0.03319
G1 X123.572 Y83.211 E0.01322
G1 X123.347 Y84.217 E0.03232
G1 X122.915 Y84.025 E0.01483
G1 X122.587 Y84.609 E0.02101
G1 X122.412 Y84.793 E0.00795
G1 X122.213 Y85.048 E0.01015
G1 X121.814 Y85.447 E0.01768
G1 X122.203 Y85.815 E0.01680
G1 X121.815 Y85.959 E0.01294
G1 X121.608 Y86.073 E0.00743
G1 X121.396 Y86.235 E0.00837
G1 X121.357 Y86.292 E0.00215
G1 X120.961 Y87.674 E0.04508
G1 X120.570 Y88.864 E0.03929
G1 X120.165 Y88.683 E0.01392
G1 X119.902 Y89.269 E0.02014
G1 X119.350 Y90.320 E0.03722
G1 X118.667 Y91.457 E0.04160
G1 X118.651 Y91.512 E0.00179
G1 X118.614 Y94.540 E0.09495
G1 X118.529 Y96.115 E0.04944
G1 X118.450 Y96.917 E0.02528
G1 X118.427 Y98.172 E0.03937
G1 X118.395 Y102.119 E0.12374
G1 X118.422 Y104.059 E0.06083
G1 X118.409 Y105.442 E0.04338
G1 X118.361 Y106.563 E0.03517
G1 X118.302 Y107.220 E0.02068
G1 X118.244 Y107.619 E0.01265
G1 X118.217 Y109.960 E0.07340
G1 X118.146 Y112.958 E0.09404
G1 X118.213 Y113.158 E0.00659
G1 X118.213 Y110.156 E0.09413
G1 X118.244 Y107.619 E0.07953
G1 X118.302 Y107.220 E0.01265
G1 X118.361 Y106.563 E0.02068
G1 X118.409 Y105.442 E0.03517
G1 X118.422 Y104.059 E0.04338
G1 X118.395 Y102.119 E0.06083
G1 X118.450 Y96.917 E0.16311
G1 X118.529 Y96.115 E0.02528
G1 X118.614 Y94.540 E0.04944
G1 X118.651 Y91.512 E0.09495
G1 X118.667 Y91.457 E0.00179
G1 X118.967 Y90.957 E0.01828
G1 X118.967 Y115.160 E0.75886
G1 X119.721 Y117.299 E0.07111
G1 X119.721 Y89.613 E0.86807
G1 X119.902 Y89.269 E0.01219
G1 X120.165 Y88.683 E0.02014
G1 X120.475 Y88.822 E0.01067
G1 X120.475 Y118.065 E0.91691
G1 X120.553 Y118.290 E0.00746
G1 X121.229 Y119.428 E0.04151
G1 X121.229 Y116.254 E0.09952
G1 X121.983 Y116.254 E0.02365
G1 X121.983 Y120.927 E0.14650
G1 X122.455 Y122.040 E0.03790
G1 X122.738 Y121.920 E0.00962
G1 X122.738 Y116.085 E0.18297
G1 F8640.000
G1 X122.738 Y119.376 E-0.76000
G1 E-0.04000 F2100.00000
G1 Z0.800 F10800.000
G1 X118.268 Y113.886
G1 Z0.200
G1 E0.80000 F2100.00000
G1 F1200.000
G1 X118.268 Y118.907 E0.12819
G1 X118.786 Y118.907 E0.01322
G1 X118.786 Y115.667 E0.08273
G1 X119.304 Y117.156 E0.04026
G1 X119.304 Y118.907 E0.04470
G1 X119.822 Y118.907 E0.01322
G1 X119.822 Y118.558 E0.00891
G1 X119.944 Y118.759 E0.00600
G1 X120.300 Y118.542 E0.01063
G1 X120.340 Y118.608 E0.00196
G1 X120.340 Y118.907 E0.00764
G1 X120.364 Y118.907 E0.00063
G1 X120.364 Y125.860 E0.17755
G1 X120.858 Y125.860 E0.01259
G1 X120.858 Y119.477 E0.16300
G1 X121.375 Y120.482 E0.02888
G1 X121.375 Y125.860 E0.13733
G1 X121.893 Y125.860 E0.01322
G1 X121.893 Y121.605 E0.10866
G1 X122.271 Y122.495 E0.02470
G1 X122.411 Y122.436 E0.00389
G1 X122.411 Y125.860 E0.08744
G1 X122.929 Y125.860 E0.01322
G1 X122.929 Y123.377 E0.06341
G1 X123.026 Y123.696 E0.00853
G1 X123.278 Y124.224 E0.01493
G1 X123.447 Y124.681 E0.01243
G1 X123.447 Y126.003 E0.03377
G1 F8640.000
G1 X123.447 Y124.681 E-0.30537
G1 X123.278 Y124.224 E-0.11241
G1 X123.026 Y123.696 E-0.13505
G1 X122.929 Y123.377 E-0.07710
G1 X122.929 Y123.940 E-0.13007
G1 E-0.04000 F2100.00000
G1 Z0.800 F10800.000
G1 X123.492 Y124.272
G1 Z0.200
G1 E0.80000 F2100.00000
G1 F1200.000
G1 X123.492 Y123.038 E0.03868
G1 F8640.000
G1 X123.492 Y124.272 E-0.28485
G1 E-0.51515 F2100.00000
G1 Z0.800 F10800.000
G1 X126.508 Y123.038
G1 Z0.200
G1 E0.80000 F2100.00000
G1 F1200.000
G1 X126.508 Y124.262 E0.03836
G1 F8640.000
G1 X126.508 Y123.038 E-0.28252
G1 E-0.51748 F2100.00000
G1 Z0.800 F10800.000
G1 X126.553 Y126.003
G1 Z0.200
G1 E0.80000 F2100.00000
G1 F1200.000
G1 X126.553 Y124.679 E0.03380
G1 X126.672 Y124.331 E0.00941
G1 X126.974 Y123.697 E0.01793
G1 X127.071 Y123.377 E0.00853
G1 X127.071 Y125.860 E0.06341
G1 X127.589 Y125.860 E0.01322
G1 X127.589 Y122.492 E0.08600
G1 X127.718 Y122.541 E0.00352
G1 X128.107 Y121.601 E0.02599
G1 X128.107 Y125.860 E0.10876
G1 X128.625 Y125.860 E0.01322
G1 X128.625 Y120.452 E0.13810
G1 X129.122 Y119.506 E0.02728
G1 X129.142 Y119.518 E0.00061
G1 X129.142 Y126.003 E0.16558
G1 F8640.000
G1 X129.142 Y122.712 E-0.76000
G1 E-0.04000 F2100.00000
G1 Z0.800 F10800.000
G1 X131.787 Y113.639
G1 Z0.200
G1 E0.80000 F2100.00000
G1 F1200.000
G1 X131.787 Y110.152 E0.10935
G1 X131.757 Y107.616 E0.07951
G1 X131.678 Y106.931 E0.02161
G1 X131.597 Y105.572 E0.04269
G1 X131.580 Y104.213 E0.04261
G1 X131.605 Y102.119 E0.06568
G1 X131.572 Y98.135 E0.12493
G1 X131.545 Y96.916 E0.03823
G1 X131.438 Y95.554 E0.04281
G1 X131.381 Y94.196 E0.04263
G1 X131.349 Y91.512 E0.08417
G1 X131.334 Y91.457 E0.00178
G1 X131.033 Y90.951 E0.01845
G1 X131.033 Y115.160 E0.75906
G1 X130.279 Y117.299 E0.07111
G1 X130.279 Y89.617 E0.86795
G1 X129.963 Y88.965 E0.02272
G1 X129.795 Y88.567 E0.01354
G1 X129.525 Y88.681 E0.00919
G1 X129.525 Y118.169 E0.92455
G1 X129.484 Y118.184 E0.00138
G1 X129.445 Y118.292 E0.00359
G1 X129.276 Y118.546 E0.00956
G1 X129.525 Y118.694 E0.00906
G1 X129.525 Y118.979 E0.00895
G1 X129.366 Y119.247 E0.00977
G1 X128.991 Y119.024 E0.01367
G1 X128.771 Y119.423 E0.01428
G1 X128.771 Y116.254 E0.09935
G1 X128.017 Y116.254 E0.02365
G1 X128.017 Y120.930 E0.14660
G1 X127.517 Y122.094 E0.03971
G1 X127.262 Y121.997 E0.00853
G1 X127.262 Y116.085 E0.18538
G1 F8640.000
G1 X127.262 Y119.376 E-0.76000
G1 E-0.04000 F2100.00000
G1 Z0.800 F10800.000
G1 X130.178 Y119.050
G1 Z0.200
G1 E0.80000 F2100.00000
G1 F1200.000
G1 X130.178 Y118.560 E0.01250
G1 X130.267 Y118.399 E0.00470
G1 X130.696 Y117.156 E0.03357
G1 X130.696 Y118.907 E0.04470
G1 X131.214 Y118.907 E0.01322
G1 X131.214 Y115.667 E0.08273
G1 X131.732 Y114.292 E0.03751
G1 X131.732 Y119.050 E0.12148
G1 F8640.000
G1 X131.732 Y115.758 E-0.76000
G1 E-0.04000 F2100.00000
G1 Z0.800 F10800.000
G1 X137.067 Y117.411
G1 Z0.200
G1 E0.80000 F2100.00000
G1 F1200.000
G1 X137.067 Y102.030 E0.48228
G1 X136.312 Y102.030 E0.02365
G1 X136.312 Y117.242 E0.47696
G1 X135.558 Y117.242 E0.02365
G1 X135.558 Y102.030 E0.47696
G1 X134.924 Y102.030 E0.01990
G1 X134.924 Y81.169 E0.65406
G1 X134.804 Y81.169 E0.00375
G1 X134.804 Y128.831 E1.49438
G1 X134.050 Y128.831 E0.02365
G1 X134.050 Y81.169 E1.49438
G1 X133.296 Y81.169 E0.02365
G1 X133.296 Y128.831 E1.49438
G1 X132.606 Y128.831 E0.02163
G1 X132.606 Y129.843 E0.03176
G1 X133.296 Y129.843 E0.02163
G1 X133.296 Y145.055 E0.47696
G1 X134.050 Y145.055 E0.02365
G1 X134.050 Y129.843 E0.47696
G1 X134.804 Y129.843 E0.02365
G1 X134.804 Y145.225 E0.48228
G1 F8640.000
G1 X134.804 Y141.933 E-0.76000
G1 E-0.04000 F2100.00000
G1 Z0.800 F10800.000
G1 X115.196 Y129.674
G1 Z0.200
G1 E0.80000 F2100.00000
G1 F1200.000
G1 X115.196 Y145.055 E0.48228
G1 X115.950 Y145.055 E0.02365
G1 X115.950 Y129.843 E0.47696
G1 X116.704 Y129.843 E0.02365
G1 X116.704 Y145.225 E0.48228
G1 F8640.000
G1 X116.704 Y141.933 E-0.76000
G1 E-0.04000 F2100.00000
G1 Z0.800 F10800.000
G1 X117.458 Y149.861
G1 Z0.200
G1 E0.80000 F2100.00000
G1 F1200.000
G1 X117.458 Y78.852 E2.22643
G1 X117.394 Y78.852 E0.00202
G1 X117.394 Y81.169 E0.07267
G1 X116.704 Y81.169 E0.02163
G1 X116.704 Y128.831 E1.49438
G1 X115.950 Y128.831 E0.02365
G1 X115.950 Y81.169 E1.49438
G1 X115.196 Y81.169 E0.02365
G1 X115.196 Y128.831 E1.49438
M73 Q5 S40
M73 P5 R39
G1 X115.076 Y128.831 E0.00375
G1 X115.076 Y117.242 E0.36337
G1 X114.442 Y117.242 E0.01989
G1 X114.442 Y102.030 E0.47696
G1 X113.688 Y102.030 E0.02365
G1 X113.688 Y117.242 E0.47696
G1 X112.933 Y117.242 E0.02365
G1 X112.933 Y101.860 E0.48228
G1 F8640.000
G1 X112.933 Y105.151 E-0.76000
G1 E-0.04000 F2100.00000
