; generated by PrusaSlicer 2.2.0+linux-x64 on 2020-07-03 at 07:18:28 UTC

; 

; external perimeters extrusion width = 0.45mm
; perimeters extrusion width = 0.45mm
; infill extrusion width = 0.45mm
; solid infill extrusion width = 0.45mm
; top infill extrusion width = 0.40mm
; first layer extrusion width = 0.42mm

M73 P0 R104
M73 Q0 S104
M201 X1000 Y1000 Z200 E5000 ; sets maximum accelerations, mm/sec^2
M203 X200 Y200 Z12 E120 ; sets maximum feedrates, mm/sec
M204 P1250 R1250 T1250 ; sets acceleration (P, T) and retract acceleration (R), mm/sec^2
M205 X8.00 Y8.00 Z0.40 E4.50 ; sets the jerk limits, mm/sec
M205 S0 T0 ; sets the minimum extruding and travel feed rate, mm/sec
M107
M862.3 P "MK3" ; printer model check
M862.1 P0.4 ; nozzle diameter check
M115 U3.9.0 ; tell printer latest fw version
G90 ; use absolute coordinates
M83 ; extruder relative mode
M104 S225 ; set extruder temp
M140 S60 ; set bed temp
M190 S60 ; wait for bed temp
M109 S225 ; wait for extruder temp
G28 W ; home all without mesh bed level
G80 ; mesh bed leveling
G1 Y-3.0 F1000.0 ; go outside print area
G92 E0.0
G1 X60.0 E9.0 F1000.0 ; intro line
M73 Q0 S104
M73 P0 R104
G1 X100.0 E12.5 F1000.0 ; intro line
G92 E0.0
M221 S95
G21 ; set units to millimeters
G90 ; use absolute coordinates
M83 ; use relative distances for extrusion
M900 K0.06 ; Filament gcode LA 1.5
M900 K30 ; Filament gcode LA 1.0
;BEFORE_LAYER_CHANGE
G92 E0.0
;0.2


G1 E-0.80000 F2100.00000
G1 Z0.600 F10800.000
;AFTER_LAYER_CHANGE
;0.2
G1 X101.887 Y28.428
G1 Z0.200
G1 E0.80000 F2100.00000
M204 S1000
G1 F1200.000
G1 X102.361 Y27.869 E0.02296
G1 X102.986 Y27.481 E0.02308
G1 X103.696 Y27.302 E0.02296
G1 X121.295 Y27.292 E0.55179
G1 X150.547 Y27.825 E0.91735
G1 X151.243 Y27.982 E0.02237
G1 X151.858 Y28.336 E0.02225
G1 X152.344 Y28.859 E0.02237
G1 X152.652 Y29.502 E0.02237
G1 X157.593 Y59.161 E0.94274
G1 X161.525 Y84.385 E0.80044
G1 X164.226 Y103.798 E0.61455
G1 X165.372 Y113.069 E0.29287
G1 X166.504 Y123.240 E0.32089
G1 X167.959 Y138.691 E0.48659
G1 X168.787 Y149.542 E0.34123
G1 X169.682 Y164.550 E0.47140
G1 X170.240 Y177.551 E0.40801
G1 X170.330 Y180.214 E0.08353
G1 X170.214 Y180.929 E0.02272
G1 X169.974 Y181.446 E0.01787
G1 X169.619 Y181.892 E0.01787
G1 X169.167 Y182.240 E0.01787
G1 X168.646 Y182.470 E0.01787
G1 X167.974 Y182.573 E0.02130
G1 X156.116 Y182.573 E0.37181
G1 X86.281 Y182.045 E2.18968
G1 X85.554 Y181.912 E0.02319
G1 X84.902 Y181.561 E0.02319
G1 X84.390 Y181.027 E0.02319
G1 X84.067 Y180.362 E0.02319
G1 X83.965 Y179.606 E0.02390
G1 X84.364 Y169.248 E0.32500
G1 X84.893 Y158.774 E0.32884
G1 X85.560 Y148.247 E0.33072
G1 X86.787 Y132.977 E0.48032
G1 X87.789 Y122.715 E0.32331
G1 X88.836 Y113.278 E0.29770
G1 X90.766 Y97.980 E0.48345
G1 X93.527 Y78.800 E0.60758
G1 X97.304 Y54.911 E0.75834
G1 X101.605 Y29.107 E0.82021
G1 X101.864 Y28.483 E0.02119
G1 F8640.000
G1 X102.361 Y27.869 E-0.18231
G1 X102.986 Y27.481 E-0.16994
G1 X103.696 Y27.302 E-0.16907
G1 X104.730 Y27.301 E-0.23868
G1 E-0.04000 F2100.00000
G1 Z0.800 F10800.000
G1 X134.000 Y30.984
G1 Z0.200
G1 E0.80000 F2100.00000
G1 F1200.000
G1 X149.716 Y30.990 E0.49277
G1 X151.491 Y41.528 E0.33504
G1 X154.139 Y57.624 E0.51148
G1 X155.931 Y68.798 E0.35483
G1 X157.638 Y79.801 E0.34912
G1 X159.041 Y89.262 E0.29989
G1 X160.392 Y98.934 E0.30620
G1 X161.579 Y108.080 E0.28916
G1 X162.229 Y113.438 E0.16924
G1 X162.849 Y118.852 E0.17083
G1 X163.357 Y123.568 E0.14873
G1 X163.873 Y128.666 E0.16066
G1 X164.356 Y133.799 E0.16166
G1 X164.806 Y138.963 E0.16253
G1 X165.279 Y144.912 E0.18713
G1 X165.577 Y148.999 E0.12847
G1 X165.902 Y153.855 E0.15261
G1 X166.305 Y160.627 E0.21270
G1 X166.522 Y164.712 E0.12826
G1 X166.769 Y169.923 E0.16355
G1 X166.983 Y175.098 E0.16240
G1 X167.137 Y179.409 E0.13527
G1 X156.871 Y179.409 E0.32188
G1 X156.427 Y171.622 E0.24456
G1 X156.143 Y167.308 E0.13555
G1 X155.830 Y162.974 E0.13623
G1 X155.488 Y158.628 E0.13671
G1 X155.117 Y154.275 E0.13696
G1 X154.716 Y149.925 E0.13699
G1 X154.285 Y145.583 E0.13680
G1 X153.803 Y141.071 E0.14227
G1 X153.290 Y136.579 E0.14176
G1 X152.747 Y132.110 E0.14117
G1 X152.176 Y127.664 E0.14053
G1 X151.578 Y123.246 E0.13981
G1 X150.954 Y118.856 E0.13903
G1 X150.306 Y114.496 E0.13818
G1 X149.635 Y110.170 E0.13727
G1 X148.827 Y105.173 E0.15871
G1 X147.995 Y100.219 E0.15749
G1 X147.141 Y95.312 E0.15617
G1 X145.386 Y85.654 E0.30779
G1 X144.491 Y80.906 E0.15149
G1 X143.136 Y73.898 E0.22379
G1 X141.745 Y66.867 E0.22475
G1 X140.346 Y59.946 E0.22140
G1 X138.057 Y48.976 E0.35135
G1 X136.719 Y42.806 E0.19796
G1 X135.846 Y38.892 E0.12574
G1 X134.999 Y35.187 E0.11917
G1 X134.014 Y31.042 E0.13357
G1 X133.523 Y30.606 F10800.000
G1 F1200.000
G1 X150.035 Y30.614 E0.51773
G1 X151.863 Y41.466 E0.34506
G1 X154.511 Y57.564 E0.51152
G1 X156.303 Y68.739 E0.35488
G1 X158.011 Y79.745 E0.34919
G1 X159.414 Y89.209 E0.29998
G1 X160.766 Y98.884 E0.30630
G1 X161.953 Y108.033 E0.28927
G1 X162.604 Y113.394 E0.16933
G1 X163.223 Y118.810 E0.17091
G1 X163.732 Y123.528 E0.14880
G1 X164.248 Y128.629 E0.16074
G1 X164.732 Y133.765 E0.16174
G1 X165.182 Y138.931 E0.16261
G1 X165.655 Y144.884 E0.18721
G1 X165.954 Y148.972 E0.12854
G1 X166.278 Y153.832 E0.15269
G1 X166.681 Y160.606 E0.21278
G1 X166.899 Y164.693 E0.12833
G1 X167.145 Y169.906 E0.16362
G1 X167.360 Y175.083 E0.16246
G1 X167.528 Y179.786 E0.14756
G1 X156.515 Y179.786 E0.34530
G1 X156.051 Y171.645 E0.25568
G1 X155.766 Y167.334 E0.13547
G1 X155.454 Y163.003 E0.13616
G1 X155.112 Y158.659 E0.13663
G1 X154.741 Y154.309 E0.13688
G1 X154.340 Y149.961 E0.13691
G1 X153.910 Y145.622 E0.13671
G1 X153.428 Y141.113 E0.14219
G1 X152.916 Y136.624 E0.14167
G1 X152.373 Y132.156 E0.14109
G1 X151.802 Y127.714 E0.14044
G1 X151.204 Y123.298 E0.13973
G1 X150.581 Y118.910 E0.13896
G1 X149.933 Y114.553 E0.13811
G1 X149.262 Y110.229 E0.13720
G1 X148.455 Y105.234 E0.15864
G1 X147.623 Y100.283 E0.15742
G1 X146.770 Y95.378 E0.15609
G1 X145.015 Y85.723 E0.30770
G1 X144.121 Y80.977 E0.15142
G1 X142.766 Y73.971 E0.22374
G1 X141.375 Y66.941 E0.22470
G1 X139.976 Y60.021 E0.22134
G1 X137.688 Y49.055 E0.35126
G1 X136.351 Y42.887 E0.19788
G1 X135.478 Y38.975 E0.12568
G1 X134.632 Y35.272 E0.11909
G1 X133.536 Y30.665 E0.14849
G1 X133.883 Y30.779 F10800.000
G1 F8640.000
G1 X136.828 Y30.655 E-0.76000
G1 E-0.04000 F2100.00000
G1 Z0.800 F10800.000
G1 X157.742 Y179.296
G1 Z0.200
G1 E0.80000 F2100.00000
M73 Q1 S103
M73 P1 R103
G1 F1200.000
G1 X157.112 Y178.666 E0.02796
G1 X157.080 Y178.100 E0.01779
G1 X158.106 Y179.126 E0.04555
G1 X158.640 Y179.126 E0.01675
G1 X157.048 Y177.534 E0.07066
G1 X157.015 Y176.968 E0.01779
G1 X159.174 Y179.126 E0.09578
G1 X159.707 Y179.126 E0.01675
G1 X156.983 Y176.402 E0.12090
G1 X156.951 Y175.836 E0.01779
G1 X160.241 Y179.126 E0.14602
G1 X160.775 Y179.126 E0.01675
G1 X156.919 Y175.270 E0.17114
G1 X156.886 Y174.704 E0.01779
G1 X161.309 Y179.126 E0.19626
G1 X161.842 Y179.126 E0.01675
G1 X156.854 Y174.138 E0.22138
G1 X156.822 Y173.572 E0.01779
G1 X162.376 Y179.126 E0.24650
G1 X162.910 Y179.126 E0.01675
G1 X156.789 Y173.006 E0.27162
G1 X156.757 Y172.440 E0.01779
G1 X163.443 Y179.126 E0.29674
G1 X163.977 Y179.126 E0.01675
G1 X156.725 Y171.874 E0.32186
G1 X156.690 Y171.305 E0.01789
G1 X164.511 Y179.126 E0.34710
G1 X165.045 Y179.126 E0.01675
G1 X156.652 Y170.734 E0.37247
G1 X156.614 Y170.162 E0.01797
G1 X165.578 Y179.126 E0.39783
G1 X166.112 Y179.126 E0.01675
G1 X156.577 Y169.591 E0.42319
G1 X156.539 Y169.019 E0.01797
G1 X166.646 Y179.126 E0.44855
G1 X166.844 Y179.126 E0.00622
G1 X166.831 Y178.778 E0.01093
G1 X156.501 Y168.448 E0.45846
G1 X156.464 Y167.877 E0.01797
G1 X166.812 Y178.225 E0.45926
G1 X166.792 Y177.671 E0.01738
G1 X156.426 Y167.305 E0.46005
G1 X156.384 Y166.730 E0.01810
G1 X166.772 Y177.118 E0.46101
G1 X166.752 Y176.564 E0.01738
G1 X156.343 Y166.155 E0.46198
G1 X156.301 Y165.579 E0.01810
G1 X166.733 Y176.011 E0.46294
G1 X166.713 Y175.457 E0.01738
G1 X156.260 Y165.004 E0.46391
G1 X156.218 Y164.429 E0.01810
G1 X166.692 Y174.902 E0.46482
G1 X166.669 Y174.346 E0.01749
G1 X156.177 Y163.853 E0.46564
G1 X156.135 Y163.278 E0.01810
G1 X166.646 Y173.789 E0.46646
G1 X166.623 Y173.232 E0.01749
G1 X156.092 Y162.701 E0.46736
G1 X156.046 Y162.122 E0.01824
G1 X166.600 Y172.675 E0.46836
G1 X166.576 Y172.118 E0.01749
G1 X156.001 Y161.543 E0.46936
G1 X155.955 Y160.963 E0.01824
G1 X166.553 Y171.562 E0.47036
G1 X166.530 Y171.005 E0.01749
G1 X155.909 Y160.384 E0.47136
G1 X155.864 Y159.805 E0.01824
G1 X166.507 Y170.448 E0.47236
G1 X166.484 Y169.891 E0.01750
G1 X155.818 Y159.225 E0.47335
G1 X155.773 Y158.646 E0.01824
G1 X166.458 Y169.331 E0.47419
G1 X166.431 Y168.771 E0.01760
G1 X155.723 Y158.063 E0.47521
G1 X155.674 Y157.479 E0.01838
G1 X166.404 Y168.210 E0.47624
G1 X166.378 Y167.650 E0.01760
G1 X155.624 Y156.896 E0.47727
G1 X155.574 Y156.312 E0.01838
G1 X166.351 Y167.090 E0.47830
G1 X166.325 Y166.530 E0.01760
G1 X155.524 Y155.729 E0.47934
G1 X155.475 Y155.145 E0.01838
G1 X166.298 Y165.969 E0.48037
G1 X166.272 Y165.409 E0.01760
G1 X155.425 Y154.562 E0.48140
G1 X155.373 Y153.976 E0.01845
G1 X166.245 Y164.849 E0.48252
G1 X166.216 Y164.286 E0.01769
G1 X155.319 Y153.388 E0.48363
G1 X155.265 Y152.801 E0.01853
G1 X166.186 Y163.722 E0.48470
G1 X166.156 Y163.158 E0.01772
G1 X155.210 Y152.213 E0.48577
G1 X155.156 Y151.625 E0.01853
G1 X166.126 Y162.595 E0.48685
G1 X166.096 Y162.031 E0.01772
G1 X155.102 Y151.037 E0.48792
G1 X155.048 Y150.449 E0.01853
G1 X166.066 Y161.467 E0.48899
G1 X166.036 Y160.903 E0.01772
G1 X154.993 Y149.861 E0.49008
G1 X154.935 Y149.268 E0.01869
G1 X166.004 Y160.338 E0.49127
G1 X165.970 Y159.770 E0.01784
G1 X154.876 Y148.676 E0.49238
G1 X154.817 Y148.083 E0.01869
G1 X165.937 Y159.203 E0.49349
G1 X165.903 Y158.635 E0.01784
G1 X154.758 Y147.491 E0.49460
G1 X154.699 Y146.898 E0.01869
G1 X165.869 Y158.068 E0.49572
G1 X165.835 Y157.500 E0.01784
G1 X154.641 Y146.305 E0.49683
G1 X154.582 Y145.713 E0.01869
G1 X165.802 Y156.933 E0.49794
G1 X165.768 Y156.365 E0.01784
G1 X154.519 Y145.117 E0.49921
G1 X154.455 Y144.519 E0.01886
G1 X165.734 Y155.798 E0.50055
G1 X165.700 Y155.230 E0.01784
G1 X154.392 Y143.922 E0.50188
G1 X154.328 Y143.324 E0.01886
G1 X165.667 Y154.663 E0.50321
G1 X165.633 Y154.095 E0.01784
G1 X154.264 Y142.727 E0.50454
G1 X154.200 Y142.129 E0.01886
G1 X165.596 Y153.525 E0.50575
G1 X165.558 Y152.953 E0.01799
G1 X154.137 Y141.532 E0.50689
G1 X154.072 Y140.933 E0.01889
G1 X165.520 Y152.381 E0.50807
G1 X165.482 Y151.809 E0.01799
G1 X154.003 Y140.331 E0.50942
G1 X153.934 Y139.728 E0.01903
G1 X165.444 Y151.237 E0.51078
G1 X165.405 Y150.665 E0.01799
G1 X153.866 Y139.126 E0.51214
G1 X153.797 Y138.523 E0.01903
G1 X165.367 Y150.093 E0.51350
G1 X165.329 Y149.521 E0.01799
G1 X153.728 Y137.920 E0.51486
G1 X153.659 Y137.318 E0.01903
G1 X165.290 Y148.949 E0.51619
G1 X165.248 Y148.373 E0.01812
G1 X153.590 Y136.715 E0.51738
G1 X153.518 Y136.109 E0.01916
G1 X165.206 Y147.797 E0.51872
G1 X165.164 Y147.222 E0.01812
G1 X153.444 Y135.502 E0.52013
G1 X153.370 Y134.894 E0.01920
G1 X165.122 Y146.646 E0.52154
G1 X165.080 Y146.070 E0.01812
G1 X153.297 Y134.287 E0.52294
G1 X153.223 Y133.679 E0.01920
G1 X165.038 Y145.494 E0.52435
G1 X164.996 Y144.918 E0.01812
G1 X153.149 Y133.072 E0.52575
G1 X153.075 Y132.464 E0.01920
G1 X164.950 Y144.338 E0.52698
G1 X164.903 Y143.759 E0.01825
G1 X153.000 Y131.855 E0.52829
G1 X152.921 Y131.243 E0.01938
G1 X164.857 Y143.179 E0.52974
G1 X164.811 Y142.599 E0.01825
M73 Q1 S102
G1 X152.842 Y130.630 E0.53119
M73 P2 R102
G1 X152.764 Y130.018 E0.01938
G1 X164.765 Y142.019 E0.53264
G1 X164.719 Y141.440 E0.01825
G1 X152.685 Y129.405 E0.53409
G1 X152.606 Y128.793 E0.01938
G1 X164.673 Y140.860 E0.53554
G1 X164.627 Y140.280 E0.01825
G1 X152.528 Y128.180 E0.53699
G1 X152.448 Y127.567 E0.01939
G1 X164.581 Y139.700 E0.53846
G1 X164.535 Y139.121 E0.01825
G1 X152.365 Y126.950 E0.54013
G1 X152.281 Y126.333 E0.01955
G1 X164.485 Y138.537 E0.54163
G1 X164.434 Y137.952 E0.01842
G1 X152.198 Y125.715 E0.54308
G1 X152.114 Y125.098 E0.01955
G1 X164.384 Y137.368 E0.54452
G1 X164.333 Y136.783 E0.01842
G1 X152.030 Y124.481 E0.54597
G1 X151.947 Y123.863 E0.01955
G1 X164.282 Y136.198 E0.54742
G1 X164.231 Y135.613 E0.01842
G1 X151.863 Y123.246 E0.54887
G1 X151.775 Y122.624 E0.01971
G1 X164.180 Y135.029 E0.55051
G1 X164.129 Y134.444 E0.01842
G1 X151.687 Y122.002 E0.55218
G1 X151.598 Y121.380 E0.01972
G1 X164.078 Y133.859 E0.55384
G1 X164.022 Y133.270 E0.01856
G1 X151.510 Y120.758 E0.55531
G1 X151.421 Y120.136 E0.01972
G1 X163.967 Y132.681 E0.55677
G1 X163.911 Y132.092 E0.01857
G1 X151.333 Y119.513 E0.55823
G1 X151.245 Y118.891 E0.01972
G1 X163.856 Y131.503 E0.55969
G1 X163.800 Y130.913 E0.01857
G1 X151.152 Y118.265 E0.56134
G1 X151.059 Y117.638 E0.01989
G1 X163.745 Y130.324 E0.56301
G1 X163.689 Y129.735 E0.01857
G1 X150.965 Y117.011 E0.56469
G1 X150.872 Y116.384 E0.01989
G1 X163.634 Y129.146 E0.56636
G1 X163.577 Y128.555 E0.01861
G1 X150.779 Y115.757 E0.56799
G1 X150.686 Y115.130 E0.01989
G1 X163.517 Y127.961 E0.56946
G1 X163.457 Y127.368 E0.01873
G1 X150.593 Y114.503 E0.57093
G1 X150.495 Y113.872 E0.02005
G1 X163.397 Y126.774 E0.57259
G1 X163.337 Y126.180 E0.01873
G1 X150.397 Y113.240 E0.57428
G1 X150.299 Y112.608 E0.02006
G1 X163.277 Y125.586 E0.57596
G1 X163.217 Y124.992 E0.01873
G1 X150.201 Y111.977 E0.57764
G1 X150.103 Y111.345 E0.02006
G1 X163.157 Y124.399 E0.57932
G1 X163.097 Y123.805 E0.01873
G1 X150.005 Y110.713 E0.58101
G1 X149.907 Y110.081 E0.02007
G1 X163.034 Y123.208 E0.58258
G1 X162.969 Y122.610 E0.01888
G1 X149.804 Y109.445 E0.58428
G1 X149.701 Y108.808 E0.02024
G1 X162.905 Y122.012 E0.58599
G1 X162.840 Y121.414 E0.01888
G1 X149.598 Y108.171 E0.58769
G1 X149.495 Y107.535 E0.02024
G1 X162.776 Y120.815 E0.58940
G1 X162.711 Y120.217 E0.01888
G1 X149.392 Y106.898 E0.59110
G1 X149.289 Y106.261 E0.02024
G1 X162.647 Y119.619 E0.59281
G1 X162.582 Y119.021 E0.01888
G1 X149.187 Y105.625 E0.59451
G1 X149.083 Y104.987 E0.02028
G1 X162.514 Y118.419 E0.59611
G1 X162.446 Y117.816 E0.01904
G1 X148.975 Y104.346 E0.59783
G1 X148.867 Y103.704 E0.02041
G1 X162.377 Y117.214 E0.59956
G1 X162.308 Y116.611 E0.01904
G1 X148.759 Y103.063 E0.60128
G1 X148.652 Y102.421 E0.02041
G1 X162.239 Y116.008 E0.60301
G1 X162.170 Y115.406 E0.01904
G1 X148.544 Y101.780 E0.60473
G1 X148.436 Y101.138 E0.02041
G1 X162.101 Y114.803 E0.60646
G1 X162.032 Y114.200 E0.01904
G1 X148.328 Y100.497 E0.60818
G1 X148.218 Y99.853 E0.02050
G1 X161.963 Y113.598 E0.61000
G1 X161.949 Y113.471 E0.00399
G1 X161.890 Y112.991 E0.01518
G1 X148.106 Y99.207 E0.61176
G1 X147.993 Y98.561 E0.02058
G1 X161.817 Y112.384 E0.61348
G1 X161.743 Y111.776 E0.01920
G1 X147.881 Y97.915 E0.61519
G1 X147.769 Y97.268 E0.02058
G1 X161.669 Y111.169 E0.61691
G1 X161.595 Y110.561 E0.01920
G1 X147.656 Y96.622 E0.61862
G1 X147.544 Y95.976 E0.02058
G1 X161.522 Y109.954 E0.62033
G1 X161.448 Y109.347 E0.01920
G1 X147.432 Y95.330 E0.62205
G1 X147.314 Y94.679 E0.02078
G1 X161.374 Y108.739 E0.62401
G1 X161.301 Y108.132 E0.01920
G1 X147.195 Y94.026 E0.62600
G1 X147.077 Y93.374 E0.02080
G1 X161.221 Y107.518 E0.62773
G1 X161.142 Y106.905 E0.01941
G1 X146.958 Y92.722 E0.62946
G1 X146.840 Y92.069 E0.02080
G1 X161.062 Y106.292 E0.63119
G1 X160.982 Y105.679 E0.01941
G1 X146.721 Y91.417 E0.63292
M73 Q2 S101
G1 X146.602 Y90.765 E0.02080
G1 X160.903 Y105.065 E0.63465
M73 P2 R100
G1 X160.823 Y104.452 E0.01941
G1 X146.484 Y90.113 E0.63638
G1 X146.365 Y89.460 E0.02080
G1 X160.744 Y103.839 E0.63811
G1 X160.664 Y103.225 E0.01941
G1 X146.247 Y88.808 E0.63984
G1 X146.128 Y88.156 E0.02080
G1 X160.585 Y102.612 E0.64157
G1 X160.505 Y101.999 E0.01941
G1 X146.010 Y87.504 E0.64330
G1 X145.891 Y86.851 E0.02080
G1 X160.425 Y101.385 E0.64503
G1 X160.346 Y100.772 E0.01941
G1 X145.773 Y86.199 E0.64676
G1 X145.654 Y85.546 E0.02082
G1 X160.266 Y100.159 E0.64851
G1 X160.187 Y99.545 E0.01941
G1 X145.530 Y84.888 E0.65048
G1 X145.406 Y84.231 E0.02101
G1 X160.107 Y98.932 E0.65243
G1 X160.020 Y98.311 E0.01966
G1 X145.282 Y83.573 E0.65409
G1 X145.158 Y82.915 E0.02101
G1 X159.933 Y97.691 E0.65575
G1 X159.846 Y97.070 E0.01966
G1 X145.033 Y82.257 E0.65740
G1 X144.909 Y81.600 E0.02101
G1 X159.760 Y96.450 E0.65906
