; generated by PrusaSlicer 2.2.0+linux-x64 on 2020-07-03 at 07:02:26 UTC

; 

; external perimeters extrusion width = 0.45mm
; perimeters extrusion width = 0.45mm
; infill extrusion width = 0.45mm
; solid infill extrusion width = 0.45mm
; top infill extrusion width = 0.40mm
; first layer extrusion width = 0.42mm

M73 P0 R68
M73 Q0 S69
M201 X1000 Y1000 Z200 E5000 ; sets maximum accelerations, mm/sec^2
M203 X200 Y200 Z12 E120 ; sets maximum feedrates, mm/sec
M204 P1250 R1250 T1250 ; sets acceleration (P, T) and retract acceleration (R), mm/sec^2
M205 X8.00 Y8.00 Z0.40 E4.50 ; sets the jerk limits, mm/sec
M205 S0 T0 ; sets the minimum extruding and travel feed rate, mm/sec
M107
M862.3 P "MK3" ; printer model check
M862.1 P0.4 ; nozzle diameter check
M115 U3.9.0 ; tell printer latest fw version
G90 ; use absolute coordinates
M83 ; extruder relative mode
M104 S225 ; set extruder temp
M140 S60 ; set bed temp
M190 S60 ; wait for bed temp
M109 S225 ; wait for extruder temp
G28 W ; home all without mesh bed level
G80 ; mesh bed leveling
G1 Y-3.0 F1000.0 ; go outside print area
G92 E0.0
G1 X60.0 E9.0 F1000.0 ; intro line
M73 Q0 S68
M73 P0 R68
G1 X100.0 E12.5 F1000.0 ; intro line
G92 E0.0
M221 S95
G21 ; set units to millimeters
G90 ; use absolute coordinates
M83 ; use relative distances for extrusion
M900 K0.06 ; Filament gcode LA 1.5
M900 K30 ; Filament gcode LA 1.0
;BEFORE_LAYER_CHANGE
G92 E0.0
;0.2


G1 E-0.80000 F2100.00000
G1 Z0.600 F10800.000
;AFTER_LAYER_CHANGE
;0.2
G1 X73.337 Y80.052
G1 Z0.200
G1 E0.80000 F2100.00000
M204 S1000
G1 F1200.000
G1 X74.242 Y79.871 E0.02896
G1 X175.758 Y79.871 E3.18295
G1 X176.478 Y79.984 E0.02284
G1 X177.129 Y80.310 E0.02284
G1 X177.652 Y80.817 E0.02284
G1 X177.995 Y81.455 E0.02272
G1 X192.433 Y127.056 E1.49972
G1 X192.531 Y127.925 E0.02743
G1 X192.309 Y128.768 E0.02731
G1 X191.798 Y129.474 E0.02731
G1 X191.068 Y129.948 E0.02731
G1 X190.162 Y130.129 E0.02896
G1 X59.817 Y130.128 E4.08688
G1 X59.131 Y130.020 E0.02178
G1 X58.509 Y129.721 E0.02166
G1 X57.999 Y129.255 E0.02166
G1 X57.643 Y128.658 E0.02178
G1 X57.466 Y127.863 E0.02555
G1 X57.566 Y127.058 E0.02543
G1 X71.984 Y81.517 E1.49777
G1 X72.194 Y81.048 E0.01609
G1 X72.500 Y80.636 E0.01609
G1 X72.886 Y80.299 E0.01609
G1 X73.284 Y80.081 E0.01421
G1 F8640.000
G1 X74.242 Y79.871 E-0.22649
G1 X76.553 Y79.871 E-0.53351
G1 E-0.04000 F2100.00000
G1 Z0.800 F10800.000
G1 X74.831 Y83.036
G1 Z0.200
G1 E0.80000 F2100.00000
G1 F1200.000
G1 X175.169 Y83.036 E3.14605
G1 X178.236 Y93.220 E0.33348
G1 X179.589 Y97.606 E0.14391
G1 X181.358 Y103.246 E0.18535
G1 X183.950 Y111.319 E0.26584
G1 X189.074 Y126.964 E0.51619
G1 X162.523 Y126.964 E0.83250
G1 X161.062 Y123.169 E0.12753
G1 X159.498 Y119.209 E0.13349
G1 X157.906 Y115.272 E0.13313
G1 X156.272 Y111.312 E0.13433
G1 X154.579 Y107.281 E0.13707
G1 X152.196 Y101.704 E0.19016
G1 X147.715 Y91.461 E0.35053
G1 X102.285 Y91.461 E1.42446
G1 X97.804 Y101.704 E0.35053
G1 X95.421 Y107.281 E0.19016
G1 X93.728 Y111.312 E0.13707
G1 X92.094 Y115.272 E0.13433
G1 X90.502 Y119.209 E0.13313
G1 X88.938 Y123.169 E0.13349
G1 X87.477 Y126.964 E0.12753
G1 X60.926 Y126.964 E0.83250
G1 X65.903 Y111.770 E0.50131
G1 X68.561 Y103.499 E0.27241
G1 X70.328 Y97.874 E0.18488
G1 X71.678 Y93.500 E0.14351
G1 X74.813 Y83.093 E0.34079
G1 F8640.000
G1 X78.105 Y83.091 E-0.76000
G1 E-0.04000 F2100.00000
G1 Z0.800 F10800.000
G1 X147.469 Y91.839
G1 Z0.200
G1 E0.80000 F2100.00000
G1 F1200.000
G1 X102.531 Y91.839 E1.40899
G1 X98.150 Y101.854 E0.34275
G1 X95.768 Y107.428 E0.19007
G1 X94.076 Y111.457 E0.13700
G1 X92.443 Y115.415 E0.13425
G1 X90.853 Y119.349 E0.13304
G1 X89.290 Y123.306 E0.13340
G1 X87.736 Y127.341 E0.13560
G1 X60.405 Y127.341 E0.85693
G1 X65.544 Y111.654 E0.51759
G1 X68.202 Y103.385 E0.27234
G1 X69.968 Y97.761 E0.18481
G1 X71.317 Y93.390 E0.14344
G1 X74.551 Y82.659 E0.35142
G1 X175.449 Y82.659 E3.16362
G1 X178.597 Y93.110 E0.34223
G1 X179.949 Y97.494 E0.14384
G1 X181.718 Y103.132 E0.18528
G1 X184.309 Y111.203 E0.26577
G1 X189.595 Y127.341 E0.53247
G1 X162.264 Y127.341 E0.85693
G1 X160.710 Y123.306 E0.13560
G1 X159.147 Y119.349 E0.13340
G1 X157.557 Y115.415 E0.13304
G1 X155.924 Y111.457 E0.13425
G1 X154.232 Y107.428 E0.13700
G1 X151.850 Y101.854 E0.19007
G1 X147.493 Y91.894 E0.34087
G1 X147.414 Y91.442 F10800.000
G1 F8640.000
G1 X144.201 Y91.889 E-0.76000
G1 E-0.04000 F2100.00000
G1 Z0.800 F10800.000
G1 X175.417 Y84.250
G1 Z0.200
G1 E0.80000 F2100.00000
M73 Q1 S67
G1 F1200.000
G1 X174.485 Y83.318 E0.04142
G1 X173.951 Y83.318 E0.01682
G1 X175.394 Y84.762 E0.06418
G1 X175.624 Y85.527 E0.02513
G1 X173.416 Y83.318 E0.09822
G1 X172.881 Y83.318 E0.01682
G1 X175.855 Y86.292 E0.13225
M73 P1 R67
G1 X176.085 Y87.057 E0.02513
G1 X172.346 Y83.318 E0.16629
G1 X171.811 Y83.318 E0.01682
G1 X176.315 Y87.823 E0.20032
G1 X176.546 Y88.588 E0.02513
G1 X171.276 Y83.318 E0.23436
G1 X170.741 Y83.318 E0.01682
G1 X176.776 Y89.353 E0.26839
G1 X177.007 Y90.119 E0.02513
G1 X170.207 Y83.318 E0.30243
G1 X169.672 Y83.318 E0.01682
G1 X177.237 Y90.884 E0.33647
G1 X177.468 Y91.649 E0.02513
G1 X169.137 Y83.318 E0.37050
G1 X168.602 Y83.318 E0.01682
G1 X177.698 Y92.415 E0.40454
G1 X177.929 Y93.180 E0.02513
G1 X168.067 Y83.318 E0.43857
G1 X167.532 Y83.318 E0.01682
G1 X178.166 Y93.952 E0.47291
G1 X178.404 Y94.725 E0.02545
G1 X166.997 Y83.318 E0.50730
G1 X166.463 Y83.318 E0.01682
G1 X178.643 Y95.499 E0.54170
G1 X178.881 Y96.272 E0.02545
G1 X165.928 Y83.318 E0.57609
G1 X165.393 Y83.318 E0.01682
G1 X179.120 Y97.045 E0.61049
G1 X179.359 Y97.820 E0.02549
G1 X164.858 Y83.318 E0.64492
G1 X164.323 Y83.318 E0.01682
G1 X179.604 Y98.599 E0.67959
G1 X179.848 Y99.379 E0.02569
G1 X163.788 Y83.318 E0.71425
G1 X163.253 Y83.318 E0.01682
G1 X180.093 Y100.158 E0.74892
G1 X180.337 Y100.937 E0.02569
G1 X162.719 Y83.318 E0.78358
G1 X162.184 Y83.318 E0.01682
G1 X180.582 Y101.717 E0.81824
G1 X180.827 Y102.496 E0.02569
G1 X161.649 Y83.318 E0.85291
G1 X161.114 Y83.318 E0.01682
G1 X181.071 Y103.276 E0.88757
G1 X181.324 Y104.063 E0.02600
G1 X160.579 Y83.318 E0.92258
G1 X160.044 Y83.318 E0.01682
G1 X181.576 Y104.851 E0.95762
G1 X181.829 Y105.638 E0.02602
G1 X159.509 Y83.318 E0.99265
G1 X158.975 Y83.318 E0.01682
G1 X182.082 Y106.426 E1.02769
G1 X182.335 Y107.214 E0.02602
G1 X158.440 Y83.318 E1.06273
G1 X157.905 Y83.318 E0.01682
G1 X182.588 Y108.002 E1.09776
G1 X182.841 Y108.790 E0.02602
G1 X157.370 Y83.318 E1.13280
G1 X156.835 Y83.318 E0.01682
G1 X183.094 Y109.577 E1.16783
G1 X183.347 Y110.365 E0.02602
G1 X156.300 Y83.318 E1.20287
G1 X155.765 Y83.318 E0.01682
G1 X183.600 Y111.153 E1.23791
G1 X183.858 Y111.946 E0.02622
G1 X155.231 Y83.318 E1.27317
G1 X154.696 Y83.318 E0.01682
G1 X184.118 Y112.741 E1.30854
G1 X184.379 Y113.537 E0.02632
G1 X154.161 Y83.318 E1.34392
G1 X153.626 Y83.318 E0.01682
G1 X184.639 Y114.332 E1.37929
G1 X184.900 Y115.127 E0.02632
G1 X153.091 Y83.318 E1.41466
G1 X152.556 Y83.318 E0.01682
G1 X185.160 Y115.923 E1.45003
G1 X185.421 Y116.718 E0.02632
G1 X152.021 Y83.318 E1.48541
G1 X151.487 Y83.318 E0.01682
G1 X185.681 Y117.513 E1.52078
G1 X185.942 Y118.309 E0.02632
G1 X150.952 Y83.318 E1.55615
G1 X150.417 Y83.318 E0.01682
G1 X186.202 Y119.104 E1.59152
M73 Q3 S66
M73 P3 R66
G1 X186.463 Y119.899 E0.02632
G1 X149.882 Y83.318 E1.62690
G1 X149.347 Y83.318 E0.01682
G1 X186.723 Y120.695 E1.66227
G1 X186.984 Y121.490 E0.02632
G1 X148.812 Y83.318 E1.69764
G1 X148.277 Y83.318 E0.01682
G1 X187.244 Y122.286 E1.73302
G1 X187.505 Y123.081 E0.02632
G1 X147.742 Y83.318 E1.76839
G1 X147.208 Y83.318 E0.01682
G1 X187.765 Y123.876 E1.80376
G1 X188.026 Y124.672 E0.02632
G1 X146.673 Y83.318 E1.83913
G1 X146.138 Y83.318 E0.01682
G1 X188.286 Y125.467 E1.87451
G1 X188.547 Y126.262 E0.02632
G1 X145.603 Y83.318 E1.90988
G1 X145.068 Y83.318 E0.01682
G1 X188.431 Y126.682 E1.92852
G1 X187.896 Y126.682 E0.01682
G1 X144.533 Y83.318 E1.92852
G1 X143.998 Y83.318 E0.01682
G1 X187.362 Y126.682 E1.92852
G1 X186.827 Y126.682 E0.01682
G1 X143.464 Y83.318 E1.92852
G1 X142.929 Y83.318 E0.01682
G1 X186.292 Y126.682 E1.92852
G1 X185.757 Y126.682 E0.01682
G1 X142.394 Y83.318 E1.92852
G1 X141.859 Y83.318 E0.01682
G1 X185.222 Y126.682 E1.92852
G1 X184.687 Y126.682 E0.01682
G1 X141.324 Y83.318 E1.92852
G1 X140.789 Y83.318 E0.01682
G1 X184.152 Y126.682 E1.92852
G1 X183.618 Y126.682 E0.01682
G1 X140.254 Y83.318 E1.92852
G1 X139.720 Y83.318 E0.01682
G1 X147.580 Y91.179 E0.34957
G1 X147.045 Y91.179 E0.01682
G1 X139.185 Y83.318 E0.34957
G1 X138.650 Y83.318 E0.01682
G1 X146.510 Y91.179 E0.34957
G1 X145.975 Y91.179 E0.01682
G1 X138.115 Y83.318 E0.34957
G1 X137.580 Y83.318 E0.01682
G1 X145.440 Y91.179 E0.34957
G1 X144.906 Y91.179 E0.01682
G1 X137.045 Y83.318 E0.34957
M73 Q4 S65
M73 P4 R65
G1 X136.510 Y83.318 E0.01682
G1 X144.371 Y91.179 E0.34957
G1 X143.836 Y91.179 E0.01682
G1 X135.976 Y83.318 E0.34957
G1 X135.441 Y83.318 E0.01682
G1 X143.301 Y91.179 E0.34957
G1 X142.766 Y91.179 E0.01682
G1 X134.906 Y83.318 E0.34957
G1 X134.371 Y83.318 E0.01682
G1 X142.231 Y91.179 E0.34957
G1 X141.696 Y91.179 E0.01682
G1 X133.836 Y83.318 E0.34957
G1 X133.301 Y83.318 E0.01682
G1 X141.162 Y91.179 E0.34957
G1 X140.627 Y91.179 E0.01682
G1 X132.766 Y83.318 E0.34957
G1 X132.232 Y83.318 E0.01682
G1 X140.092 Y91.179 E0.34957
G1 X139.557 Y91.179 E0.01682
G1 X131.697 Y83.318 E0.34957
G1 X131.162 Y83.318 E0.01682
G1 X139.022 Y91.179 E0.34957
G1 X138.487 Y91.179 E0.01682
G1 X130.627 Y83.318 E0.34957
G1 X130.092 Y83.318 E0.01682
G1 X137.952 Y91.179 E0.34957
G1 X137.417 Y91.179 E0.01682
G1 X129.557 Y83.318 E0.34957
G1 X129.022 Y83.318 E0.01682
G1 X136.883 Y91.179 E0.34957
G1 X136.348 Y91.179 E0.01682
G1 X128.488 Y83.318 E0.34957
G1 X127.953 Y83.318 E0.01682
G1 X135.813 Y91.179 E0.34957
G1 X135.278 Y91.179 E0.01682
G1 X127.418 Y83.318 E0.34957
G1 X126.883 Y83.318 E0.01682
G1 X134.743 Y91.179 E0.34957
G1 X134.208 Y91.179 E0.01682
G1 X126.348 Y83.318 E0.34957
G1 X125.813 Y83.318 E0.01682
G1 X133.673 Y91.179 E0.34957
G1 X133.139 Y91.179 E0.01682
G1 X125.278 Y83.318 E0.34957
G1 X124.744 Y83.318 E0.01682
G1 X132.604 Y91.179 E0.34957
G1 X132.069 Y91.179 E0.01682
G1 X124.209 Y83.318 E0.34957
G1 X123.674 Y83.318 E0.01682
G1 X131.534 Y91.179 E0.34957
G1 X130.999 Y91.179 E0.01682
G1 X123.139 Y83.318 E0.34957
G1 X122.604 Y83.318 E0.01682
G1 X130.464 Y91.179 E0.34957
G1 X129.929 Y91.179 E0.01682
G1 X122.069 Y83.318 E0.34957
G1 X121.534 Y83.318 E0.01682
G1 X129.395 Y91.179 E0.34957
G1 X128.860 Y91.179 E0.01682
G1 X120.999 Y83.318 E0.34957
G1 X120.465 Y83.318 E0.01682
G1 X128.325 Y91.179 E0.34957
G1 X127.790 Y91.179 E0.01682
G1 X119.930 Y83.318 E0.34957
G1 X119.395 Y83.318 E0.01682
G1 X127.255 Y91.179 E0.34957
G1 X126.720 Y91.179 E0.01682
G1 X118.860 Y83.318 E0.34957
G1 X118.325 Y83.318 E0.01682
G1 X126.185 Y91.179 E0.34957
G1 X125.651 Y91.179 E0.01682
G1 X117.790 Y83.318 E0.34957
G1 X117.255 Y83.318 E0.01682
G1 X125.116 Y91.179 E0.34957
G1 X124.581 Y91.179 E0.01682
G1 X116.721 Y83.318 E0.34957
G1 X116.186 Y83.318 E0.01682
G1 X124.046 Y91.179 E0.34957
G1 X123.511 Y91.179 E0.01682
G1 X115.651 Y83.318 E0.34957
G1 X115.116 Y83.318 E0.01682
G1 X122.976 Y91.179 E0.34957
G1 X122.441 Y91.179 E0.01682
G1 X114.581 Y83.318 E0.34957
G1 X114.046 Y83.318 E0.01682
G1 X121.907 Y91.179 E0.34957
G1 X121.372 Y91.179 E0.01682
G1 X113.511 Y83.318 E0.34957
G1 X112.977 Y83.318 E0.01682
G1 X120.837 Y91.179 E0.34957
G1 X120.302 Y91.179 E0.01682
G1 X112.442 Y83.318 E0.34957
G1 X111.907 Y83.318 E0.01682
G1 X119.767 Y91.179 E0.34957
G1 X119.232 Y91.179 E0.01682
G1 X111.372 Y83.318 E0.34957
G1 X110.837 Y83.318 E0.01682
G1 X118.697 Y91.179 E0.34957
G1 X118.163 Y91.179 E0.01682
G1 X110.302 Y83.318 E0.34957
G1 X109.767 Y83.318 E0.01682
G1 X117.628 Y91.179 E0.34957
G1 X117.093 Y91.179 E0.01682
G1 X109.233 Y83.318 E0.34957
G1 X108.698 Y83.318 E0.01682
G1 X116.558 Y91.179 E0.34957
G1 X116.023 Y91.179 E0.01682
G1 X108.163 Y83.318 E0.34957
G1 X107.628 Y83.318 E0.01682
G1 X115.488 Y91.179 E0.34957
G1 X114.953 Y91.179 E0.01682
G1 X107.093 Y83.318 E0.34957
G1 X106.558 Y83.318 E0.01682
G1 X114.419 Y91.179 E0.34957
G1 X113.884 Y91.179 E0.01682
G1 X106.023 Y83.318 E0.34957
G1 X105.489 Y83.318 E0.01682
G1 X113.349 Y91.179 E0.34957
G1 X112.814 Y91.179 E0.01682
G1 X104.954 Y83.318 E0.34957
G1 X104.419 Y83.318 E0.01682
G1 X112.279 Y91.179 E0.34957
G1 X111.744 Y91.179 E0.01682
G1 X103.884 Y83.318 E0.34957
G1 X103.349 Y83.318 E0.01682
G1 X111.209 Y91.179 E0.34957
G1 X110.675 Y91.179 E0.01682
G1 X102.814 Y83.318 E0.34957
G1 X102.279 Y83.318 E0.01682
G1 X110.140 Y91.179 E0.34957
G1 X109.605 Y91.179 E0.01682
G1 X101.745 Y83.318 E0.34957
G1 X101.210 Y83.318 E0.01682
G1 X109.070 Y91.179 E0.34957
G1 X108.535 Y91.179 E0.01682
G1 X100.675 Y83.318 E0.34957
G1 X100.140 Y83.318 E0.01682
G1 X108.000 Y91.179 E0.34957
G1 X107.465 Y91.179 E0.01682
G1 X99.605 Y83.318 E0.34957
G1 X99.070 Y83.318 E0.01682
G1 X106.930 Y91.179 E0.34957
G1 X106.396 Y91.179 E0.01682
G1 X98.535 Y83.318 E0.34957
G1 X98.001 Y83.318 E0.01682
G1 X105.861 Y91.179 E0.34957
G1 X105.326 Y91.179 E0.01682
G1 X97.466 Y83.318 E0.34957
G1 X96.931 Y83.318 E0.01682
G1 X104.791 Y91.179 E0.34957
G1 X104.256 Y91.179 E0.01682
G1 X96.396 Y83.318 E0.34957
G1 X95.861 Y83.318 E0.01682
G1 X103.721 Y91.179 E0.34957
G1 X103.186 Y91.179 E0.01682
G1 X95.326 Y83.318 E0.34957
G1 X94.791 Y83.318 E0.01682
G1 X102.652 Y91.179 E0.34957
G1 X102.117 Y91.179 E0.01682
G1 X94.257 Y83.318 E0.34957
G1 X93.722 Y83.318 E0.01682
G1 X101.942 Y91.539 E0.36559
G1 X101.779 Y91.911 E0.01277
G1 X93.187 Y83.318 E0.38214
G1 X92.652 Y83.318 E0.01682
G1 X101.617 Y92.283 E0.39869
G1 X101.454 Y92.655 E0.01277
G1 X92.117 Y83.318 E0.41524
G1 X91.582 Y83.318 E0.01682
G1 X101.291 Y93.027 E0.43179
G1 X101.128 Y93.399 E0.01277
G1 X91.047 Y83.318 E0.44834
G1 X90.512 Y83.318 E0.01682
G1 X100.965 Y93.771 E0.46488
G1 X100.803 Y94.144 E0.01277
G1 X89.978 Y83.318 E0.48143
G1 X89.443 Y83.318 E0.01682
G1 X100.640 Y94.516 E0.49798
G1 X100.477 Y94.888 E0.01277
G1 X88.908 Y83.318 E0.51453
G1 X88.373 Y83.318 E0.01682
G1 X100.314 Y95.260 E0.53108
G1 X100.152 Y95.632 E0.01277
G1 X87.838 Y83.318 E0.54763
G1 X87.303 Y83.318 E0.01682
G1 X99.989 Y96.004 E0.56418
G1 X99.826 Y96.376 E0.01277
G1 X86.768 Y83.318 E0.58073
G1 X86.234 Y83.318 E0.01682
G1 X99.663 Y96.748 E0.59727
G1 X99.501 Y97.120 E0.01277
G1 X85.699 Y83.318 E0.61382
M73 Q5 S64
M73 P5 R64
G1 X85.164 Y83.318 E0.01682
G1 X99.338 Y97.492 E0.63037
G1 X99.175 Y97.865 E0.01277
G1 X84.629 Y83.318 E0.64692
G1 X84.094 Y83.318 E0.01682
G1 X99.012 Y98.237 E0.66347
G1 X98.850 Y98.609 E0.01277
G1 X83.559 Y83.318 E0.68002
G1 X83.024 Y83.318 E0.01682
G1 X98.687 Y98.981 E0.69657
G1 X98.524 Y99.353 E0.01277
G1 X82.490 Y83.318 E0.71312
G1 X81.955 Y83.318 E0.01682
G1 X98.361 Y99.725 E0.72966
G1 X98.199 Y100.097 E0.01277
G1 X81.420 Y83.318 E0.74621
G1 X80.885 Y83.318 E0.01682
G1 X98.036 Y100.469 E0.76276
G1 X97.873 Y100.841 E0.01277
G1 X80.350 Y83.318 E0.77931
G1 X79.815 Y83.318 E0.01682
G1 X97.710 Y101.213 E0.79586
G1 X97.548 Y101.586 E0.01277
G1 X79.280 Y83.318 E0.81241
G1 X78.746 Y83.318 E0.01682
G1 X97.387 Y101.960 E0.82907
G1 X97.227 Y102.335 E0.01281
G1 X78.211 Y83.318 E0.84573
G1 X77.676 Y83.318 E0.01682
G1 X97.067 Y102.710 E0.86240
G1 X96.907 Y103.084 E0.01281
G1 X77.141 Y83.318 E0.87906
G1 X76.606 Y83.318 E0.01682
G1 X96.747 Y103.459 E0.89573
G1 X96.587 Y103.834 E0.01281
G1 X76.071 Y83.318 E0.91239
G1 X75.536 Y83.318 E0.01682
G1 X96.426 Y104.208 E0.92906
G1 X96.266 Y104.583 E0.01281
G1 X75.032 Y83.349 E0.94438
G1 X74.908 Y83.760 E0.01350
G1 X96.106 Y104.958 E0.94276
G1 X95.946 Y105.332 E0.01281
G1 X74.784 Y84.171 E0.94115
G1 X74.660 Y84.582 E0.01350
G1 X95.786 Y105.707 E0.93953
G1 X95.626 Y106.082 E0.01281
G1 X74.536 Y84.993 E0.93791
G1 X74.413 Y85.404 E0.01350
G1 X95.465 Y106.457 E0.93630
G1 X95.305 Y106.831 E0.01281
G1 X74.289 Y85.815 E0.93468
G1 X74.165 Y86.226 E0.01350
G1 X95.145 Y107.206 E0.93308
G1 X94.987 Y107.583 E0.01285
G1 X74.041 Y86.637 E0.93155
G1 X73.917 Y87.048 E0.01350
G1 X94.829 Y107.959 E0.93002
G1 X94.671 Y108.336 E0.01285
G1 X73.793 Y87.459 E0.92849
G1 X73.670 Y87.870 E0.01350
G1 X94.512 Y108.713 E0.92696
G1 X94.354 Y109.089 E0.01285
G1 X73.546 Y88.281 E0.92544
