; generated by PrusaSlicer 2.2.0+linux-x64 on 2020-07-03 at 07:15:59 UTC

; 

; external perimeters extrusion width = 0.45mm
; perimeters extrusion width = 0.45mm
; infill extrusion width = 0.45mm
; solid infill extrusion width = 0.45mm
; top infill extrusion width = 0.40mm
; first layer extrusion width = 0.42mm

M73 P0 R105
M73 Q0 S106
M201 X1000 Y1000 Z200 E5000 ; sets maximum accelerations, mm/sec^2
M203 X200 Y200 Z12 E120 ; sets maximum feedrates, mm/sec
M204 P1250 R1250 T1250 ; sets acceleration (P, T) and retract acceleration (R), mm/sec^2
M205 X8.00 Y8.00 Z0.40 E4.50 ; sets the jerk limits, mm/sec
M205 S0 T0 ; sets the minimum extruding and travel feed rate, mm/sec
M107
M862.3 P "MK3" ; printer model check
M862.1 P0.4 ; nozzle diameter check
M115 U3.9.0 ; tell printer latest fw version
G90 ; use absolute coordinates
M83 ; extruder relative mode
M104 S225 ; set extruder temp
M140 S60 ; set bed temp
M190 S60 ; wait for bed temp
M109 S225 ; wait for extruder temp
G28 W ; home all without mesh bed level
G80 ; mesh bed leveling
G1 Y-3.0 F1000.0 ; go outside print area
G92 E0.0
G1 X60.0 E9.0 F1000.0 ; intro line
M73 Q0 S106
M73 P0 R105
G1 X100.0 E12.5 F1000.0 ; intro line
G92 E0.0
M221 S95
G21 ; set units to millimeters
G90 ; use absolute coordinates
M83 ; use relative distances for extrusion
M900 K0.06 ; Filament gcode LA 1.5
M900 K30 ; Filament gcode LA 1.0
;BEFORE_LAYER_CHANGE
G92 E0.0
;0.2


G1 E-0.80000 F2100.00000
G1 Z0.600 F10800.000
;AFTER_LAYER_CHANGE
;0.2
G1 X89.609 Y19.212
G1 Z0.200
G1 E0.80000 F2100.00000
M204 S1000
G1 F1200.000
G1 X89.939 Y18.575 E0.02249
G1 X90.447 Y18.064 E0.02260
G1 X91.085 Y17.728 E0.02260
G1 X91.795 Y17.599 E0.02260
G1 X152.263 Y17.496 E1.89594
G1 X153.165 Y17.675 E0.02884
G1 X153.931 Y18.184 E0.02884
G1 X154.447 Y18.945 E0.02884
G1 X154.636 Y19.845 E0.02884
G1 X154.745 Y43.702 E0.74802
G1 X154.837 Y155.388 E3.50185
G1 X154.581 Y194.897 E1.23881
G1 X154.454 Y195.638 E0.02355
G1 X154.122 Y196.277 E0.02260
G1 X153.612 Y196.788 E0.02260
G1 X152.974 Y197.122 E0.02260
G1 X152.264 Y197.249 E0.02260
G1 X91.915 Y197.353 E1.89219
G1 X91.149 Y197.226 E0.02437
G1 X90.500 Y196.885 E0.02296
G1 X89.988 Y196.367 E0.02284
G1 X89.657 Y195.718 E0.02284
G1 X89.538 Y194.996 E0.02296
G1 X89.324 Y165.004 E0.94039
G1 X89.284 Y141.333 E0.74220
G1 X89.404 Y31.874 E3.43199
G1 X89.483 Y19.937 E0.37429
G1 X89.599 Y19.271 E0.02119
G1 F8640.000
G1 X89.939 Y18.575 E-0.17885
G1 X90.447 Y18.064 E-0.16646
G1 X91.085 Y17.728 E-0.16646
G1 X91.795 Y17.599 E-0.16646
G1 X92.149 Y17.599 E-0.08176
G1 E-0.04000 F2100.00000
G1 Z0.800 F10800.000
G1 X92.642 Y20.763
G1 Z0.200
G1 E0.80000 F2100.00000
G1 F1200.000
G1 X102.443 Y20.763 E0.30732
G1 X102.370 Y30.462 E0.30412
G1 X102.334 Y41.290 E0.33952
G1 X102.335 Y52.175 E0.34128
G1 X102.411 Y84.450 E1.01197
G1 X102.412 Y95.556 E0.34823
G1 X102.385 Y106.693 E0.34919
G1 X102.247 Y139.731 E1.03590
G1 X102.249 Y151.120 E0.35708
G1 X102.313 Y162.286 E0.35009
G1 X102.441 Y173.055 E0.33770
G1 X102.637 Y184.159 E0.34820
G1 X102.851 Y194.189 E0.31455
G1 X92.697 Y194.189 E0.31836
G1 X92.488 Y164.986 E0.91564
G1 X92.446 Y155.486 E0.29788
G1 X92.449 Y141.335 E0.44371
G1 X92.605 Y98.971 E1.32829
G1 X92.608 Y85.069 E0.43589
G1 X92.538 Y43.807 E1.29373
G1 X92.569 Y31.884 E0.37385
G1 X92.642 Y20.823 E0.34682
G1 X92.267 Y20.386 F10800.000
G1 F1200.000
G1 X102.823 Y20.386 E0.33098
G1 X102.747 Y30.464 E0.31600
G1 X102.711 Y41.291 E0.33947
G1 X102.713 Y52.174 E0.34125
G1 X102.788 Y84.450 E1.01197
G1 X102.789 Y95.557 E0.34826
G1 X102.762 Y106.695 E0.34921
G1 X102.624 Y139.732 E1.03588
G1 X102.626 Y151.119 E0.35702
G1 X102.690 Y162.282 E0.35002
G1 X102.818 Y173.050 E0.33762
G1 X103.014 Y184.151 E0.34814
G1 X103.236 Y194.566 E0.32661
G1 X92.323 Y194.566 E0.34218
G1 X92.111 Y164.989 E0.92739
G1 X92.069 Y155.487 E0.29793
G1 X92.071 Y141.334 E0.44376
G1 X92.228 Y98.970 E1.32829
M73 Q1 S105
M73 P1 R104
G1 X92.231 Y85.069 E0.43586
G1 X92.161 Y43.807 E1.29375
G1 X92.191 Y31.882 E0.37390
G1 X92.267 Y20.446 E0.35859
G1 X92.614 Y20.586 F10800.000
G1 F8640.000
G1 X95.558 Y20.427 E-0.76000
G1 E-0.04000 F2100.00000
G1 Z0.800 F10800.000
G1 X93.574 Y194.075
G1 Z0.200
G1 E0.80000 F2100.00000
G1 F1200.000
G1 X92.975 Y193.477 E0.02661
G1 X92.971 Y192.938 E0.01692
G1 X93.939 Y193.906 E0.04299
G1 X94.473 Y193.906 E0.01680
G1 X92.967 Y192.400 E0.06692
G1 X92.963 Y191.862 E0.01692
G1 X95.008 Y193.906 E0.09084
G1 X95.542 Y193.906 E0.01680
G1 X92.960 Y191.323 E0.11477
G1 X92.956 Y190.785 E0.01692
G1 X96.077 Y193.906 E0.13869
G1 X96.611 Y193.906 E0.01680
G1 X92.952 Y190.247 E0.16262
G1 X92.948 Y189.708 E0.01692
G1 X97.145 Y193.906 E0.18655
G1 X97.680 Y193.906 E0.01680
G1 X92.944 Y189.170 E0.21047
G1 X92.940 Y188.632 E0.01692
G1 X98.214 Y193.906 E0.23440
G1 X98.749 Y193.906 E0.01680
G1 X92.936 Y188.093 E0.25832
G1 X92.933 Y187.555 E0.01692
G1 X99.283 Y193.906 E0.28225
G1 X99.818 Y193.906 E0.01680
G1 X92.929 Y187.017 E0.30617
G1 X92.925 Y186.478 E0.01692
G1 X100.352 Y193.906 E0.33010
G1 X100.887 Y193.906 E0.01680
G1 X92.921 Y185.940 E0.35403
G1 X92.917 Y185.402 E0.01692
G1 X101.421 Y193.906 E0.37795
G1 X101.956 Y193.906 E0.01680
G1 X92.913 Y184.863 E0.40188
G1 X92.909 Y184.325 E0.01692
G1 X102.490 Y193.906 E0.42580
G1 X102.562 Y193.906 E0.00226
G1 X102.552 Y193.433 E0.01486
G1 X92.906 Y183.787 E0.42872
G1 X92.902 Y183.248 E0.01692
G1 X102.540 Y192.887 E0.42837
G1 X102.529 Y192.341 E0.01717
G1 X92.898 Y182.710 E0.42803
G1 X92.894 Y182.171 E0.01692
G1 X102.517 Y191.795 E0.42768
G1 X102.506 Y191.249 E0.01717
G1 X92.890 Y181.633 E0.42734
G1 X92.886 Y181.095 E0.01692
G1 X102.494 Y190.702 E0.42699
G1 X102.482 Y190.156 E0.01717
G1 X92.882 Y180.556 E0.42665
G1 X92.879 Y180.018 E0.01692
G1 X102.471 Y189.610 E0.42630
G1 X102.459 Y189.064 E0.01717
G1 X92.875 Y179.480 E0.42595
G1 X92.871 Y178.941 E0.01692
G1 X102.447 Y188.518 E0.42561
G1 X102.436 Y187.972 E0.01717
G1 X92.867 Y178.403 E0.42526
G1 X92.863 Y177.865 E0.01692
G1 X102.424 Y187.426 E0.42492
G1 X102.413 Y186.880 E0.01717
G1 X92.859 Y177.326 E0.42457
G1 X92.855 Y176.788 E0.01692
G1 X102.401 Y186.333 E0.42423
G1 X102.389 Y185.787 E0.01717
G1 X92.852 Y176.250 E0.42388
G1 X92.848 Y175.711 E0.01692
G1 X102.378 Y185.241 E0.42354
G1 X102.366 Y184.695 E0.01717
G1 X92.844 Y175.173 E0.42319
G1 X92.840 Y174.635 E0.01692
G1 X102.354 Y184.149 E0.42285
G1 X102.345 Y183.605 E0.01710
G1 X92.836 Y174.096 E0.42259
G1 X92.832 Y173.558 E0.01692
G1 X102.335 Y183.061 E0.42234
G1 X102.326 Y182.517 E0.01710
G1 X92.828 Y173.020 E0.42208
G1 X92.825 Y172.481 E0.01692
G1 X102.316 Y181.973 E0.42182
G1 X102.306 Y181.428 E0.01710
G1 X92.821 Y171.943 E0.42157
G1 X92.817 Y171.405 E0.01692
G1 X102.297 Y180.884 E0.42131
G1 X102.287 Y180.340 E0.01710
G1 X92.813 Y170.866 E0.42105
G1 X92.809 Y170.328 E0.01692
G1 X102.277 Y179.796 E0.42080
G1 X102.268 Y179.252 E0.01710
G1 X92.805 Y169.790 E0.42054
G1 X92.801 Y169.251 E0.01692
G1 X102.258 Y178.708 E0.42028
G1 X102.249 Y178.164 E0.01710
G1 X92.798 Y168.713 E0.42003
G1 X92.794 Y168.174 E0.01692
G1 X102.239 Y177.620 E0.41977
G1 X102.229 Y177.076 E0.01710
G1 X92.790 Y167.636 E0.41951
G1 X92.786 Y167.098 E0.01692
G1 X102.220 Y176.531 E0.41926
G1 X102.210 Y175.987 E0.01710
G1 X92.782 Y166.559 E0.41900
G1 X92.778 Y166.021 E0.01692
G1 X102.200 Y175.443 E0.41875
G1 X102.191 Y174.899 E0.01710
G1 X92.774 Y165.483 E0.41849
G1 X92.771 Y164.945 E0.01691
G1 X102.181 Y174.355 E0.41823
G1 X102.172 Y173.811 E0.01710
G1 X92.768 Y164.408 E0.41790
G1 X92.766 Y163.871 E0.01687
G1 X102.162 Y173.267 E0.41758
G1 X102.154 Y172.725 E0.01704
G1 X92.764 Y163.334 E0.41734
G1 X92.761 Y162.797 E0.01687
G1 X102.148 Y172.184 E0.41716
G1 X102.141 Y171.643 E0.01700
G1 X92.759 Y162.260 E0.41698
G1 X92.757 Y161.723 E0.01687
G1 X102.135 Y171.102 E0.41680
G1 X102.128 Y170.561 E0.01700
G1 X92.754 Y161.187 E0.41662
G1 X92.752 Y160.650 E0.01687
G1 X102.122 Y170.020 E0.41644
G1 X102.116 Y169.479 E0.01700
G1 X92.750 Y160.113 E0.41626
G1 X92.747 Y159.576 E0.01687
G1 X102.109 Y168.938 E0.41607
G1 X102.103 Y168.397 E0.01700
G1 X92.745 Y159.039 E0.41589
G1 X92.742 Y158.502 E0.01687
G1 X102.096 Y167.856 E0.41571
G1 X102.090 Y167.315 E0.01700
G1 X92.740 Y157.966 E0.41553
G1 X92.738 Y157.429 E0.01687
G1 X102.083 Y166.774 E0.41535
G1 X102.077 Y166.234 E0.01700
G1 X92.735 Y156.892 E0.41517
G1 X92.733 Y156.355 E0.01687
G1 X102.071 Y165.693 E0.41499
G1 X102.064 Y165.152 E0.01700
G1 X92.731 Y155.818 E0.41480
G1 X92.729 Y155.282 E0.01684
G1 X102.058 Y164.611 E0.41458
G1 X102.051 Y164.070 E0.01700
G1 X92.729 Y154.748 E0.41429
G1 X92.729 Y154.214 E0.01679
G1 X102.045 Y163.529 E0.41400
G1 X102.038 Y162.988 E0.01700
G1 X92.730 Y153.679 E0.41371
G1 X92.730 Y153.145 E0.01679
G1 X102.032 Y162.447 E0.41342
G1 X102.028 Y161.909 E0.01692
G1 X92.730 Y152.610 E0.41324
G1 X92.730 Y152.076 E0.01679
G1 X102.025 Y161.371 E0.41310
G1 X102.022 Y160.833 E0.01689
G1 X92.730 Y151.541 E0.41296
G1 X92.730 Y151.007 E0.01679
G1 X102.019 Y160.296 E0.41282
G1 X102.016 Y159.758 E0.01689
G1 X92.730 Y150.473 E0.41268
G1 X92.730 Y149.938 E0.01679
G1 X102.013 Y159.221 E0.41254
G1 X102.010 Y158.683 E0.01689
G1 X92.730 Y149.404 E0.41240
G1 X92.730 Y148.869 E0.01679
G1 X102.007 Y158.146 E0.41226
G1 X102.003 Y157.608 E0.01689
G1 X92.730 Y148.335 E0.41213
M73 Q1 S104
G1 X92.730 Y147.801 E0.01679
G1 X102.000 Y157.071 E0.41199
M73 P1 R103
G1 X101.997 Y156.533 E0.01689
G1 X92.730 Y147.266 E0.41185
G1 X92.731 Y146.732 E0.01679
G1 X101.994 Y155.996 E0.41171
G1 X101.991 Y155.458 E0.01689
G1 X92.731 Y146.197 E0.41157
G1 X92.731 Y145.663 E0.01679
G1 X101.988 Y154.920 E0.41143
G1 X101.985 Y154.383 E0.01689
G1 X92.731 Y145.129 E0.41129
G1 X92.731 Y144.594 E0.01679
G1 X101.982 Y153.845 E0.41115
G1 X101.979 Y153.308 E0.01689
G1 X92.731 Y144.060 E0.41101
G1 X92.731 Y143.525 E0.01679
G1 X101.976 Y152.770 E0.41087
G1 X101.973 Y152.233 E0.01689
G1 X92.731 Y142.991 E0.41073
G1 X92.731 Y142.457 E0.01679
G1 X101.970 Y151.695 E0.41059
G1 X101.967 Y151.158 E0.01689
G1 X92.731 Y141.922 E0.41046
G1 X92.731 Y141.388 E0.01679
G1 X101.967 Y150.623 E0.41044
G1 X101.966 Y150.088 E0.01680
G1 X92.733 Y140.855 E0.41035
G1 X92.735 Y140.322 E0.01674
G1 X101.966 Y149.554 E0.41026
G1 X101.966 Y149.019 E0.01680
G1 X92.737 Y139.790 E0.41017
G1 X92.739 Y139.257 E0.01674
G1 X101.966 Y148.484 E0.41008
G1 X101.966 Y147.950 E0.01680
G1 X92.741 Y138.725 E0.40999
G1 X92.743 Y138.192 E0.01674
G1 X101.966 Y147.415 E0.40989
G1 X101.966 Y146.881 E0.01680
G1 X92.745 Y137.660 E0.40980
G1 X92.747 Y137.127 E0.01673
G1 X101.966 Y146.346 E0.40971
G1 X101.966 Y145.812 E0.01680
G1 X92.749 Y136.595 E0.40962
G1 X92.751 Y136.062 E0.01674
G1 X101.965 Y145.277 E0.40952
G1 X101.965 Y144.742 E0.01680
G1 X92.753 Y135.530 E0.40943
G1 X92.755 Y134.997 E0.01674
G1 X101.965 Y144.208 E0.40934
G1 X101.965 Y143.673 E0.01680
G1 X92.757 Y134.465 E0.40925
G1 X92.759 Y133.932 E0.01673
G1 X101.965 Y143.139 E0.40916
G1 X101.965 Y142.604 E0.01680
G1 X92.761 Y133.400 E0.40906
G1 X92.763 Y132.867 E0.01673
G1 X101.965 Y142.069 E0.40897
G1 X101.965 Y141.535 E0.01680
G1 X92.765 Y132.335 E0.40888
G1 X92.767 Y131.802 E0.01674
G1 X101.965 Y141.000 E0.40879
G1 X101.965 Y140.466 E0.01680
G1 X92.769 Y131.270 E0.40870
G1 X92.771 Y130.737 E0.01673
G1 X101.964 Y139.931 E0.40860
G1 X101.966 Y139.398 E0.01675
G1 X92.772 Y130.205 E0.40858
G1 X92.774 Y129.672 E0.01673
G1 X101.968 Y138.866 E0.40859
G1 X101.970 Y138.333 E0.01673
G1 X92.776 Y129.140 E0.40860
G1 X92.778 Y128.607 E0.01674
G1 X101.972 Y137.801 E0.40861
G1 X101.975 Y137.269 E0.01673
G1 X92.780 Y128.075 E0.40862
G1 X92.782 Y127.542 E0.01674
G1 X101.977 Y136.737 E0.40863
G1 X101.979 Y136.204 E0.01673
G1 X92.784 Y127.009 E0.40865
G1 X92.786 Y126.477 E0.01674
G1 X101.981 Y135.672 E0.40866
G1 X101.984 Y135.140 E0.01673
G1 X92.788 Y125.944 E0.40867
G1 X92.790 Y125.412 E0.01673
G1 X101.986 Y134.608 E0.40868
G1 X101.988 Y134.075 E0.01673
G1 X92.792 Y124.879 E0.40869
G1 X92.794 Y124.347 E0.01673
G1 X101.990 Y133.543 E0.40870
G1 X101.992 Y133.011 E0.01673
G1 X92.796 Y123.814 E0.40871
G1 X92.798 Y123.282 E0.01674
G1 X101.995 Y132.478 E0.40873
G1 X101.997 Y131.946 E0.01673
G1 X92.800 Y122.749 E0.40874
G1 X92.802 Y122.217 E0.01673
G1 X101.999 Y131.414 E0.40875
G1 X102.001 Y130.882 E0.01673
G1 X92.804 Y121.684 E0.40876
G1 X92.806 Y121.152 E0.01673
G1 X102.004 Y130.349 E0.40877
G1 X102.006 Y129.817 E0.01673
G1 X92.808 Y120.619 E0.40878
G1 X92.810 Y120.087 E0.01674
G1 X102.008 Y129.285 E0.40879
G1 X102.010 Y128.753 E0.01673
G1 X92.812 Y119.554 E0.40881
G1 X92.814 Y119.022 E0.01674
G1 X102.013 Y128.220 E0.40882
G1 X102.015 Y127.688 E0.01673
G1 X92.816 Y118.489 E0.40883
G1 X92.818 Y117.957 E0.01673
G1 X102.017 Y127.156 E0.40884
G1 X102.019 Y126.624 E0.01673
G1 X92.820 Y117.424 E0.40885
G1 X92.822 Y116.892 E0.01674
G1 X102.021 Y126.091 E0.40886
G1 X102.024 Y125.559 E0.01673
G1 X92.824 Y116.359 E0.40887
G1 X92.826 Y115.827 E0.01674
G1 X102.026 Y125.027 E0.40889
G1 X102.028 Y124.495 E0.01673
G1 X92.828 Y115.294 E0.40890
G1 X92.830 Y114.762 E0.01674
G1 X102.030 Y123.962 E0.40891
G1 X102.033 Y123.430 E0.01673
G1 X92.832 Y114.229 E0.40892
G1 X92.833 Y113.696 E0.01673
G1 X102.035 Y122.898 E0.40893
G1 X102.037 Y122.366 E0.01673
G1 X92.835 Y113.164 E0.40894
G1 X92.837 Y112.631 E0.01673
G1 X102.039 Y121.833 E0.40895
G1 X102.041 Y121.301 E0.01673
G1 X92.839 Y112.099 E0.40897
G1 X92.841 Y111.566 E0.01674
G1 X102.044 Y120.769 E0.40898
G1 X102.046 Y120.236 E0.01673
G1 X92.843 Y111.034 E0.40899
G1 X92.845 Y110.501 E0.01673
G1 X102.048 Y119.704 E0.40900
G1 X102.050 Y119.172 E0.01673
G1 X92.847 Y109.969 E0.40901
G1 X92.849 Y109.436 E0.01673
G1 X102.053 Y118.640 E0.40902
G1 X102.055 Y118.107 E0.01673
G1 X92.851 Y108.904 E0.40904
G1 X92.853 Y108.371 E0.01674
G1 X102.057 Y117.575 E0.40905
G1 X102.059 Y117.043 E0.01673
G1 X92.855 Y107.839 E0.40906
G1 X92.857 Y107.306 E0.01674
G1 X102.062 Y116.511 E0.40907
G1 X102.064 Y115.978 E0.01673
G1 X92.859 Y106.774 E0.40908
G1 X92.861 Y106.241 E0.01673
G1 X102.066 Y115.446 E0.40909
G1 X102.068 Y114.914 E0.01673
G1 X92.863 Y105.709 E0.40910
G1 X92.865 Y105.176 E0.01674
G1 X102.070 Y114.382 E0.40912
G1 X102.073 Y113.849 E0.01673
G1 X92.867 Y104.644 E0.40913
G1 X92.869 Y104.111 E0.01673
G1 X102.075 Y113.317 E0.40914
G1 X102.077 Y112.785 E0.01673
G1 X92.871 Y103.579 E0.40915
G1 X92.873 Y103.046 E0.01674
G1 X102.079 Y112.253 E0.40916
G1 X102.082 Y111.720 E0.01673
G1 X92.875 Y102.514 E0.40917
G1 X92.877 Y101.981 E0.01673
G1 X102.084 Y111.188 E0.40918
G1 X102.086 Y110.656 E0.01673
G1 X92.879 Y101.449 E0.40920
M73 Q2 S103
G1 X92.881 Y100.916 E0.01673
G1 X102.088 Y110.124 E0.40921
M73 P2 R102
G1 X102.090 Y109.591 E0.01673
G1 X92.883 Y100.383 E0.40922
G1 X92.885 Y99.851 E0.01673
G1 X102.093 Y109.059 E0.40923
G1 X102.095 Y108.527 E0.01673
G1 X92.887 Y99.318 E0.40924
G1 X92.888 Y98.785 E0.01676
G1 X102.097 Y107.994 E0.40928
G1 X102.099 Y107.462 E0.01673
G1 X92.888 Y98.251 E0.40938
G1 X92.888 Y97.716 E0.01679
G1 X102.102 Y106.930 E0.40947
G1 X102.103 Y106.397 E0.01674
G1 X92.888 Y97.182 E0.40954
G1 X92.888 Y96.648 E0.01679
G1 X102.105 Y105.864 E0.40959
G1 X102.106 Y105.331 E0.01676
G1 X92.888 Y96.113 E0.40965
G1 X92.889 Y95.579 E0.01679
G1 X102.107 Y104.797 E0.40970
G1 X102.108 Y104.264 E0.01676
G1 X92.889 Y95.045 E0.40975
G1 X92.889 Y94.510 E0.01679
G1 X102.110 Y103.731 E0.40980
G1 X102.111 Y103.198 E0.01676
G1 X92.889 Y93.976 E0.40985
G1 X92.889 Y93.441 E0.01679
G1 X102.112 Y102.664 E0.40990
G1 X102.113 Y102.131 E0.01676
G1 X92.889 Y92.907 E0.40995
G1 X92.889 Y92.373 E0.01679
G1 X102.115 Y101.598 E0.41001
G1 X102.116 Y101.065 E0.01676
G1 X92.889 Y91.838 E0.41006
G1 X92.889 Y91.304 E0.01679
G1 X102.117 Y100.532 E0.41011
G1 X102.118 Y99.998 E0.01676
G1 X92.889 Y90.769 E0.41016
G1 X92.889 Y90.235 E0.01679
G1 X102.120 Y99.465 E0.41021
G1 X102.121 Y98.932 E0.01676
G1 X92.890 Y89.701 E0.41026
G1 X92.890 Y89.166 E0.01679
G1 X102.122 Y98.399 E0.41031
G1 X102.123 Y97.865 E0.01676
G1 X92.890 Y88.632 E0.41037
G1 X92.890 Y88.097 E0.01679
G1 X102.125 Y97.332 E0.41042
G1 X102.126 Y96.799 E0.01676
G1 X92.890 Y87.563 E0.41047
G1 X92.890 Y87.029 E0.01679
G1 X102.127 Y96.266 E0.41052
