; generated by PrusaSlicer 2.2.0+linux-x64 on 2020-07-03 at 07:17:09 UTC

; 

; external perimeters extrusion width = 0.45mm
; perimeters extrusion width = 0.45mm
; infill extrusion width = 0.45mm
; solid infill extrusion width = 0.45mm
; top infill extrusion width = 0.40mm
; first layer extrusion width = 0.42mm

M73 P0 R76
M73 Q0 S77
M201 X1000 Y1000 Z200 E5000 ; sets maximum accelerations, mm/sec^2
M203 X200 Y200 Z12 E120 ; sets maximum feedrates, mm/sec
M204 P1250 R1250 T1250 ; sets acceleration (P, T) and retract acceleration (R), mm/sec^2
M205 X8.00 Y8.00 Z0.40 E4.50 ; sets the jerk limits, mm/sec
M205 S0 T0 ; sets the minimum extruding and travel feed rate, mm/sec
M107
M862.3 P "MK3" ; printer model check
M862.1 P0.4 ; nozzle diameter check
M115 U3.9.0 ; tell printer latest fw version
G90 ; use absolute coordinates
M83 ; extruder relative mode
M104 S225 ; set extruder temp
M140 S60 ; set bed temp
M190 S60 ; wait for bed temp
M109 S225 ; wait for extruder temp
G28 W ; home all without mesh bed level
G80 ; mesh bed leveling
G1 Y-3.0 F1000.0 ; go outside print area
G92 E0.0
G1 X60.0 E9.0 F1000.0 ; intro line
M73 Q0 S77
M73 P0 R76
G1 X100.0 E12.5 F1000.0 ; intro line
G92 E0.0
M221 S95
G21 ; set units to millimeters
G90 ; use absolute coordinates
M83 ; use relative distances for extrusion
M900 K0.06 ; Filament gcode LA 1.5
M900 K30 ; Filament gcode LA 1.0
;BEFORE_LAYER_CHANGE
G92 E0.0
;0.2


G1 E-0.80000 F2100.00000
G1 Z0.600 F10800.000
;AFTER_LAYER_CHANGE
;0.2
G1 X99.973 Y40.029
G1 Z0.200
G1 E0.80000 F2100.00000
M204 S1000
G1 F1200.000
G1 X100.413 Y39.393 E0.02426
G1 X101.030 Y38.933 E0.02414
G1 X101.762 Y38.695 E0.02414
G1 X113.550 Y38.668 E0.36960
G1 X148.076 Y40.069 E1.08342
G1 X148.773 Y40.238 E0.02249
G1 X149.391 Y40.609 E0.02260
G1 X149.870 Y41.148 E0.02260
G1 X150.165 Y41.806 E0.02260
G1 X150.250 Y42.413 E0.01922
G1 X151.565 Y167.444 E3.92048
G1 X151.438 Y168.203 E0.02414
G1 X151.078 Y168.879 E0.02402
G1 X150.518 Y169.408 E0.02414
G1 X149.823 Y169.729 E0.02402
G1 X149.206 Y169.815 E0.01953
G1 X137.747 Y169.814 E0.35929
G1 X100.668 Y168.418 E1.16341
G1 X99.949 Y168.262 E0.02308
G1 X99.312 Y167.893 E0.02308
G1 X98.820 Y167.350 E0.02296
G1 X98.516 Y166.680 E0.02308
G1 X98.430 Y166.021 E0.02086
G1 X99.761 Y40.769 E3.92739
G1 X99.956 Y40.087 E0.02226
G1 F8640.000
G1 X100.413 Y39.393 E-0.19180
G1 X101.030 Y38.933 E-0.17775
G1 X101.762 Y38.695 E-0.17775
G1 X102.683 Y38.693 E-0.21269
G1 E-0.04000 F2100.00000
G1 Z0.800 F10800.000
G1 X137.233 Y43.225
G1 Z0.200
G1 E0.80000 F2100.00000
G1 F1200.000
G1 X147.083 Y43.225 E0.30884
G1 X147.062 Y57.655 E0.45243
G1 X147.093 Y69.423 E0.36900
G1 X147.178 Y82.006 E0.39453
G1 X147.264 Y90.620 E0.27010
G1 X147.495 Y107.680 E0.53495
G1 X148.158 Y147.143 E1.23751
G1 X148.297 Y157.319 E0.31909
G1 X148.393 Y166.651 E0.29261
G1 X138.589 Y166.651 E0.30739
G1 X138.407 Y152.388 E0.44724
G1 X137.658 Y110.427 E1.31586
G1 X137.479 Y98.558 E0.37220
G1 X137.381 Y90.534 E0.25160
G1 X137.302 Y82.165 E0.26240
G1 X137.216 Y66.116 E0.50322
G1 X137.206 Y54.102 E0.37671
G1 X137.233 Y43.285 E0.33915
G1 X136.857 Y42.848 F10800.000
G1 F1200.000
G1 X147.462 Y42.848 E0.33250
G1 X147.439 Y57.654 E0.46425
G1 X147.470 Y69.421 E0.36895
G1 X147.555 Y82.003 E0.39448
G1 X147.641 Y90.615 E0.27006
G1 X147.872 Y107.674 E0.53491
G1 X148.535 Y147.137 E1.23751
G1 X148.674 Y157.314 E0.31913
G1 X148.774 Y167.028 E0.30458
G1 X138.217 Y167.028 E0.33101
G1 X138.030 Y152.394 E0.45888
G1 X137.281 Y110.433 E1.31585
G1 X137.102 Y98.563 E0.37224
G1 X137.004 Y90.538 E0.25163
G1 X136.925 Y82.168 E0.26244
G1 X136.839 Y66.117 E0.50327
G1 X136.829 Y54.101 E0.37675
G1 X136.857 Y42.908 E0.35096
G1 X137.203 Y43.048 F10800.000
G1 F8640.000
G1 X140.148 Y42.889 E-0.76000
G1 E-0.04000 F2100.00000
G1 Z0.800 F10800.000
G1 X139.465 Y166.538
G1 Z0.200
G1 E0.80000 F2100.00000
G1 F1200.000
G1 X138.863 Y165.935 E0.02679
G1 X138.856 Y165.393 E0.01703
G1 X139.830 Y166.368 E0.04333
G1 X140.365 Y166.368 E0.01681
G1 X138.849 Y164.852 E0.06742
G1 X138.842 Y164.310 E0.01703
G1 X140.900 Y166.368 E0.09150
G1 X141.434 Y166.368 E0.01681
G1 X138.835 Y163.768 E0.11558
G1 X138.828 Y163.227 E0.01703
G1 X141.969 Y166.368 E0.13967
G1 X142.504 Y166.368 E0.01681
G1 X138.821 Y162.685 E0.16375
G1 X138.814 Y162.144 E0.01703
G1 X143.039 Y166.368 E0.18783
G1 X143.573 Y166.368 E0.01681
G1 X138.807 Y161.602 E0.21192
G1 X138.800 Y161.060 E0.01703
G1 X144.108 Y166.368 E0.23600
G1 X144.643 Y166.368 E0.01681
G1 X138.793 Y160.519 E0.26008
G1 X138.787 Y159.977 E0.01703
G1 X145.178 Y166.368 E0.28417
G1 X145.712 Y166.368 E0.01681
G1 X138.780 Y159.435 E0.30825
G1 X138.773 Y158.894 E0.01703
G1 X146.247 Y166.368 E0.33233
G1 X146.782 Y166.368 E0.01681
G1 X138.766 Y158.352 E0.35642
G1 X138.759 Y157.810 E0.01703
G1 X147.316 Y166.368 E0.38050
G1 X147.851 Y166.368 E0.01681
G1 X138.752 Y157.269 E0.40458
G1 X138.745 Y156.727 E0.01703
G1 X148.104 Y166.086 E0.41613
G1 X148.099 Y165.546 E0.01699
G1 X138.738 Y156.185 E0.41619
G1 X138.731 Y155.644 E0.01703
G1 X148.093 Y165.006 E0.41625
G1 X148.087 Y164.465 E0.01699
G1 X138.724 Y155.102 E0.41631
G1 X138.717 Y154.560 E0.01703
G1 X148.082 Y163.925 E0.41637
M73 Q1 S76
G1 X148.076 Y163.385 E0.01699
G1 X138.710 Y154.019 E0.41643
M73 P1 R75
G1 X138.704 Y153.477 E0.01703
G1 X148.071 Y162.844 E0.41649
G1 X148.065 Y162.304 E0.01699
G1 X138.697 Y152.936 E0.41655
G1 X138.690 Y152.394 E0.01703
G1 X148.060 Y161.764 E0.41661
G1 X148.054 Y161.223 E0.01699
G1 X138.680 Y151.850 E0.41680
G1 X138.670 Y151.305 E0.01712
G1 X148.048 Y160.683 E0.41698
G1 X148.043 Y160.143 E0.01699
G1 X138.661 Y150.761 E0.41717
G1 X138.651 Y150.216 E0.01712
G1 X148.037 Y159.603 E0.41735
G1 X148.032 Y159.062 E0.01699
G1 X138.641 Y149.672 E0.41754
G1 X138.631 Y149.127 E0.01712
G1 X148.026 Y158.522 E0.41772
G1 X148.021 Y157.982 E0.01699
G1 X138.622 Y148.583 E0.41791
G1 X138.612 Y148.038 E0.01712
G1 X148.015 Y157.441 E0.41809
G1 X148.008 Y156.900 E0.01703
G1 X138.602 Y147.494 E0.41821
G1 X138.593 Y146.949 E0.01712
G1 X148.001 Y156.358 E0.41832
G1 X147.993 Y155.816 E0.01705
G1 X138.583 Y146.405 E0.41842
G1 X138.573 Y145.861 E0.01712
G1 X147.986 Y155.273 E0.41853
G1 X147.979 Y154.731 E0.01705
G1 X138.563 Y145.316 E0.41863
G1 X138.554 Y144.772 E0.01712
G1 X147.971 Y154.189 E0.41874
G1 X147.964 Y153.647 E0.01705
G1 X138.544 Y144.227 E0.41884
G1 X138.534 Y143.683 E0.01712
G1 X147.957 Y153.105 E0.41895
G1 X147.949 Y152.563 E0.01705
G1 X138.524 Y143.138 E0.41905
G1 X138.515 Y142.594 E0.01712
G1 X147.942 Y152.021 E0.41915
G1 X147.934 Y151.479 E0.01705
G1 X138.505 Y142.049 E0.41926
G1 X138.495 Y141.505 E0.01712
G1 X147.927 Y150.937 E0.41936
G1 X147.920 Y150.395 E0.01705
G1 X138.486 Y140.960 E0.41947
G1 X138.476 Y140.416 E0.01712
G1 X147.912 Y149.852 E0.41957
G1 X147.905 Y149.310 E0.01705
G1 X138.466 Y139.872 E0.41968
G1 X138.456 Y139.327 E0.01712
G1 X147.898 Y148.768 E0.41978
G1 X147.890 Y148.226 E0.01705
G1 X138.447 Y138.783 E0.41989
G1 X138.437 Y138.238 E0.01712
G1 X147.883 Y147.684 E0.41999
G1 X147.875 Y147.142 E0.01705
G1 X138.427 Y137.694 E0.42010
G1 X138.418 Y137.149 E0.01712
G1 X147.866 Y146.598 E0.42012
G1 X147.857 Y146.054 E0.01710
G1 X138.408 Y136.605 E0.42015
G1 X138.398 Y136.060 E0.01712
G1 X147.848 Y145.510 E0.42017
G1 X147.839 Y144.966 E0.01710
G1 X138.388 Y135.516 E0.42020
G1 X138.379 Y134.972 E0.01712
G1 X147.830 Y144.423 E0.42022
G1 X147.821 Y143.879 E0.01710
G1 X138.369 Y134.427 E0.42025
G1 X138.359 Y133.883 E0.01712
G1 X147.811 Y143.335 E0.42028
G1 X147.802 Y142.791 E0.01710
G1 X138.350 Y133.338 E0.42030
G1 X138.340 Y132.794 E0.01712
G1 X147.793 Y142.247 E0.42033
G1 X147.784 Y141.703 E0.01710
G1 X138.330 Y132.249 E0.42035
G1 X138.320 Y131.705 E0.01712
G1 X147.775 Y141.159 E0.42038
G1 X147.766 Y140.615 E0.01710
G1 X138.311 Y131.160 E0.42040
G1 X138.301 Y130.616 E0.01712
G1 X147.757 Y140.072 E0.42043
G1 X147.747 Y139.528 E0.01710
G1 X138.291 Y130.071 E0.42045
G1 X138.281 Y129.527 E0.01712
G1 X147.738 Y138.984 E0.42048
G1 X147.729 Y138.440 E0.01710
G1 X138.272 Y128.983 E0.42051
G1 X138.262 Y128.438 E0.01712
G1 X147.720 Y137.896 E0.42053
G1 X147.711 Y137.352 E0.01710
G1 X138.252 Y127.894 E0.42056
G1 X138.243 Y127.349 E0.01712
G1 X147.702 Y136.808 E0.42058
G1 X147.693 Y136.264 E0.01710
G1 X138.233 Y126.805 E0.42061
G1 X138.223 Y126.260 E0.01712
G1 X147.683 Y135.721 E0.42063
G1 X147.674 Y135.177 E0.01710
G1 X138.213 Y125.716 E0.42066
G1 X138.204 Y125.171 E0.01712
G1 X147.665 Y134.633 E0.42068
G1 X147.656 Y134.089 E0.01710
G1 X138.194 Y124.627 E0.42071
G1 X138.184 Y124.082 E0.01712
G1 X147.647 Y133.545 E0.42073
G1 X147.638 Y133.001 E0.01710
G1 X138.175 Y123.538 E0.42076
G1 X138.165 Y122.994 E0.01712
G1 X147.629 Y132.457 E0.42079
G1 X147.619 Y131.913 E0.01710
G1 X138.155 Y122.449 E0.42081
G1 X138.145 Y121.905 E0.01712
G1 X147.610 Y131.370 E0.42084
G1 X147.601 Y130.826 E0.01710
G1 X138.136 Y121.360 E0.42086
G1 X138.126 Y120.816 E0.01712
G1 X147.592 Y130.282 E0.42089
G1 X147.583 Y129.738 E0.01710
G1 X138.116 Y120.271 E0.42091
G1 X138.107 Y119.727 E0.01712
G1 X147.574 Y129.194 E0.42094
G1 X147.565 Y128.650 E0.01710
G1 X138.097 Y119.182 E0.42096
G1 X138.087 Y118.638 E0.01712
G1 X147.555 Y128.106 E0.42099
G1 X147.546 Y127.562 E0.01710
G1 X138.077 Y118.093 E0.42102
G1 X138.068 Y117.549 E0.01712
G1 X147.537 Y127.019 E0.42104
G1 X147.528 Y126.475 E0.01710
G1 X138.058 Y117.005 E0.42107
G1 X138.048 Y116.460 E0.01712
G1 X147.519 Y125.931 E0.42109
G1 X147.510 Y125.387 E0.01710
G1 X138.038 Y115.916 E0.42112
G1 X138.029 Y115.371 E0.01712
G1 X147.500 Y124.843 E0.42114
G1 X147.491 Y124.299 E0.01710
G1 X138.019 Y114.827 E0.42117
G1 X138.009 Y114.282 E0.01712
G1 X147.482 Y123.755 E0.42119
G1 X147.473 Y123.211 E0.01710
G1 X138.000 Y113.738 E0.42122
G1 X137.990 Y113.193 E0.01712
G1 X147.464 Y122.667 E0.42125
G1 X147.455 Y122.124 E0.01710
G1 X137.980 Y112.649 E0.42127
G1 X137.970 Y112.105 E0.01712
G1 X147.446 Y121.580 E0.42130
G1 X147.436 Y121.036 E0.01710
G1 X137.961 Y111.560 E0.42132
G1 X137.951 Y111.016 E0.01712
G1 X147.427 Y120.492 E0.42135
G1 X147.418 Y119.948 E0.01710
G1 X137.941 Y110.471 E0.42137
G1 X137.933 Y109.928 E0.01708
G1 X147.409 Y119.404 E0.42134
G1 X147.400 Y118.860 E0.01710
G1 X137.925 Y109.385 E0.42129
G1 X137.917 Y108.842 E0.01707
G1 X147.391 Y118.316 E0.42125
G1 X147.382 Y117.773 E0.01710
G1 X137.908 Y108.299 E0.42121
M73 Q2 S75
G1 X137.900 Y107.756 E0.01707
G1 X147.372 Y117.229 E0.42116
G1 X147.363 Y116.685 E0.01710
M73 P2 R74
G1 X137.892 Y107.214 E0.42112
G1 X137.884 Y106.671 E0.01707
G1 X147.354 Y116.141 E0.42108
G1 X147.345 Y115.597 E0.01710
G1 X137.876 Y106.128 E0.42104
G1 X137.867 Y105.585 E0.01707
G1 X147.336 Y115.053 E0.42099
G1 X147.327 Y114.509 E0.01710
G1 X137.859 Y105.042 E0.42095
G1 X137.851 Y104.499 E0.01707
G1 X147.318 Y113.965 E0.42091
G1 X147.308 Y113.422 E0.01710
G1 X137.843 Y103.956 E0.42086
G1 X137.835 Y103.413 E0.01707
G1 X147.299 Y112.878 E0.42082
G1 X147.290 Y112.334 E0.01710
G1 X137.827 Y102.870 E0.42078
G1 X137.818 Y102.327 E0.01707
G1 X147.281 Y111.790 E0.42074
G1 X147.272 Y111.246 E0.01710
G1 X137.810 Y101.784 E0.42069
G1 X137.802 Y101.242 E0.01707
G1 X147.263 Y110.702 E0.42065
G1 X147.254 Y110.158 E0.01710
G1 X137.794 Y100.699 E0.42061
G1 X137.786 Y100.156 E0.01707
G1 X147.244 Y109.614 E0.42056
G1 X147.235 Y109.071 E0.01710
G1 X137.777 Y99.613 E0.42052
G1 X137.769 Y99.070 E0.01707
G1 X147.226 Y108.527 E0.42048
G1 X147.217 Y107.983 E0.01710
G1 X137.761 Y98.527 E0.42043
G1 X137.755 Y97.986 E0.01702
G1 X147.209 Y107.440 E0.42036
G1 X147.201 Y106.898 E0.01704
G1 X137.748 Y97.444 E0.42032
G1 X137.741 Y96.903 E0.01702
G1 X147.194 Y106.356 E0.42029
G1 X147.187 Y105.814 E0.01704
G1 X137.735 Y96.362 E0.42026
G1 X137.728 Y95.820 E0.01702
G1 X147.179 Y105.272 E0.42022
G1 X147.172 Y104.729 E0.01704
G1 X137.722 Y95.279 E0.42019
G1 X137.715 Y94.738 E0.01702
G1 X147.165 Y104.187 E0.42016
G1 X147.157 Y103.645 E0.01704
G1 X137.709 Y94.197 E0.42012
G1 X137.702 Y93.655 E0.01702
G1 X147.150 Y103.103 E0.42009
G1 X147.143 Y102.561 E0.01704
G1 X137.695 Y93.114 E0.42006
G1 X137.689 Y92.573 E0.01702
G1 X147.135 Y102.019 E0.42003
G1 X147.128 Y101.477 E0.01704
G1 X137.682 Y92.031 E0.41999
G1 X137.676 Y91.490 E0.01702
G1 X147.121 Y100.935 E0.41996
G1 X147.113 Y100.393 E0.01704
G1 X137.669 Y90.949 E0.41993
G1 X137.663 Y90.408 E0.01701
G1 X147.106 Y99.851 E0.41988
G1 X147.099 Y99.309 E0.01704
G1 X137.658 Y89.868 E0.41978
G1 X137.653 Y89.328 E0.01697
G1 X147.092 Y98.767 E0.41968
G1 X147.084 Y98.225 E0.01704
G1 X137.648 Y88.788 E0.41959
G1 X137.642 Y88.248 E0.01697
G1 X147.077 Y97.683 E0.41949
G1 X147.070 Y97.141 E0.01704
G1 X137.637 Y87.709 E0.41939
G1 X137.632 Y87.169 E0.01697
G1 X147.062 Y96.599 E0.41929
G1 X147.055 Y96.057 E0.01704
G1 X137.627 Y86.629 E0.41919
G1 X137.622 Y86.089 E0.01697
G1 X147.048 Y95.515 E0.41909
G1 X147.040 Y94.973 E0.01704
G1 X137.617 Y85.549 E0.41900
G1 X137.612 Y85.009 E0.01697
G1 X147.033 Y94.431 E0.41890
G1 X147.026 Y93.889 E0.01704
G1 X137.607 Y84.469 E0.41880
G1 X137.602 Y83.930 E0.01697
G1 X147.018 Y93.346 E0.41870
G1 X147.011 Y92.804 E0.01704
G1 X137.596 Y83.390 E0.41860
G1 X137.591 Y82.850 E0.01697
G1 X147.004 Y92.262 E0.41851
G1 X146.996 Y91.720 E0.01704
G1 X137.586 Y82.310 E0.41841
G1 X137.583 Y81.772 E0.01692
G1 X146.989 Y91.178 E0.41824
G1 X146.982 Y90.636 E0.01704
G1 X137.580 Y81.234 E0.41804
G1 X137.577 Y80.697 E0.01690
G1 X146.976 Y90.096 E0.41792
G1 X146.971 Y89.556 E0.01698
G1 X137.574 Y80.159 E0.41781
G1 X137.571 Y79.621 E0.01690
G1 X146.965 Y89.016 E0.41770
G1 X146.960 Y88.476 E0.01698
G1 X137.568 Y79.084 E0.41758
G1 X137.565 Y78.546 E0.01690
G1 X146.955 Y87.935 E0.41747
G1 X146.949 Y87.395 E0.01698
G1 X137.563 Y78.009 E0.41735
G1 X137.560 Y77.471 E0.01690
G1 X146.944 Y86.855 E0.41724
G1 X146.938 Y86.315 E0.01698
G1 X137.557 Y76.933 E0.41713
G1 X137.554 Y76.396 E0.01690
G1 X146.933 Y85.775 E0.41701
G1 X146.927 Y85.235 E0.01698
G1 X137.551 Y75.858 E0.41690
G1 X137.548 Y75.321 E0.01690
G1 X146.922 Y84.694 E0.41678
G1 X146.917 Y84.154 E0.01698
G1 X137.545 Y74.783 E0.41667
G1 X137.542 Y74.245 E0.01690
G1 X146.911 Y83.614 E0.41656
G1 X146.906 Y83.074 E0.01698
G1 X137.540 Y73.708 E0.41644
G1 X137.537 Y73.170 E0.01690
G1 X146.900 Y82.534 E0.41633
G1 X146.895 Y81.994 E0.01698
G1 X137.534 Y72.633 E0.41622
G1 X137.531 Y72.095 E0.01690
G1 X146.891 Y81.455 E0.41619
G1 X146.888 Y80.917 E0.01693
G1 X137.528 Y71.557 E0.41615
G1 X137.525 Y71.020 E0.01690
G1 X146.884 Y80.379 E0.41612
G1 X146.880 Y79.840 E0.01693
G1 X137.522 Y70.482 E0.41609
G1 X137.519 Y69.945 E0.01690
G1 X146.877 Y79.302 E0.41605
G1 X146.873 Y78.764 E0.01693
G1 X137.517 Y69.407 E0.41602
G1 X137.514 Y68.869 E0.01690
G1 X146.870 Y78.225 E0.41599
G1 X146.866 Y77.687 E0.01693
G1 X137.511 Y68.332 E0.41595
G1 X137.508 Y67.794 E0.01690
G1 X146.862 Y77.148 E0.41592
G1 X146.859 Y76.610 E0.01693
G1 X137.505 Y67.257 E0.41589
G1 X137.502 Y66.719 E0.01690
G1 X146.855 Y76.072 E0.41586
G1 X146.851 Y75.533 E0.01693
G1 X137.499 Y66.181 E0.41582
G1 X137.499 Y65.646 E0.01684
G1 X146.848 Y74.995 E0.41570
G1 X146.844 Y74.457 E0.01693
G1 X137.498 Y65.111 E0.41556
G1 X137.498 Y64.575 E0.01683
G1 X146.841 Y73.918 E0.41542
G1 X146.837 Y73.380 E0.01693
G1 X137.497 Y64.040 E0.41527
G1 X137.497 Y63.505 E0.01683
G1 X146.833 Y72.842 E0.41513
G1 X146.830 Y72.303 E0.01693
G1 X137.496 Y62.970 E0.41499
G1 X137.496 Y62.435 E0.01683
G1 X146.826 Y71.765 E0.41485
G1 X146.823 Y71.227 E0.01693
G1 X137.495 Y61.900 E0.41471
M73 Q3 S74
G1 X137.495 Y61.364 E0.01683
G1 X146.819 Y70.688 E0.41457
M73 P4 R73
G1 X146.815 Y70.150 E0.01693
G1 X137.495 Y60.829 E0.41443
G1 X137.494 Y60.294 E0.01683
G1 X146.812 Y69.612 E0.41429
G1 X146.810 Y69.075 E0.01688
G1 X137.494 Y59.759 E0.41421
G1 X137.493 Y59.224 E0.01683
G1 X146.808 Y68.539 E0.41417
G1 X146.807 Y68.002 E0.01686
G1 X137.493 Y58.688 E0.41413
G1 X137.492 Y58.153 E0.01683
G1 X146.805 Y67.466 E0.41409
G1 X146.804 Y66.930 E0.01686
G1 X137.492 Y57.618 E0.41404
G1 X137.491 Y57.083 E0.01683
G1 X146.803 Y66.394 E0.41400
G1 X146.801 Y65.858 E0.01686
G1 X137.491 Y56.548 E0.41396
G1 X137.491 Y56.013 E0.01683
G1 X146.800 Y65.322 E0.41391
G1 X146.798 Y64.786 E0.01686
