; generated by PrusaSlicer 2.2.0+linux-x64 on 2020-07-03 at 07:17:51 UTC

; 

; external perimeters extrusion width = 0.45mm
; perimeters extrusion width = 0.45mm
; infill extrusion width = 0.45mm
; solid infill extrusion width = 0.45mm
; top infill extrusion width = 0.40mm
; first layer extrusion width = 0.42mm

M73 P0 R90
M73 Q0 S92
M201 X1000 Y1000 Z200 E5000 ; sets maximum accelerations, mm/sec^2
M203 X200 Y200 Z12 E120 ; sets maximum feedrates, mm/sec
M204 P1250 R1250 T1250 ; sets acceleration (P, T) and retract acceleration (R), mm/sec^2
M205 X8.00 Y8.00 Z0.40 E4.50 ; sets the jerk limits, mm/sec
M205 S0 T0 ; sets the minimum extruding and travel feed rate, mm/sec
M107
M862.3 P "MK3" ; printer model check
M862.1 P0.4 ; nozzle diameter check
M115 U3.9.0 ; tell printer latest fw version
G90 ; use absolute coordinates
M83 ; extruder relative mode
M104 S225 ; set extruder temp
M140 S60 ; set bed temp
M190 S60 ; wait for bed temp
M109 S225 ; wait for extruder temp
G28 W ; home all without mesh bed level
G80 ; mesh bed leveling
G1 Y-3.0 F1000.0 ; go outside print area
G92 E0.0
G1 X60.0 E9.0 F1000.0 ; intro line
M73 Q0 S92
M73 P0 R90
G1 X100.0 E12.5 F1000.0 ; intro line
G92 E0.0
M221 S95
G21 ; set units to millimeters
G90 ; use absolute coordinates
M83 ; use relative distances for extrusion
M900 K0.06 ; Filament gcode LA 1.5
M900 K30 ; Filament gcode LA 1.0
;BEFORE_LAYER_CHANGE
G92 E0.0
;0.2


G1 E-0.80000 F2100.00000
G1 Z0.600 F10800.000
;AFTER_LAYER_CHANGE
;0.2
G1 X98.984 Y28.380
G1 Z0.200
G1 E0.80000 F2100.00000
M204 S1000
G1 F1200.000
G1 X99.303 Y27.721 E0.02296
G1 X99.808 Y27.190 E0.02296
G1 X100.450 Y26.838 E0.02296
G1 X101.169 Y26.699 E0.02296
G1 X147.150 Y26.604 E1.44173
G1 X147.971 Y26.752 E0.02614
G1 X148.690 Y27.174 E0.02614
G1 X149.219 Y27.818 E0.02614
G1 X149.494 Y28.609 E0.02626
G1 X149.907 Y43.971 E0.48185
G1 X150.110 Y65.796 E0.68434
G1 X150.133 Y178.985 E3.54896
G1 X150.029 Y179.675 E0.02190
G1 X149.708 Y180.338 E0.02308
G1 X149.199 Y180.870 E0.02308
G1 X148.553 Y181.221 E0.02308
G1 X147.833 Y181.357 E0.02296
G1 X100.648 Y181.451 E1.47945
G1 X99.954 Y181.348 E0.02201
G1 X99.280 Y181.018 E0.02355
G1 X98.742 Y180.493 E0.02355
G1 X98.395 Y179.831 E0.02343
G1 X98.271 Y179.091 E0.02355
G1 X98.308 Y60.712 E3.71169
G1 X98.554 Y41.145 E0.61354
G1 X98.876 Y29.152 E0.37617
G1 X98.976 Y28.439 E0.02257
G1 F8640.000
G1 X99.303 Y27.721 E-0.18230
G1 X99.808 Y27.190 E-0.16907
G1 X100.450 Y26.838 E-0.16907
G1 X101.169 Y26.699 E-0.16907
G1 X101.474 Y26.698 E-0.07049
G1 E-0.04000 F2100.00000
G1 Z0.800 F10800.000
G1 X136.145 Y29.769
G1 Z0.200
G1 E0.80000 F2100.00000
G1 F1200.000
G1 X146.384 Y29.769 E0.32102
G1 X146.545 Y35.200 E0.17039
G1 X146.744 Y44.031 E0.27696
G1 X146.868 Y52.529 E0.26647
G1 X146.931 Y60.635 E0.25417
G1 X146.947 Y68.181 E0.23661
G1 X146.928 Y75.509 E0.22975
G1 X146.869 Y84.355 E0.27736
G1 X146.669 Y106.338 E0.68931
G1 X146.630 Y113.626 E0.22849
G1 X146.619 Y121.125 E0.23514
G1 X146.673 Y135.493 E0.45051
G1 X146.891 Y164.786 E0.91849
G1 X146.964 Y178.194 E0.42041
G1 X137.113 Y178.194 E0.30887
G1 X137.002 Y160.898 E0.54233
G1 X136.708 Y131.455 E0.92319
G1 X136.650 Y119.217 E0.38373
G1 X136.658 Y115.315 E0.12236
G1 X136.714 Y107.621 E0.24124
G1 X136.998 Y86.385 E0.66588
G1 X137.081 Y78.322 E0.25283
G1 X137.110 Y71.139 E0.22523
G1 X137.085 Y63.449 E0.24111
G1 X136.983 Y55.091 E0.26207
G1 X136.786 Y46.297 E0.27582
G1 X136.616 Y40.834 E0.17136
G1 X136.478 Y37.122 E0.11646
G1 X136.148 Y29.828 E0.22893
G1 X135.751 Y29.391 F10800.000
G1 F1200.000
G1 X146.750 Y29.391 E0.34486
G1 X146.922 Y35.190 E0.18191
G1 X147.121 Y44.024 E0.27705
G1 X147.245 Y52.525 E0.26655
G1 X147.308 Y60.633 E0.25424
G1 X147.324 Y68.181 E0.23667
G1 X147.305 Y75.511 E0.22980
G1 X147.246 Y84.358 E0.27740
G1 X147.046 Y106.341 E0.68930
G1 X147.007 Y113.627 E0.22844
G1 X146.996 Y121.125 E0.23509
G1 X147.050 Y135.491 E0.45045
G1 X147.268 Y164.784 E0.91848
G1 X147.343 Y178.571 E0.43231
G1 X136.739 Y178.571 E0.33251
G1 X136.625 Y160.901 E0.55406
G1 X136.331 Y131.458 E0.92320
G1 X136.273 Y119.218 E0.38380
G1 X136.281 Y115.313 E0.12243
G1 X136.337 Y107.617 E0.24131
G1 X136.621 Y86.381 E0.66590
G1 X136.704 Y78.320 E0.25277
G1 X136.733 Y71.139 E0.22515
G1 X136.708 Y63.452 E0.24102
G1 X136.606 Y55.098 E0.26195
G1 X136.409 Y46.307 E0.27571
G1 X136.239 Y40.847 E0.17127
G1 X136.101 Y37.138 E0.11638
G1 X135.754 Y29.451 E0.24125
G1 X136.100 Y29.586 F10800.000
G1 F8640.000
G1 X139.045 Y29.433 E-0.76000
G1 E-0.04000 F2100.00000
G1 Z0.800 F10800.000
G1 X137.221 Y177.314
G1 Z0.200
G1 E0.80000 F2100.00000
G1 F1200.000
G1 X137.818 Y177.912 E0.02650
G1 X138.352 Y177.912 E0.01672
G1 X137.388 Y176.948 E0.04273
G1 X137.385 Y176.411 E0.01683
G1 X138.885 Y177.912 E0.06653
G1 X139.418 Y177.912 E0.01672
G1 X137.381 Y175.874 E0.09034
G1 X137.378 Y175.338 E0.01683
G1 X139.952 Y177.912 E0.11414
G1 X140.485 Y177.912 E0.01672
G1 X137.374 Y174.801 E0.13794
G1 X137.371 Y174.264 E0.01683
G1 X141.018 Y177.912 E0.16174
G1 X141.552 Y177.912 E0.01672
G1 X137.367 Y173.727 E0.18554
G1 X137.364 Y173.191 E0.01683
G1 X142.085 Y177.912 E0.20934
M73 Q1 S91
G1 X142.618 Y177.912 E0.01672
G1 X137.360 Y172.654 E0.23315
G1 X137.357 Y172.117 E0.01683
G1 X143.151 Y177.912 E0.25695
M73 P1 R89
G1 X143.685 Y177.912 E0.01672
G1 X137.353 Y171.580 E0.28075
G1 X137.350 Y171.044 E0.01683
G1 X144.218 Y177.912 E0.30455
G1 X144.751 Y177.912 E0.01672
G1 X137.347 Y170.507 E0.32835
G1 X137.343 Y169.970 E0.01683
G1 X145.285 Y177.912 E0.35216
G1 X145.818 Y177.912 E0.01672
G1 X137.340 Y169.433 E0.37596
G1 X137.336 Y168.897 E0.01683
G1 X146.351 Y177.912 E0.39976
G1 X146.680 Y177.912 E0.01031
G1 X146.679 Y177.706 E0.00645
G1 X137.333 Y168.360 E0.41444
G1 X137.329 Y167.823 E0.01683
G1 X146.676 Y177.170 E0.41446
G1 X146.673 Y176.633 E0.01681
G1 X137.326 Y167.286 E0.41449
G1 X137.322 Y166.750 E0.01683
G1 X146.670 Y176.097 E0.41451
G1 X146.667 Y175.561 E0.01681
G1 X137.319 Y166.213 E0.41453
G1 X137.315 Y165.676 E0.01683
G1 X146.664 Y175.025 E0.41456
G1 X146.661 Y174.488 E0.01681
G1 X137.312 Y165.139 E0.41458
G1 X137.309 Y164.603 E0.01683
G1 X146.658 Y173.952 E0.41460
G1 X146.655 Y173.416 E0.01681
G1 X137.305 Y164.066 E0.41462
G1 X137.302 Y163.529 E0.01683
G1 X146.652 Y172.880 E0.41465
G1 X146.649 Y172.343 E0.01681
G1 X137.298 Y162.992 E0.41467
G1 X137.295 Y162.455 E0.01683
G1 X146.646 Y171.807 E0.41469
G1 X146.643 Y171.271 E0.01681
G1 X137.291 Y161.919 E0.41471
G1 X137.288 Y161.382 E0.01683
G1 X146.641 Y170.735 E0.41474
G1 X146.638 Y170.198 E0.01681
G1 X137.284 Y160.845 E0.41477
G1 X137.279 Y160.306 E0.01689
G1 X146.635 Y169.662 E0.41488
G1 X146.632 Y169.126 E0.01681
G1 X137.273 Y159.768 E0.41498
G1 X137.268 Y159.229 E0.01689
G1 X146.629 Y168.590 E0.41509
G1 X146.626 Y168.054 E0.01681
G1 X137.263 Y158.690 E0.41520
G1 X137.257 Y158.152 E0.01689
G1 X146.623 Y167.517 E0.41531
G1 X146.620 Y166.981 E0.01681
G1 X137.252 Y157.613 E0.41542
G1 X137.246 Y157.074 E0.01689
G1 X146.617 Y166.445 E0.41552
G1 X146.614 Y165.909 E0.01681
G1 X137.241 Y156.536 E0.41563
G1 X137.236 Y155.997 E0.01689
G1 X146.611 Y165.372 E0.41574
G1 X146.608 Y164.836 E0.01681
G1 X137.230 Y155.458 E0.41585
G1 X137.225 Y154.920 E0.01689
G1 X146.604 Y164.299 E0.41591
G1 X146.600 Y163.762 E0.01685
G1 X137.220 Y154.381 E0.41598
G1 X137.214 Y153.842 E0.01689
G1 X146.596 Y163.224 E0.41604
G1 X146.592 Y162.687 E0.01685
G1 X137.209 Y153.304 E0.41610
G1 X137.203 Y152.765 E0.01689
G1 X146.588 Y162.150 E0.41616
G1 X146.584 Y161.612 E0.01685
G1 X137.198 Y152.226 E0.41622
G1 X137.193 Y151.687 E0.01689
G1 X146.580 Y161.075 E0.41628
G1 X146.576 Y160.538 E0.01685
G1 X137.187 Y151.149 E0.41634
G1 X137.182 Y150.610 E0.01689
G1 X146.572 Y160.000 E0.41640
G1 X146.568 Y159.463 E0.01685
G1 X137.176 Y150.071 E0.41647
G1 X137.171 Y149.533 E0.01689
G1 X146.564 Y158.926 E0.41653
G1 X146.560 Y158.389 E0.01685
G1 X137.166 Y148.994 E0.41659
G1 X137.160 Y148.455 E0.01689
G1 X146.556 Y157.851 E0.41665
G1 X146.552 Y157.314 E0.01685
G1 X137.155 Y147.917 E0.41671
G1 X137.150 Y147.378 E0.01689
G1 X146.548 Y156.777 E0.41677
G1 X146.544 Y156.239 E0.01685
G1 X137.144 Y146.839 E0.41683
G1 X137.139 Y146.301 E0.01689
G1 X146.540 Y155.702 E0.41690
G1 X146.536 Y155.165 E0.01685
G1 X137.133 Y145.762 E0.41696
G1 X137.128 Y145.223 E0.01689
G1 X146.532 Y154.628 E0.41702
G1 X146.528 Y154.090 E0.01685
G1 X137.123 Y144.685 E0.41708
G1 X137.117 Y144.146 E0.01689
G1 X146.524 Y153.553 E0.41714
G1 X146.520 Y153.016 E0.01685
G1 X137.112 Y143.607 E0.41720
G1 X137.106 Y143.069 E0.01689
G1 X146.516 Y152.478 E0.41726
G1 X146.512 Y151.941 E0.01685
G1 X137.101 Y142.530 E0.41733
G1 X137.096 Y141.991 E0.01689
G1 X146.508 Y151.404 E0.41739
G1 X146.504 Y150.866 E0.01685
G1 X137.090 Y141.453 E0.41745
G1 X137.085 Y140.914 E0.01689
G1 X146.500 Y150.329 E0.41751
G1 X146.496 Y149.792 E0.01685
G1 X137.080 Y140.375 E0.41757
G1 X137.074 Y139.837 E0.01689
G1 X146.492 Y149.255 E0.41763
G1 X146.488 Y148.717 E0.01685
G1 X137.069 Y139.298 E0.41769
G1 X137.063 Y138.759 E0.01689
G1 X146.484 Y148.180 E0.41776
G1 X146.480 Y147.643 E0.01685
G1 X137.058 Y138.220 E0.41782
G1 X137.053 Y137.682 E0.01689
G1 X146.476 Y147.105 E0.41788
G1 X146.472 Y146.568 E0.01685
G1 X137.047 Y137.143 E0.41794
G1 X137.042 Y136.604 E0.01689
G1 X146.468 Y146.031 E0.41800
G1 X146.464 Y145.493 E0.01685
G1 X137.037 Y136.066 E0.41806
G1 X137.031 Y135.527 E0.01689
G1 X146.460 Y144.956 E0.41812
G1 X146.456 Y144.419 E0.01685
G1 X137.026 Y134.988 E0.41819
G1 X137.020 Y134.450 E0.01689
G1 X146.452 Y143.882 E0.41825
G1 X146.448 Y143.344 E0.01685
G1 X137.015 Y133.911 E0.41831
G1 X137.010 Y133.372 E0.01689
G1 X146.444 Y142.807 E0.41837
G1 X146.440 Y142.270 E0.01685
G1 X137.004 Y132.834 E0.41843
G1 X136.999 Y132.295 E0.01689
G1 X146.436 Y141.732 E0.41849
G1 X146.432 Y141.195 E0.01685
G1 X136.993 Y131.756 E0.41855
G1 X136.989 Y131.219 E0.01685
G1 X146.428 Y140.658 E0.41856
G1 X146.424 Y140.121 E0.01685
G1 X136.987 Y130.683 E0.41849
G1 X136.984 Y130.147 E0.01680
G1 X146.420 Y139.583 E0.41843
G1 X146.416 Y139.046 E0.01685
G1 X136.982 Y129.611 E0.41836
G1 X136.979 Y129.076 E0.01680
G1 X146.412 Y138.509 E0.41829
G1 X146.408 Y137.971 E0.01685
G1 X136.977 Y128.540 E0.41823
G1 X136.974 Y128.004 E0.01680
G1 X146.404 Y137.434 E0.41816
G1 X146.400 Y136.897 E0.01685
G1 X136.972 Y127.468 E0.41810
G1 X136.969 Y126.932 E0.01680
G1 X146.396 Y136.359 E0.41803
G1 X146.392 Y135.822 E0.01685
G1 X136.967 Y126.397 E0.41796
G1 X136.964 Y125.861 E0.01680
G1 X146.389 Y135.286 E0.41793
M73 Q2 S90
G1 X146.387 Y134.750 E0.01678
G1 X136.962 Y125.325 E0.41795
M73 P2 R88
G1 X136.959 Y124.789 E0.01680
G1 X146.385 Y134.215 E0.41798
G1 X146.383 Y133.680 E0.01678
G1 X136.957 Y124.253 E0.41800
G1 X136.954 Y123.718 E0.01680
G1 X146.381 Y133.144 E0.41802
G1 X146.379 Y132.609 E0.01678
G1 X136.952 Y123.182 E0.41804
G1 X136.949 Y122.646 E0.01680
G1 X146.377 Y132.074 E0.41806
G1 X146.375 Y131.539 E0.01678
G1 X136.947 Y122.110 E0.41809
G1 X136.944 Y121.574 E0.01680
G1 X146.373 Y131.003 E0.41811
G1 X146.371 Y130.468 E0.01678
G1 X136.942 Y121.039 E0.41813
G1 X136.939 Y120.503 E0.01680
G1 X146.369 Y129.933 E0.41815
G1 X146.367 Y129.397 E0.01678
G1 X136.937 Y119.967 E0.41817
G1 X136.934 Y119.431 E0.01680
G1 X146.365 Y128.862 E0.41820
G1 X146.363 Y128.327 E0.01678
G1 X136.934 Y118.898 E0.41813
G1 X136.935 Y118.365 E0.01669
G1 X146.361 Y127.791 E0.41799
G1 X146.359 Y127.256 E0.01678
G1 X136.936 Y117.833 E0.41786
G1 X136.937 Y117.301 E0.01669
G1 X146.357 Y126.721 E0.41772
G1 X146.355 Y126.186 E0.01678
G1 X136.938 Y116.768 E0.41759
G1 X136.939 Y116.236 E0.01669
G1 X146.353 Y125.650 E0.41746
G1 X146.351 Y125.115 E0.01678
G1 X136.940 Y115.704 E0.41732
G1 X136.942 Y115.172 E0.01667
G1 X146.349 Y124.580 E0.41716
G1 X146.347 Y124.044 E0.01678
G1 X136.946 Y114.643 E0.41689
G1 X136.949 Y114.114 E0.01660
G1 X146.345 Y123.509 E0.41663
G1 X146.343 Y122.974 E0.01678
G1 X136.953 Y113.584 E0.41637
G1 X136.957 Y113.055 E0.01660
G1 X146.341 Y122.438 E0.41611
G1 X146.339 Y121.903 E0.01678
G1 X136.961 Y112.525 E0.41585
G1 X136.965 Y111.996 E0.01660
G1 X146.337 Y121.368 E0.41559
G1 X146.336 Y120.834 E0.01674
G1 X136.969 Y111.466 E0.41540
G1 X136.973 Y110.937 E0.01660
G1 X146.337 Y120.302 E0.41526
G1 X146.338 Y119.769 E0.01670
G1 X136.977 Y110.408 E0.41512
G1 X136.981 Y109.878 E0.01660
G1 X146.339 Y119.236 E0.41498
G1 X146.340 Y118.704 E0.01670
G1 X136.984 Y109.349 E0.41484
G1 X136.988 Y108.819 E0.01660
G1 X146.340 Y118.171 E0.41470
G1 X146.341 Y117.639 E0.01670
G1 X136.992 Y108.290 E0.41457
G1 X136.996 Y107.761 E0.01660
G1 X146.342 Y117.106 E0.41443
G1 X146.343 Y116.574 E0.01670
G1 X137.002 Y107.233 E0.41418
G1 X137.009 Y106.707 E0.01650
G1 X146.343 Y116.041 E0.41391
G1 X146.344 Y115.509 E0.01670
G1 X137.016 Y106.181 E0.41363
G1 X137.023 Y105.655 E0.01650
G1 X146.345 Y114.976 E0.41335
G1 X146.346 Y114.444 E0.01670
G1 X137.030 Y105.128 E0.41307
G1 X137.037 Y104.602 E0.01650
G1 X146.346 Y113.911 E0.41279
G1 X146.348 Y113.379 E0.01667
G1 X137.045 Y104.076 E0.41255
G1 X137.052 Y103.550 E0.01650
G1 X146.351 Y112.849 E0.41237
G1 X146.354 Y112.319 E0.01663
G1 X137.059 Y103.023 E0.41218
G1 X137.066 Y102.497 E0.01650
G1 X146.357 Y111.788 E0.41200
G1 X146.359 Y111.258 E0.01663
G1 X137.073 Y101.971 E0.41181
G1 X137.080 Y101.445 E0.01650
G1 X146.362 Y110.727 E0.41162
G1 X146.365 Y110.197 E0.01663
G1 X137.087 Y100.918 E0.41144
G1 X137.094 Y100.392 E0.01650
G1 X146.368 Y109.666 E0.41125
G1 X146.371 Y109.136 E0.01663
G1 X137.101 Y99.866 E0.41107
G1 X137.108 Y99.340 E0.01650
G1 X146.374 Y108.605 E0.41088
G1 X146.377 Y108.075 E0.01663
G1 X137.115 Y98.813 E0.41069
G1 X137.122 Y98.287 E0.01650
G1 X146.379 Y107.545 E0.41051
G1 X146.382 Y107.014 E0.01663
G1 X137.129 Y97.761 E0.41032
G1 X137.136 Y97.235 E0.01650
G1 X146.385 Y106.484 E0.41014
G1 X146.389 Y105.955 E0.01659
G1 X137.143 Y96.708 E0.41001
G1 X137.150 Y96.182 E0.01650
G1 X146.394 Y105.426 E0.40991
G1 X146.399 Y104.898 E0.01657
G1 X137.157 Y95.656 E0.40982
G1 X137.164 Y95.130 E0.01650
G1 X146.404 Y104.369 E0.40972
G1 X146.409 Y103.841 E0.01657
G1 X137.171 Y94.603 E0.40962
G1 X137.178 Y94.077 E0.01650
G1 X146.413 Y103.312 E0.40952
G1 X146.418 Y102.784 E0.01657
G1 X137.185 Y93.551 E0.40942
G1 X137.192 Y93.025 E0.01650
G1 X146.423 Y102.255 E0.40932
G1 X146.428 Y101.727 E0.01657
G1 X137.199 Y92.498 E0.40922
G1 X137.207 Y91.972 E0.01650
G1 X146.433 Y101.198 E0.40912
G1 X146.438 Y100.670 E0.01657
G1 X137.214 Y91.446 E0.40903
G1 X137.221 Y90.920 E0.01650
G1 X146.442 Y100.141 E0.40893
G1 X146.447 Y99.613 E0.01657
G1 X137.228 Y90.393 E0.40883
G1 X137.235 Y89.867 E0.01650
G1 X146.452 Y99.084 E0.40873
G1 X146.457 Y98.556 E0.01657
G1 X137.242 Y89.341 E0.40863
G1 X137.249 Y88.815 E0.01650
G1 X146.462 Y98.027 E0.40853
G1 X146.466 Y97.499 E0.01657
G1 X137.256 Y88.288 E0.40843
G1 X137.263 Y87.762 E0.01650
G1 X146.471 Y96.970 E0.40834
G1 X146.476 Y96.442 E0.01657
G1 X137.270 Y87.236 E0.40824
G1 X137.277 Y86.710 E0.01650
G1 X146.481 Y95.914 E0.40814
G1 X146.486 Y95.385 E0.01657
G1 X137.283 Y86.183 E0.40807
G1 X137.289 Y85.655 E0.01655
G1 X146.491 Y94.857 E0.40804
G1 X146.495 Y94.328 E0.01657
G1 X137.294 Y85.127 E0.40802
G1 X137.300 Y84.599 E0.01655
G1 X146.500 Y93.800 E0.40799
G1 X146.505 Y93.271 E0.01657
G1 X137.305 Y84.071 E0.40796
G1 X137.310 Y83.543 E0.01655
G1 X146.510 Y92.743 E0.40794
G1 X146.515 Y92.214 E0.01657
G1 X137.316 Y83.015 E0.40791
G1 X137.321 Y82.487 E0.01655
G1 X146.519 Y91.686 E0.40788
G1 X146.524 Y91.157 E0.01657
G1 X137.327 Y81.960 E0.40786
G1 X137.332 Y81.432 E0.01655
G1 X146.529 Y90.629 E0.40783
G1 X146.534 Y90.100 E0.01657
G1 X137.337 Y80.904 E0.40781
G1 X137.343 Y80.376 E0.01655
G1 X146.539 Y89.572 E0.40778
G1 X146.544 Y89.043 E0.01657
G1 X137.348 Y79.848 E0.40775
M73 Q3 S89
G1 X137.354 Y79.320 E0.01655
G1 X146.548 Y88.515 E0.40773
M73 P3 R87
G1 X146.553 Y87.986 E0.01657
G1 X137.359 Y78.792 E0.40770
G1 X137.364 Y78.264 E0.01656
G1 X146.558 Y87.458 E0.40769
G1 X146.563 Y86.929 E0.01657
G1 X137.366 Y77.733 E0.40781
G1 X137.368 Y77.202 E0.01665
G1 X146.568 Y86.401 E0.40793
G1 X146.572 Y85.872 E0.01657
G1 X137.371 Y76.671 E0.40804
G1 X137.373 Y76.139 E0.01665
