; generated by PrusaSlicer 2.2.0+linux-x64 on 2020-06-29 at 11:11:57 UTC

; 

; external perimeters extrusion width = 0.45mm
; perimeters extrusion width = 0.45mm
; infill extrusion width = 0.45mm
; solid infill extrusion width = 0.45mm
; top infill extrusion width = 0.40mm
; first layer extrusion width = 0.42mm

M73 P0 R106
M73 Q0 S107
M201 X1000 Y1000 Z200 E5000 ; sets maximum accelerations, mm/sec^2
M203 X200 Y200 Z12 E120 ; sets maximum feedrates, mm/sec
M204 P1250 R1250 T1250 ; sets acceleration (P, T) and retract acceleration (R), mm/sec^2
M205 X8.00 Y8.00 Z0.40 E4.50 ; sets the jerk limits, mm/sec
M205 S0 T0 ; sets the minimum extruding and travel feed rate, mm/sec
M107
M862.3 P "MK3" ; printer model check
M862.1 P0.4 ; nozzle diameter check
M115 U3.9.0 ; tell printer latest fw version
G90 ; use absolute coordinates
M83 ; extruder relative mode
M104 S215 ; set extruder temp
M140 S60 ; set bed temp
M190 S60 ; wait for bed temp
M109 S215 ; wait for extruder temp
G28 W ; home all without mesh bed level
G80 ; mesh bed leveling
G1 Y-3.0 F1000.0 ; go outside print area
G92 E0.0
G1 X60.0 E9.0 F1000.0 ; intro line
M73 Q0 S107
M73 P0 R106
G1 X100.0 E12.5 F1000.0 ; intro line
G92 E0.0
M221 S95
G21 ; set units to millimeters
G90 ; use absolute coordinates
M83 ; use relative distances for extrusion
M900 K0.06 ; Filament gcode LA 1.5
M900 K30 ; Filament gcode LA 1.0
;BEFORE_LAYER_CHANGE
G92 E0.0
;0.2


G1 E-0.80000 F2100.00000
G1 Z0.600 F10800.000
;AFTER_LAYER_CHANGE
;0.2
G1 X92.337 Y17.182
G1 Z0.200
G1 E0.80000 F2100.00000
M204 S1000
G1 F1200.000
G1 X92.662 Y16.526 E0.02296
G1 X93.168 Y16.002 E0.02284
G1 X93.809 Y15.656 E0.02284
G1 X94.529 Y15.521 E0.02296
G1 X150.800 Y15.358 E1.76434
G1 X151.684 Y15.530 E0.02825
G1 X152.438 Y16.016 E0.02813
G1 X152.960 Y16.751 E0.02825
G1 X153.170 Y17.627 E0.02825
G1 X154.703 Y101.781 E2.63902
G1 X154.812 Y122.143 E0.63845
G1 X154.645 Y137.090 E0.46869
G1 X154.285 Y151.078 E0.43872
G1 X153.000 Y192.808 E1.30903
G1 X152.891 Y193.452 E0.02048
G1 X152.565 Y194.107 E0.02296
G1 X152.055 Y194.633 E0.02296
G1 X151.410 Y194.978 E0.02296
G1 X150.693 Y195.111 E0.02284
G1 X105.996 Y195.274 E1.40146
G1 X94.752 Y195.273 E0.35254
G1 X94.059 Y195.163 E0.02201
G1 X93.412 Y194.844 E0.02260
G1 X92.894 Y194.349 E0.02249
G1 X92.545 Y193.718 E0.02260
G1 X92.401 Y193.016 E0.02249
G1 X90.856 Y141.924 E1.60266
G1 X90.618 Y127.446 E0.45403
G1 X90.601 Y112.092 E0.48141
G1 X90.770 Y96.891 E0.47665
G1 X92.227 Y17.849 E2.47873
G1 X92.327 Y17.241 E0.01931
G1 F8640.000
G1 X92.662 Y16.526 E-0.18236
G1 X93.168 Y16.002 E-0.16820
G1 X93.809 Y15.656 E-0.16820
G1 X94.529 Y15.521 E-0.16907
G1 X94.841 Y15.520 E-0.07217
G1 E-0.04000 F2100.00000
G1 Z0.800 F10800.000
G1 X95.381 Y18.684
G1 Z0.200
G1 E0.80000 F2100.00000
G1 F1200.000
G1 X105.297 Y18.684 E0.31092
G1 X104.978 Y40.197 E0.67461
G1 X104.241 Y83.126 E1.34622
G1 X104.091 Y93.650 E0.33000
G1 X103.976 Y104.849 E0.35116
G1 X103.929 Y115.669 E0.33924
G1 X103.955 Y126.550 E0.34118
G1 X104.001 Y132.280 E0.17967
G1 X104.145 Y142.968 E0.33513
G1 X104.248 Y148.539 E0.17472
G1 X104.490 Y159.352 E0.33910
G1 X105.035 Y181.981 E0.70974
G1 X105.136 Y187.446 E0.17136
G1 X105.198 Y192.109 E0.14625
G1 X95.549 Y192.109 E0.30255
G1 X95.464 Y187.126 E0.15629
G1 X95.315 Y181.342 E0.18142
G1 X95.130 Y175.536 E0.18213
G1 X94.588 Y160.443 E0.47354
G1 X94.278 Y151.146 E0.29165
G1 X94.019 Y141.840 E0.29190
G1 X93.840 Y132.543 E0.29153
G1 X93.782 Y127.416 E0.16078
G1 X93.752 Y122.300 E0.16042
G1 X93.747 Y117.197 E0.15998
G1 X93.803 Y107.035 E0.31863
G1 X93.934 Y96.941 E0.31652
G1 X94.118 Y86.910 E0.31458
G1 X94.657 Y61.998 E0.78128
G1 X94.941 Y47.829 E0.44436
G1 X95.154 Y35.152 E0.39754
G1 X95.380 Y18.744 E0.51452
G1 X95.009 Y18.306 F10800.000
G1 F1200.000
G1 X105.679 Y18.306 E0.33458
G1 X105.355 Y40.203 E0.68663
G1 X104.618 Y83.132 E1.34622
G1 X104.468 Y93.655 E0.32996
G1 X104.353 Y104.852 E0.35110
G1 X104.306 Y115.669 E0.33916
G1 X104.332 Y126.548 E0.34110
G1 X104.378 Y132.276 E0.17960
G1 X104.522 Y142.962 E0.33507
G1 X104.625 Y148.531 E0.17467
G1 X104.867 Y159.343 E0.33907
G1 X105.412 Y181.973 E0.70976
G1 X105.513 Y187.440 E0.17142
G1 X105.581 Y192.486 E0.15826
G1 X95.178 Y192.486 E0.32615
G1 X95.087 Y187.134 E0.16786
G1 X94.938 Y181.352 E0.18133
G1 X94.753 Y175.549 E0.18207
G1 X94.211 Y160.456 E0.47354
G1 X93.901 Y151.157 E0.29170
G1 X93.642 Y141.849 E0.29199
G1 X93.463 Y132.549 E0.29163
G1 X93.405 Y127.419 E0.16086
G1 X93.375 Y122.301 E0.16048
G1 X93.370 Y117.197 E0.16005
G1 X93.426 Y107.032 E0.31871
G1 X93.557 Y96.936 E0.31659
M73 Q0 S106
M73 P1 R105
G1 X93.741 Y86.903 E0.31463
G1 X94.280 Y61.990 E0.78129
G1 X94.564 Y47.822 E0.44433
G1 X94.777 Y35.146 E0.39750
G1 X95.008 Y18.366 E0.52616
G1 X95.354 Y18.508 F10800.000
G1 F8640.000
G1 X98.299 Y18.348 E-0.76000
G1 E-0.04000 F2100.00000
G1 Z0.800 F10800.000
G1 X96.425 Y191.996
G1 Z0.200
G1 E0.80000 F2100.00000
G1 F1200.000
G1 X95.820 Y191.391 E0.02689
G1 X95.810 Y190.848 E0.01709
G1 X96.789 Y191.827 E0.04351
G1 X97.324 Y191.827 E0.01680
G1 X95.801 Y190.304 E0.06768
G1 X95.792 Y189.760 E0.01709
G1 X97.858 Y191.827 E0.09184
G1 X98.393 Y191.827 E0.01680
G1 X95.783 Y189.216 E0.11601
G1 X95.773 Y188.673 E0.01709
G1 X98.927 Y191.827 E0.14018
G1 X99.462 Y191.827 E0.01680
G1 X95.764 Y188.129 E0.16434
G1 X95.755 Y187.585 E0.01709
G1 X99.996 Y191.827 E0.18851
G1 X100.531 Y191.827 E0.01680
G1 X95.745 Y187.041 E0.21271
G1 X95.731 Y186.492 E0.01725
G1 X101.065 Y191.827 E0.23709
G1 X101.600 Y191.827 E0.01680
G1 X95.717 Y185.943 E0.26147
G1 X95.702 Y185.395 E0.01725
G1 X102.134 Y191.827 E0.28585
G1 X102.669 Y191.827 E0.01680
G1 X95.688 Y184.846 E0.31023
G1 X95.674 Y184.298 E0.01725
G1 X103.203 Y191.827 E0.33462
G1 X103.738 Y191.827 E0.01680
G1 X95.660 Y183.749 E0.35900
G1 X95.646 Y183.200 E0.01725
G1 X104.272 Y191.827 E0.38338
G1 X104.807 Y191.827 E0.01680
G1 X95.632 Y182.652 E0.40776
G1 X95.618 Y182.103 E0.01725
G1 X104.906 Y191.391 E0.41280
G1 X104.899 Y190.849 E0.01703
G1 X95.604 Y181.554 E0.41310
G1 X95.587 Y181.004 E0.01731
G1 X104.891 Y190.308 E0.41350
G1 X104.884 Y189.766 E0.01703
G1 X95.570 Y180.452 E0.41396
G1 X95.552 Y179.900 E0.01736
G1 X104.877 Y189.224 E0.41442
G1 X104.870 Y188.682 E0.01703
G1 X95.535 Y179.347 E0.41488
G1 X95.517 Y178.795 E0.01736
G1 X104.862 Y188.141 E0.41534
G1 X104.855 Y187.599 E0.01703
G1 X95.499 Y178.243 E0.41580
G1 X95.482 Y177.691 E0.01736
G1 X104.846 Y187.055 E0.41617
G1 X104.836 Y186.511 E0.01712
G1 X95.464 Y177.139 E0.41650
G1 X95.447 Y176.587 E0.01736
G1 X104.826 Y185.966 E0.41684
G1 X104.816 Y185.422 E0.01712
G1 X95.429 Y176.035 E0.41718
G1 X95.411 Y175.483 E0.01737
G1 X104.806 Y184.877 E0.41752
G1 X104.796 Y184.332 E0.01712
G1 X95.391 Y174.928 E0.41796
G1 X95.371 Y174.374 E0.01743
G1 X104.786 Y183.788 E0.41840
G1 X104.775 Y183.243 E0.01712
G1 X95.351 Y173.819 E0.41884
G1 X95.332 Y173.265 E0.01743
G1 X104.765 Y182.699 E0.41927
G1 X104.755 Y182.154 E0.01712
G1 X95.312 Y172.711 E0.41971
G1 X95.292 Y172.156 E0.01743
G1 X104.743 Y181.608 E0.42005
G1 X104.730 Y181.060 E0.01722
G1 X95.272 Y171.602 E0.42035
G1 X95.252 Y171.047 E0.01743
G1 X104.717 Y180.512 E0.42065
G1 X104.704 Y179.965 E0.01722
G1 X95.232 Y170.493 E0.42095
G1 X95.212 Y169.939 E0.01743
G1 X104.690 Y179.417 E0.42125
G1 X104.677 Y178.869 E0.01722
G1 X95.192 Y169.384 E0.42155
G1 X95.172 Y168.830 E0.01743
G1 X104.664 Y178.321 E0.42184
G1 X104.651 Y177.774 E0.01722
G1 X95.152 Y168.275 E0.42214
G1 X95.132 Y167.721 E0.01743
G1 X104.638 Y177.226 E0.42244
G1 X104.624 Y176.678 E0.01722
G1 X95.113 Y167.167 E0.42274
G1 X95.093 Y166.612 E0.01743
G1 X104.611 Y176.131 E0.42304
G1 X104.598 Y175.583 E0.01722
G1 X95.073 Y166.058 E0.42333
G1 X95.053 Y165.503 E0.01743
G1 X104.585 Y175.035 E0.42363
G1 X104.572 Y174.488 E0.01722
G1 X95.033 Y164.949 E0.42393
G1 X95.013 Y164.395 E0.01743
G1 X104.558 Y173.940 E0.42423
G1 X104.545 Y173.392 E0.01722
G1 X94.993 Y163.840 E0.42453
G1 X94.973 Y163.286 E0.01743
G1 X104.532 Y172.845 E0.42482
G1 X104.519 Y172.297 E0.01722
G1 X94.953 Y162.731 E0.42512
G1 X94.933 Y162.177 E0.01743
G1 X104.506 Y171.749 E0.42542
G1 X104.492 Y171.202 E0.01722
G1 X94.913 Y161.623 E0.42572
G1 X94.894 Y161.068 E0.01743
G1 X104.479 Y170.654 E0.42602
G1 X104.466 Y170.106 E0.01722
G1 X94.874 Y160.514 E0.42632
G1 X94.855 Y159.961 E0.01739
G1 X104.453 Y169.558 E0.42656
G1 X104.440 Y169.011 E0.01722
G1 X94.837 Y159.408 E0.42679
G1 X94.818 Y158.855 E0.01739
G1 X104.426 Y168.463 E0.42703
G1 X104.413 Y167.915 E0.01722
G1 X94.800 Y158.302 E0.42726
G1 X94.781 Y157.749 E0.01739
G1 X104.400 Y167.368 E0.42749
G1 X104.387 Y166.820 E0.01722
G1 X94.763 Y157.196 E0.42773
G1 X94.744 Y156.643 E0.01739
G1 X104.374 Y166.272 E0.42796
G1 X104.360 Y165.725 E0.01722
G1 X94.726 Y156.090 E0.42819
G1 X94.707 Y155.537 E0.01739
G1 X104.347 Y165.177 E0.42843
G1 X104.334 Y164.629 E0.01722
G1 X94.689 Y154.984 E0.42866
G1 X94.671 Y154.431 E0.01739
G1 X104.321 Y164.082 E0.42889
G1 X104.308 Y163.534 E0.01722
G1 X94.652 Y153.878 E0.42913
G1 X94.634 Y153.325 E0.01739
G1 X104.294 Y162.986 E0.42936
G1 X104.281 Y162.438 E0.01722
G1 X94.615 Y152.772 E0.42959
G1 X94.597 Y152.219 E0.01739
G1 X104.268 Y161.891 E0.42983
G1 X104.255 Y161.343 E0.01722
G1 X94.578 Y151.666 E0.43006
G1 X94.560 Y151.114 E0.01738
G1 X104.242 Y160.795 E0.43029
G1 X104.228 Y160.248 E0.01722
G1 X94.545 Y150.564 E0.43038
G1 X94.529 Y150.014 E0.01728
G1 X104.215 Y159.700 E0.43047
G1 X104.202 Y159.153 E0.01720
G1 X94.514 Y149.464 E0.43058
G1 X94.499 Y148.915 E0.01728
G1 X104.190 Y158.606 E0.43072
G1 X104.178 Y158.059 E0.01719
G1 X94.484 Y148.365 E0.43085
G1 X94.468 Y147.815 E0.01728
G1 X104.166 Y157.513 E0.43099
G1 X104.154 Y156.966 E0.01719
G1 X94.453 Y147.265 E0.43112
G1 X94.438 Y146.716 E0.01728
G1 X104.141 Y156.419 E0.43126
G1 X104.129 Y155.872 E0.01719
G1 X94.423 Y146.166 E0.43140
G1 X94.407 Y145.616 E0.01728
G1 X104.117 Y155.326 E0.43153
M73 Q1 S105
G1 X104.105 Y154.779 E0.01719
G1 X94.392 Y145.066 E0.43167
M73 P1 R104
G1 X94.377 Y144.516 E0.01728
G1 X104.093 Y154.232 E0.43180
G1 X104.080 Y153.686 E0.01719
G1 X94.361 Y143.967 E0.43194
G1 X94.346 Y143.417 E0.01728
G1 X104.068 Y153.139 E0.43208
G1 X104.056 Y152.592 E0.01719
G1 X94.331 Y142.867 E0.43221
G1 X94.316 Y142.317 E0.01728
G1 X104.044 Y152.045 E0.43235
G1 X104.031 Y151.499 E0.01719
G1 X94.301 Y141.768 E0.43246
G1 X94.290 Y141.223 E0.01713
G1 X104.019 Y150.952 E0.43238
G1 X104.007 Y150.405 E0.01719
G1 X94.280 Y140.678 E0.43231
G1 X94.269 Y140.133 E0.01713
G1 X103.995 Y149.859 E0.43223
G1 X103.983 Y149.312 E0.01719
G1 X94.259 Y139.588 E0.43216
G1 X94.248 Y139.043 E0.01713
G1 X103.970 Y148.765 E0.43208
G1 X103.959 Y148.220 E0.01714
G1 X94.238 Y138.498 E0.43206
G1 X94.227 Y137.953 E0.01713
G1 X103.949 Y147.675 E0.43208
G1 X103.939 Y147.131 E0.01712
G1 X94.217 Y137.408 E0.43210
G1 X94.206 Y136.863 E0.01713
G1 X103.929 Y146.586 E0.43213
G1 X103.919 Y146.042 E0.01712
G1 X94.196 Y136.318 E0.43215
G1 X94.185 Y135.773 E0.01713
G1 X103.909 Y145.497 E0.43217
G1 X103.899 Y144.952 E0.01712
G1 X94.175 Y135.228 E0.43219
G1 X94.164 Y134.683 E0.01713
G1 X103.889 Y144.408 E0.43221
G1 X103.879 Y143.863 E0.01712
G1 X94.154 Y134.138 E0.43223
G1 X94.143 Y133.593 E0.01713
G1 X103.869 Y143.319 E0.43225
G1 X103.860 Y142.775 E0.01708
G1 X94.133 Y133.048 E0.43231
G1 X94.122 Y132.503 E0.01712
G1 X103.853 Y142.233 E0.43244
G1 X103.845 Y141.692 E0.01703
G1 X94.116 Y131.963 E0.43239
G1 X94.110 Y131.422 E0.01699
G1 X103.838 Y141.150 E0.43234
G1 X103.831 Y140.608 E0.01703
G1 X94.104 Y130.881 E0.43228
G1 X94.098 Y130.341 E0.01699
G1 X103.823 Y140.066 E0.43223
G1 X103.816 Y139.524 E0.01703
G1 X94.092 Y129.800 E0.43218
G1 X94.086 Y129.260 E0.01699
G1 X103.809 Y138.983 E0.43212
G1 X103.801 Y138.441 E0.01703
G1 X94.080 Y128.719 E0.43207
G1 X94.074 Y128.178 E0.01699
G1 X103.794 Y137.899 E0.43202
G1 X103.787 Y137.357 E0.01703
G1 X94.067 Y127.638 E0.43196
G1 X94.063 Y127.099 E0.01694
G1 X103.780 Y136.816 E0.43184
G1 X103.772 Y136.274 E0.01703
G1 X94.060 Y126.561 E0.43165
G1 X94.057 Y126.024 E0.01690
G1 X103.765 Y135.732 E0.43147
G1 X103.758 Y135.190 E0.01703
G1 X94.053 Y125.486 E0.43129
G1 X94.050 Y124.948 E0.01690
G1 X103.750 Y134.648 E0.43111
G1 X103.743 Y134.107 E0.01703
G1 X94.047 Y124.411 E0.43092
G1 X94.044 Y123.873 E0.01690
G1 X103.736 Y133.565 E0.43074
G1 X103.728 Y133.023 E0.01703
G1 X94.041 Y123.335 E0.43056
G1 X94.038 Y122.798 E0.01690
G1 X103.721 Y132.481 E0.43037
G1 X103.716 Y131.941 E0.01697
G1 X94.035 Y122.260 E0.43027
G1 X94.034 Y121.725 E0.01681
G1 X103.711 Y131.402 E0.43009
G1 X103.707 Y130.864 E0.01694
G1 X94.033 Y121.190 E0.42992
G1 X94.033 Y120.655 E0.01681
G1 X103.703 Y130.325 E0.42975
G1 X103.698 Y129.786 E0.01694
G1 X94.032 Y120.120 E0.42958
G1 X94.032 Y119.585 E0.01681
G1 X103.694 Y129.247 E0.42941
G1 X103.690 Y128.708 E0.01694
G1 X94.031 Y119.050 E0.42924
G1 X94.031 Y118.515 E0.01681
G1 X103.685 Y128.169 E0.42907
G1 X103.681 Y127.630 E0.01694
G1 X94.030 Y117.980 E0.42890
G1 X94.030 Y117.445 E0.01681
G1 X103.676 Y127.092 E0.42873
G1 X103.672 Y126.553 E0.01694
G1 X94.031 Y116.912 E0.42847
G1 X94.034 Y116.380 E0.01670
G1 X103.671 Y126.017 E0.42828
G1 X103.669 Y125.481 E0.01684
G1 X94.037 Y115.849 E0.42809
G1 X94.040 Y115.317 E0.01670
G1 X103.668 Y124.945 E0.42791
G1 X103.667 Y124.409 E0.01684
G1 X94.043 Y114.786 E0.42772
G1 X94.046 Y114.254 E0.01670
G1 X103.666 Y123.874 E0.42753
G1 X103.664 Y123.338 E0.01684
G1 X94.049 Y113.723 E0.42734
G1 X94.052 Y113.191 E0.01670
G1 X103.663 Y122.802 E0.42715
G1 X103.662 Y122.266 E0.01684
G1 X94.055 Y112.659 E0.42696
G1 X94.058 Y112.128 E0.01670
G1 X103.660 Y121.731 E0.42677
G1 X103.659 Y121.195 E0.01684
G1 X94.061 Y111.596 E0.42658
G1 X94.064 Y111.065 E0.01670
G1 X103.658 Y120.659 E0.42639
G1 X103.656 Y120.123 E0.01684
G1 X94.067 Y110.533 E0.42620
G1 X94.070 Y110.002 E0.01670
G1 X103.655 Y119.587 E0.42601
G1 X103.654 Y119.052 E0.01684
G1 X94.073 Y109.470 E0.42582
G1 X94.076 Y108.939 E0.01670
G1 X103.653 Y118.516 E0.42563
G1 X103.651 Y117.980 E0.01684
G1 X94.079 Y108.407 E0.42544
G1 X94.082 Y107.876 E0.01670
G1 X103.650 Y117.444 E0.42525
G1 X103.649 Y116.908 E0.01684
G1 X94.084 Y107.344 E0.42507
G1 X94.089 Y106.814 E0.01665
G1 X103.647 Y116.373 E0.42480
G1 X103.646 Y115.837 E0.01684
G1 X94.096 Y106.287 E0.42444
G1 X94.103 Y105.759 E0.01658
G1 X103.647 Y115.304 E0.42419
G1 X103.650 Y114.771 E0.01672
G1 X94.110 Y105.231 E0.42399
G1 X94.116 Y104.704 E0.01658
G1 X103.652 Y114.239 E0.42380
G1 X103.654 Y113.707 E0.01672
G1 X94.123 Y104.176 E0.42360
G1 X94.130 Y103.648 E0.01658
G1 X103.657 Y113.175 E0.42340
G1 X103.659 Y112.643 E0.01672
G1 X94.137 Y103.121 E0.42320
G1 X94.144 Y102.593 E0.01658
G1 X103.661 Y112.111 E0.42300
G1 X103.664 Y111.579 E0.01672
G1 X94.150 Y102.065 E0.42280
G1 X94.157 Y101.538 E0.01658
G1 X103.666 Y111.046 E0.42260
G1 X103.668 Y110.514 E0.01672
G1 X94.164 Y101.010 E0.42241
G1 X94.171 Y100.482 E0.01658
G1 X103.671 Y109.982 E0.42221
M73 Q2 S104
G1 X103.673 Y109.450 E0.01672
G1 X94.178 Y99.955 E0.42201
M73 P2 R103
G1 X94.185 Y99.427 E0.01658
G1 X103.676 Y108.918 E0.42181
G1 X103.678 Y108.386 E0.01672
G1 X94.191 Y98.899 E0.42161
G1 X94.198 Y98.372 E0.01658
G1 X103.680 Y107.854 E0.42141
G1 X103.683 Y107.321 E0.01672
G1 X94.205 Y97.844 E0.42121
G1 X94.212 Y97.316 E0.01658
G1 X103.685 Y106.789 E0.42101
G1 X103.687 Y106.257 E0.01672
G1 X94.220 Y96.789 E0.42078
G1 X94.229 Y96.265 E0.01650
G1 X103.690 Y105.725 E0.42045
G1 X103.692 Y105.193 E0.01672
G1 X94.239 Y95.740 E0.42013
G1 X94.248 Y95.215 E0.01650
G1 X103.695 Y104.662 E0.41985
G1 X103.701 Y104.133 E0.01663
G1 X94.258 Y94.690 E0.41966
G1 X94.268 Y94.165 E0.01650
G1 X103.706 Y103.604 E0.41948
G1 X103.712 Y103.074 E0.01663
G1 X94.277 Y93.640 E0.41929
G1 X94.287 Y93.115 E0.01650
G1 X103.717 Y102.545 E0.41910
G1 X103.722 Y102.016 E0.01663
G1 X94.297 Y92.591 E0.41891
G1 X94.306 Y92.066 E0.01650
G1 X103.728 Y101.487 E0.41872
G1 X103.733 Y100.958 E0.01663
G1 X94.316 Y91.541 E0.41853
G1 X94.326 Y91.016 E0.01650
G1 X103.739 Y100.429 E0.41834
G1 X103.744 Y99.900 E0.01663
G1 X94.335 Y90.491 E0.41815
G1 X94.345 Y89.966 E0.01650
G1 X103.749 Y99.371 E0.41796
G1 X103.755 Y98.842 E0.01663
