; generated by PrusaSlicer 2.2.0+linux-x64 on 2020-06-29 at 13:50:50 UTC

; 

; external perimeters extrusion width = 0.45mm
; perimeters extrusion width = 0.45mm
; infill extrusion width = 0.45mm
; solid infill extrusion width = 0.45mm
; top infill extrusion width = 0.40mm
; first layer extrusion width = 0.42mm

M73 P0 R90
M73 Q0 S92
M201 X1000 Y1000 Z200 E5000 ; sets maximum accelerations, mm/sec^2
M203 X200 Y200 Z12 E120 ; sets maximum feedrates, mm/sec
M204 P1250 R1250 T1250 ; sets acceleration (P, T) and retract acceleration (R), mm/sec^2
M205 X8.00 Y8.00 Z0.40 E4.50 ; sets the jerk limits, mm/sec
M205 S0 T0 ; sets the minimum extruding and travel feed rate, mm/sec
M107
M862.3 P "MK3" ; printer model check
M862.1 P0.4 ; nozzle diameter check
M115 U3.9.0 ; tell printer latest fw version
G90 ; use absolute coordinates
M83 ; extruder relative mode
M104 S215 ; set extruder temp
M140 S60 ; set bed temp
M190 S60 ; wait for bed temp
M109 S215 ; wait for extruder temp
G28 W ; home all without mesh bed level
G80 ; mesh bed leveling
G1 Y-3.0 F1000.0 ; go outside print area
G92 E0.0
G1 X60.0 E9.0 F1000.0 ; intro line
M73 Q0 S91
M73 P0 R90
G1 X100.0 E12.5 F1000.0 ; intro line
G92 E0.0
M221 S95
G21 ; set units to millimeters
G90 ; use absolute coordinates
M83 ; use relative distances for extrusion
M900 K0.06 ; Filament gcode LA 1.5
M900 K30 ; Filament gcode LA 1.0
;BEFORE_LAYER_CHANGE
G92 E0.0
;0.2


G1 E-0.80000 F2100.00000
G1 Z0.600 F10800.000
;AFTER_LAYER_CHANGE
;0.2
G1 X102.282 Y28.495
G1 Z0.200
G1 E0.80000 F2100.00000
M204 S1000
G1 F1200.000
G1 X103.004 Y28.349 E0.02308
G1 X136.288 Y28.006 E1.04366
G1 X147.867 Y28.006 E0.36305
G1 X148.769 Y28.185 E0.02884
G1 X149.533 Y28.691 E0.02872
G1 X150.049 Y29.448 E0.02872
G1 X150.240 Y30.347 E0.02884
G1 X150.372 Y46.920 E0.51965
G1 X150.211 Y180.386 E4.18471
G1 X150.115 Y181.051 E0.02107
G1 X149.801 Y181.717 E0.02308
G1 X149.299 Y182.255 E0.02308
G1 X148.656 Y182.613 E0.02308
G1 X147.931 Y182.758 E0.02319
G1 X114.642 Y183.101 E1.04378
G1 X103.119 Y183.101 E0.36130
G1 X102.469 Y183.005 E0.02060
G1 X101.788 Y182.680 E0.02367
G1 X101.243 Y182.158 E0.02367
G1 X100.889 Y181.492 E0.02367
G1 X100.761 Y180.748 E0.02367
G1 X100.598 Y44.853 E4.26089
G1 X100.732 Y30.687 E0.44419
G1 X100.827 Y30.056 E0.02000
G1 X101.141 Y29.390 E0.02308
G1 X101.640 Y28.854 E0.02296
G1 X102.230 Y28.524 E0.02119
G1 F8640.000
G1 X103.004 Y28.349 E-0.18318
G1 X105.502 Y28.323 E-0.57682
G1 E-0.04000 F2100.00000
G1 Z0.800 F10800.000
G1 X103.886 Y31.511
G1 Z0.200
G1 E0.80000 F2100.00000
G1 F1200.000
G1 X113.867 Y31.511 E0.31296
G1 X113.782 Y37.306 E0.18172
G1 X113.751 Y40.817 E0.11009
G1 X113.746 Y49.385 E0.26865
G1 X113.826 Y58.143 E0.27461
G1 X114.091 Y76.741 E0.58318
G1 X114.225 Y88.236 E0.36045
G1 X114.314 Y100.629 E0.38857
G1 X114.346 Y114.013 E0.41966
G1 X114.309 Y130.490 E0.51663
G1 X114.203 Y147.304 E0.52718
G1 X114.041 Y164.248 E0.53129
G1 X113.852 Y179.937 E0.49195
G1 X103.934 Y179.937 E0.31097
G1 X104.117 Y162.902 E0.53414
G1 X104.290 Y141.660 E0.66605
G1 X104.372 Y125.588 E0.50395
G1 X104.395 Y112.514 E0.40991
G1 X104.367 Y99.971 E0.39328
G1 X104.278 Y87.789 E0.38198
G1 X104.142 Y76.511 E0.35362
G1 X103.861 Y58.089 E0.57769
G1 X103.774 Y49.686 E0.26347
G1 X103.762 Y44.856 E0.15145
G1 X103.783 Y40.120 E0.14851
G1 X103.885 Y31.571 E0.26806
G1 X103.513 Y31.134 F10800.000
G1 F1200.000
G1 X114.250 Y31.134 E0.33665
G1 X114.159 Y37.310 E0.19368
G1 X114.128 Y40.819 E0.11000
G1 X114.123 Y49.383 E0.26855
G1 X114.203 Y58.138 E0.27452
G1 X114.469 Y76.736 E0.58317
G1 X114.602 Y88.233 E0.36050
G1 X114.691 Y100.627 E0.38862
G1 X114.723 Y114.013 E0.41972
G1 X114.686 Y130.492 E0.51668
G1 X114.580 Y147.307 E0.52722
G1 X114.419 Y164.252 E0.53133
G1 X114.225 Y180.314 E0.50365
G1 X103.553 Y180.314 E0.33460
G1 X103.740 Y162.899 E0.54607
G1 X103.913 Y141.658 E0.66602
G1 X103.995 Y125.586 E0.50391
G1 X104.018 Y112.514 E0.40986
G1 X103.990 Y99.973 E0.39323
G1 X103.901 Y87.792 E0.38192
G1 X103.765 Y76.517 E0.35358
G1 X103.484 Y58.094 E0.57770
G1 X103.397 Y49.689 E0.26355
G1 X103.385 Y44.856 E0.15153
G1 X103.406 Y40.117 E0.14859
G1 X103.512 Y31.194 E0.27979
G1 X103.859 Y31.335 F10800.000
G1 F8640.000
G1 X106.804 Y31.175 E-0.76000
G1 E-0.04000 F2100.00000
G1 Z0.800 F10800.000
G1 X104.811 Y179.824
G1 Z0.200
G1 E0.80000 F2100.00000
G1 F1200.000
G1 X104.224 Y179.237 E0.02604
G1 X104.230 Y178.709 E0.01657
G1 X105.175 Y179.654 E0.04195
G1 X105.709 Y179.654 E0.01675
G1 X104.236 Y178.181 E0.06538
G1 X104.241 Y177.653 E0.01657
G1 X106.243 Y179.654 E0.08881
G1 X106.776 Y179.654 E0.01675
G1 X104.247 Y177.125 E0.11225
G1 X104.253 Y176.597 E0.01657
G1 X107.310 Y179.654 E0.13568
G1 X107.844 Y179.654 E0.01675
G1 X104.258 Y176.069 E0.15911
G1 X104.264 Y175.541 E0.01657
G1 X108.378 Y179.654 E0.18254
G1 X108.911 Y179.654 E0.01675
G1 X104.270 Y175.013 E0.20598
G1 X104.276 Y174.484 E0.01657
G1 X109.445 Y179.654 E0.22941
G1 X109.979 Y179.654 E0.01675
G1 X104.281 Y173.956 E0.25284
M73 Q1 S90
G1 X104.287 Y173.428 E0.01657
G1 X110.512 Y179.654 E0.27628
M73 P1 R89
G1 X111.046 Y179.654 E0.01675
G1 X104.293 Y172.900 E0.29971
G1 X104.298 Y172.372 E0.01657
G1 X111.580 Y179.654 E0.32314
G1 X112.114 Y179.654 E0.01675
G1 X104.304 Y171.844 E0.34658
G1 X104.310 Y171.316 E0.01657
G1 X112.647 Y179.654 E0.37001
G1 X113.181 Y179.654 E0.01675
G1 X104.315 Y170.788 E0.39344
G1 X104.321 Y170.260 E0.01657
G1 X113.574 Y179.513 E0.41065
G1 X113.581 Y178.986 E0.01655
G1 X104.327 Y169.732 E0.41068
G1 X104.332 Y169.204 E0.01657
G1 X113.587 Y178.459 E0.41071
G1 X113.593 Y177.931 E0.01655
G1 X104.338 Y168.676 E0.41074
G1 X104.344 Y168.148 E0.01657
G1 X113.600 Y177.404 E0.41077
G1 X113.606 Y176.877 E0.01655
G1 X104.349 Y167.620 E0.41080
G1 X104.355 Y167.092 E0.01657
G1 X113.612 Y176.349 E0.41083
G1 X113.619 Y175.822 E0.01655
G1 X104.361 Y166.564 E0.41086
G1 X104.366 Y166.036 E0.01657
G1 X113.625 Y175.295 E0.41089
G1 X113.632 Y174.767 E0.01655
G1 X104.372 Y165.508 E0.41092
G1 X104.378 Y164.980 E0.01657
G1 X113.638 Y174.240 E0.41095
G1 X113.644 Y173.713 E0.01655
G1 X104.384 Y164.452 E0.41098
G1 X104.389 Y163.924 E0.01657
G1 X113.651 Y173.185 E0.41101
G1 X113.657 Y172.658 E0.01655
G1 X104.395 Y163.396 E0.41104
G1 X104.401 Y162.868 E0.01657
G1 X113.663 Y172.131 E0.41107
G1 X113.670 Y171.603 E0.01655
G1 X104.405 Y162.338 E0.41117
G1 X104.409 Y161.809 E0.01661
G1 X113.676 Y171.076 E0.41126
G1 X113.683 Y170.549 E0.01655
G1 X104.413 Y161.279 E0.41135
G1 X104.418 Y160.750 E0.01661
G1 X113.689 Y170.021 E0.41144
G1 X113.695 Y169.494 E0.01655
G1 X104.422 Y160.221 E0.41153
G1 X104.426 Y159.691 E0.01661
G1 X113.702 Y168.967 E0.41163
G1 X113.708 Y168.439 E0.01655
G1 X104.431 Y159.162 E0.41172
G1 X104.435 Y158.632 E0.01661
G1 X113.714 Y167.912 E0.41181
G1 X113.721 Y167.385 E0.01655
G1 X104.439 Y158.103 E0.41190
G1 X104.444 Y157.574 E0.01661
G1 X113.727 Y166.857 E0.41199
G1 X113.733 Y166.330 E0.01655
G1 X104.448 Y157.044 E0.41208
G1 X104.452 Y156.515 E0.01661
G1 X113.740 Y165.803 E0.41218
G1 X113.746 Y165.275 E0.01655
G1 X104.456 Y155.985 E0.41227
G1 X104.461 Y155.456 E0.01661
G1 X113.753 Y164.748 E0.41236
G1 X113.759 Y164.220 E0.01655
G1 X104.465 Y154.927 E0.41245
G1 X104.469 Y154.397 E0.01661
G1 X113.764 Y163.692 E0.41248
G1 X113.769 Y163.163 E0.01659
G1 X104.474 Y153.868 E0.41251
G1 X104.478 Y153.338 E0.01661
G1 X113.774 Y162.634 E0.41254
G1 X113.779 Y162.106 E0.01659
G1 X104.482 Y152.809 E0.41258
G1 X104.487 Y152.280 E0.01661
G1 X113.784 Y161.577 E0.41261
G1 X113.789 Y161.048 E0.01659
G1 X104.491 Y151.750 E0.41264
G1 X104.495 Y151.221 E0.01661
G1 X113.794 Y160.520 E0.41267
G1 X113.799 Y159.991 E0.01659
G1 X104.499 Y150.691 E0.41270
G1 X104.504 Y150.162 E0.01661
G1 X113.804 Y159.462 E0.41274
G1 X113.809 Y158.934 E0.01659
G1 X104.508 Y149.632 E0.41277
G1 X104.512 Y149.103 E0.01661
G1 X113.814 Y158.405 E0.41280
G1 X113.819 Y157.876 E0.01659
G1 X104.517 Y148.574 E0.41283
G1 X104.521 Y148.044 E0.01661
G1 X113.824 Y157.347 E0.41287
G1 X113.829 Y156.819 E0.01659
G1 X104.525 Y147.515 E0.41290
G1 X104.530 Y146.985 E0.01661
G1 X113.834 Y156.290 E0.41293
G1 X113.839 Y155.761 E0.01659
G1 X104.534 Y146.456 E0.41296
G1 X104.538 Y145.927 E0.01661
G1 X113.844 Y155.233 E0.41299
G1 X113.849 Y154.704 E0.01659
G1 X104.543 Y145.397 E0.41303
G1 X104.547 Y144.868 E0.01661
G1 X113.854 Y154.175 E0.41306
G1 X113.859 Y153.647 E0.01659
G1 X104.551 Y144.338 E0.41309
G1 X104.555 Y143.809 E0.01661
G1 X113.864 Y153.118 E0.41312
G1 X113.870 Y152.589 E0.01659
G1 X104.560 Y143.280 E0.41315
G1 X104.564 Y142.750 E0.01661
G1 X113.875 Y152.061 E0.41319
G1 X113.880 Y151.532 E0.01659
G1 X104.568 Y142.221 E0.41322
G1 X104.573 Y141.691 E0.01661
G1 X113.885 Y151.003 E0.41325
G1 X113.890 Y150.475 E0.01659
G1 X104.575 Y141.160 E0.41335
G1 X104.578 Y140.629 E0.01666
G1 X113.895 Y149.946 E0.41345
G1 X113.900 Y149.417 E0.01659
G1 X104.581 Y140.098 E0.41355
G1 X104.584 Y139.567 E0.01666
G1 X113.905 Y148.888 E0.41366
G1 X113.910 Y148.360 E0.01659
G1 X104.586 Y139.036 E0.41376
G1 X104.589 Y138.505 E0.01666
G1 X113.915 Y147.831 E0.41386
G1 X113.920 Y147.302 E0.01659
G1 X104.592 Y137.974 E0.41396
G1 X104.594 Y137.443 E0.01666
G1 X113.923 Y146.772 E0.41399
G1 X113.926 Y146.242 E0.01664
G1 X104.597 Y136.912 E0.41402
G1 X104.600 Y136.381 E0.01666
G1 X113.930 Y145.711 E0.41405
G1 X113.933 Y145.181 E0.01664
G1 X104.603 Y135.850 E0.41408
G1 X104.605 Y135.319 E0.01666
G1 X113.937 Y144.651 E0.41411
G1 X113.940 Y144.120 E0.01664
G1 X104.608 Y134.788 E0.41414
G1 X104.611 Y134.257 E0.01666
G1 X113.943 Y143.590 E0.41416
G1 X113.947 Y143.060 E0.01664
G1 X104.613 Y133.726 E0.41419
G1 X104.616 Y133.195 E0.01666
G1 X113.950 Y142.529 E0.41422
G1 X113.953 Y141.999 E0.01664
G1 X104.619 Y132.664 E0.41425
G1 X104.622 Y132.133 E0.01666
G1 X113.957 Y141.469 E0.41428
G1 X113.960 Y140.938 E0.01664
G1 X104.624 Y131.602 E0.41431
G1 X104.627 Y131.071 E0.01666
G1 X113.963 Y140.408 E0.41433
G1 X113.967 Y139.877 E0.01664
G1 X104.630 Y130.540 E0.41436
G1 X104.633 Y130.009 E0.01666
G1 X113.970 Y139.347 E0.41439
G1 X113.974 Y138.817 E0.01664
G1 X104.635 Y129.478 E0.41442
G1 X104.638 Y128.947 E0.01666
G1 X113.977 Y138.286 E0.41445
G1 X113.980 Y137.756 E0.01664
G1 X104.641 Y128.416 E0.41448
G1 X104.643 Y127.885 E0.01666
G1 X113.984 Y137.226 E0.41451
G1 X113.987 Y136.695 E0.01664
G1 X104.646 Y127.354 E0.41453
M73 Q2 S89
G1 X104.649 Y126.823 E0.01666
G1 X113.990 Y136.165 E0.41456
M73 P2 R88
G1 X113.994 Y135.635 E0.01664
G1 X104.652 Y126.292 E0.41459
G1 X104.654 Y125.761 E0.01666
G1 X113.997 Y135.104 E0.41462
G1 X114.000 Y134.574 E0.01664
G1 X104.656 Y125.229 E0.41470
G1 X104.657 Y124.696 E0.01672
G1 X114.004 Y134.044 E0.41481
G1 X114.007 Y133.513 E0.01664
G1 X104.658 Y124.164 E0.41492
G1 X104.659 Y123.631 E0.01672
G1 X114.010 Y132.983 E0.41502
G1 X114.014 Y132.453 E0.01664
G1 X104.659 Y123.098 E0.41513
G1 X104.660 Y122.565 E0.01672
G1 X114.017 Y131.922 E0.41524
G1 X114.021 Y131.392 E0.01664
G1 X104.661 Y122.033 E0.41535
G1 X104.662 Y121.500 E0.01672
G1 X114.024 Y130.861 E0.41546
G1 X114.027 Y130.330 E0.01666
G1 X104.663 Y120.967 E0.41554
G1 X104.664 Y120.434 E0.01672
G1 X114.028 Y129.798 E0.41555
G1 X114.029 Y129.265 E0.01671
G1 X104.665 Y119.901 E0.41556
G1 X104.666 Y119.369 E0.01672
G1 X114.030 Y128.733 E0.41557
G1 X114.031 Y128.200 E0.01671
G1 X104.667 Y118.836 E0.41558
G1 X104.668 Y118.303 E0.01672
G1 X114.033 Y127.668 E0.41559
G1 X114.034 Y127.135 E0.01671
G1 X104.669 Y117.770 E0.41561
G1 X104.670 Y117.237 E0.01672
G1 X114.035 Y126.603 E0.41562
G1 X114.036 Y126.070 E0.01671
G1 X104.671 Y116.705 E0.41563
G1 X104.672 Y116.172 E0.01672
G1 X114.037 Y125.538 E0.41564
G1 X114.039 Y125.005 E0.01671
G1 X104.672 Y115.639 E0.41565
G1 X104.673 Y115.106 E0.01672
G1 X114.040 Y124.473 E0.41566
G1 X114.041 Y123.940 E0.01671
G1 X104.674 Y114.574 E0.41568
G1 X104.675 Y114.041 E0.01672
G1 X114.042 Y123.408 E0.41569
G1 X114.043 Y122.875 E0.01671
G1 X104.676 Y113.508 E0.41570
G1 X104.677 Y112.975 E0.01672
G1 X114.045 Y122.343 E0.41571
G1 X114.046 Y121.810 E0.01671
G1 X104.678 Y112.442 E0.41574
G1 X104.677 Y111.907 E0.01679
G1 X114.047 Y121.278 E0.41584
G1 X114.048 Y120.745 E0.01671
G1 X104.675 Y111.372 E0.41595
G1 X104.674 Y110.837 E0.01679
G1 X114.049 Y120.213 E0.41606
G1 X114.051 Y119.680 E0.01671
G1 X104.673 Y110.302 E0.41616
G1 X104.672 Y109.768 E0.01679
G1 X114.052 Y119.147 E0.41627
G1 X114.053 Y118.615 E0.01671
G1 X104.671 Y109.233 E0.41638
G1 X104.669 Y108.698 E0.01679
G1 X114.054 Y118.082 E0.41648
G1 X114.055 Y117.550 E0.01671
G1 X104.668 Y108.163 E0.41659
G1 X104.667 Y107.628 E0.01679
G1 X114.056 Y117.017 E0.41670
G1 X114.058 Y116.485 E0.01671
G1 X104.666 Y107.093 E0.41680
G1 X104.664 Y106.558 E0.01679
G1 X114.059 Y115.952 E0.41691
G1 X114.060 Y115.420 E0.01671
G1 X104.663 Y106.023 E0.41701
G1 X104.662 Y105.488 E0.01679
G1 X114.061 Y114.887 E0.41712
G1 X114.062 Y114.355 E0.01671
G1 X104.661 Y104.953 E0.41723
G1 X104.660 Y104.418 E0.01679
G1 X114.063 Y113.821 E0.41730
G1 X114.061 Y113.286 E0.01679
G1 X104.658 Y103.883 E0.41729
G1 X104.657 Y103.348 E0.01679
G1 X114.060 Y112.751 E0.41729
G1 X114.059 Y112.216 E0.01679
G1 X104.656 Y102.814 E0.41729
G1 X104.655 Y102.279 E0.01679
G1 X114.058 Y111.681 E0.41728
G1 X114.056 Y111.146 E0.01679
G1 X104.654 Y101.744 E0.41728
G1 X104.652 Y101.209 E0.01679
G1 X114.055 Y110.611 E0.41727
G1 X114.054 Y110.076 E0.01679
G1 X104.651 Y100.674 E0.41727
G1 X104.650 Y100.139 E0.01679
G1 X114.052 Y109.541 E0.41727
G1 X114.051 Y109.006 E0.01679
G1 X104.647 Y99.602 E0.41735
G1 X104.643 Y99.065 E0.01687
G1 X114.050 Y108.471 E0.41746
G1 X114.049 Y107.936 E0.01679
G1 X104.639 Y98.527 E0.41758
G1 X104.635 Y97.989 E0.01687
G1 X114.047 Y107.401 E0.41770
G1 X114.046 Y106.866 E0.01679
G1 X104.631 Y97.452 E0.41782
G1 X104.627 Y96.914 E0.01687
G1 X114.045 Y106.331 E0.41793
G1 X114.043 Y105.796 E0.01679
G1 X104.623 Y96.376 E0.41805
G1 X104.619 Y95.839 E0.01687
G1 X114.042 Y105.261 E0.41817
G1 X114.041 Y104.726 E0.01679
G1 X104.616 Y95.301 E0.41828
G1 X104.612 Y94.763 E0.01687
G1 X114.040 Y104.191 E0.41840
G1 X114.038 Y103.656 E0.01679
G1 X104.608 Y94.226 E0.41852
G1 X104.604 Y93.688 E0.01687
G1 X114.037 Y103.121 E0.41863
G1 X114.036 Y102.586 E0.01679
G1 X104.600 Y93.151 E0.41875
G1 X104.596 Y92.613 E0.01687
G1 X114.034 Y102.051 E0.41887
G1 X114.033 Y101.516 E0.01679
G1 X104.592 Y92.075 E0.41899
G1 X104.588 Y91.538 E0.01687
G1 X114.032 Y100.981 E0.41910
G1 X114.031 Y100.630 E0.01103
G1 X114.030 Y100.446 E0.00579
G1 X104.584 Y91.000 E0.41918
G1 X104.580 Y90.462 E0.01687
G1 X114.026 Y99.908 E0.41918
G1 X114.022 Y99.370 E0.01687
G1 X104.576 Y89.925 E0.41919
G1 X104.572 Y89.387 E0.01687
G1 X114.018 Y98.833 E0.41919
G1 X114.014 Y98.295 E0.01687
G1 X104.569 Y88.849 E0.41919
G1 X104.565 Y88.312 E0.01687
G1 X114.011 Y97.758 E0.41920
G1 X114.007 Y97.220 E0.01687
G1 X104.561 Y87.774 E0.41920
G1 X104.554 Y87.234 E0.01695
G1 X114.003 Y96.683 E0.41932
G1 X113.999 Y96.145 E0.01687
G1 X104.548 Y86.694 E0.41944
G1 X104.541 Y86.153 E0.01695
G1 X113.995 Y95.608 E0.41956
G1 X113.991 Y95.070 E0.01687
G1 X104.535 Y85.613 E0.41968
G1 X104.528 Y85.073 E0.01695
G1 X113.987 Y94.532 E0.41980
G1 X113.984 Y93.995 E0.01687
G1 X104.522 Y84.533 E0.41991
G1 X104.515 Y83.993 E0.01695
G1 X113.980 Y93.457 E0.42003
G1 X113.976 Y92.920 E0.01687
G1 X104.509 Y83.452 E0.42015
G1 X104.502 Y82.912 E0.01695
G1 X113.972 Y92.382 E0.42027
G1 X113.968 Y91.845 E0.01687
G1 X104.496 Y82.372 E0.42039
G1 X104.489 Y81.832 E0.01695
G1 X113.964 Y91.307 E0.42050
G1 X113.961 Y90.770 E0.01687
G1 X104.483 Y81.291 E0.42062
M73 Q3 S88
G1 X104.476 Y80.751 E0.01695
G1 X113.957 Y90.232 E0.42074
M73 P3 R87
G1 X113.953 Y89.694 E0.01687
G1 X104.470 Y80.211 E0.42086
G1 X104.463 Y79.671 E0.01695
G1 X113.949 Y89.157 E0.42098
G1 X113.945 Y88.619 E0.01687
G1 X104.456 Y79.131 E0.42110
G1 X104.450 Y78.590 E0.01695
G1 X113.941 Y88.081 E0.42118
G1 X113.934 Y87.541 E0.01695
G1 X104.443 Y78.050 E0.42119
G1 X104.437 Y77.510 E0.01695
G1 X113.928 Y87.001 E0.42120
G1 X113.922 Y86.461 E0.01695
G1 X104.430 Y76.970 E0.42121
G1 X104.424 Y76.429 E0.01696
G1 X113.916 Y85.921 E0.42123
G1 X113.909 Y85.381 E0.01695
