; generated by PrusaSlicer 2.2.0+linux-x64 on 2020-06-29 at 15:56:56 UTC

; 

; external perimeters extrusion width = 0.45mm
; perimeters extrusion width = 0.45mm
; infill extrusion width = 0.45mm
; solid infill extrusion width = 0.45mm
; top infill extrusion width = 0.40mm
; first layer extrusion width = 0.42mm

M73 P0 R103
M73 Q0 S104
M201 X1000 Y1000 Z200 E5000 ; sets maximum accelerations, mm/sec^2
M203 X200 Y200 Z12 E120 ; sets maximum feedrates, mm/sec
M204 P1250 R1250 T1250 ; sets acceleration (P, T) and retract acceleration (R), mm/sec^2
M205 X8.00 Y8.00 Z0.40 E4.50 ; sets the jerk limits, mm/sec
M205 S0 T0 ; sets the minimum extruding and travel feed rate, mm/sec
M107
M862.3 P "MK3" ; printer model check
M862.1 P0.4 ; nozzle diameter check
M115 U3.9.0 ; tell printer latest fw version
G90 ; use absolute coordinates
M83 ; extruder relative mode
M104 S215 ; set extruder temp
M140 S60 ; set bed temp
M190 S60 ; wait for bed temp
M109 S215 ; wait for extruder temp
G28 W ; home all without mesh bed level
G80 ; mesh bed leveling
G1 Y-3.0 F1000.0 ; go outside print area
G92 E0.0
G1 X60.0 E9.0 F1000.0 ; intro line
M73 Q0 S104
M73 P0 R103
G1 X100.0 E12.5 F1000.0 ; intro line
G92 E0.0
M221 S95
G21 ; set units to millimeters
G90 ; use absolute coordinates
M83 ; use relative distances for extrusion
M900 K0.06 ; Filament gcode LA 1.5
M900 K30 ; Filament gcode LA 1.0
;BEFORE_LAYER_CHANGE
G92 E0.0
;0.2


G1 E-0.80000 F2100.00000
G1 Z0.600 F10800.000
;AFTER_LAYER_CHANGE
;0.2
G1 X92.180 Y29.318
G1 Z0.200
G1 E0.80000 F2100.00000
M204 S1000
G1 F1200.000
G1 X92.722 Y28.730 E0.02508
G1 X93.382 Y28.371 E0.02355
G1 X94.117 Y28.236 E0.02343
G1 X112.819 Y28.235 E0.58638
G1 X161.178 Y28.306 E1.51629
G1 X161.840 Y28.421 E0.02107
G1 X162.444 Y28.717 E0.02107
G1 X162.940 Y29.170 E0.02107
G1 X163.290 Y29.743 E0.02107
G1 X166.288 Y40.341 E0.34533
G1 X168.972 Y50.774 E0.33777
G1 X171.436 Y61.421 E0.34265
G1 X173.117 Y69.510 E0.25903
G1 X174.638 Y77.648 E0.25960
G1 X176.405 Y88.496 E0.34460
G1 X177.535 Y96.600 E0.25657
G1 X178.777 Y107.229 E0.33553
G1 X179.745 Y117.702 E0.32976
G1 X180.432 Y127.637 E0.31225
G1 X180.961 Y139.323 E0.36681
G1 X181.190 Y150.132 E0.33896
G1 X181.183 Y161.938 E0.37019
G1 X180.852 Y180.812 E0.59187
G1 X180.726 Y181.457 E0.02060
G1 X180.428 Y182.042 E0.02060
G1 X179.981 Y182.524 E0.02060
G1 X179.420 Y182.865 E0.02060
G1 X178.483 Y183.059 E0.03001
G1 X76.773 Y182.989 E3.18903
G1 X76.098 Y182.883 E0.02142
G1 X75.481 Y182.589 E0.02142
G1 X74.976 Y182.135 E0.02130
G1 X74.619 Y181.553 E0.02142
G1 X74.426 Y180.680 E0.02802
G1 X74.117 Y163.616 E0.53511
G1 X74.065 Y154.116 E0.29789
G1 X74.151 Y145.842 E0.25944
G1 X74.399 Y136.992 E0.27759
G1 X74.715 Y129.961 E0.22068
G1 X75.339 Y120.165 E0.30776
G1 X75.977 Y112.512 E0.24079
G1 X76.770 Y104.664 E0.24733
G1 X77.728 Y96.664 E0.25263
G1 X78.854 Y88.568 E0.25628
G1 X80.150 Y80.423 E0.25858
G1 X81.611 Y72.288 E0.25915
G1 X83.235 Y64.189 E0.25901
G1 X85.011 Y56.153 E0.25804
G1 X86.924 Y48.216 E0.25598
G1 X88.958 Y40.397 E0.25332
G1 X91.858 Y30.061 E0.33660
G1 X92.156 Y29.373 E0.02350
G1 F8640.000
G1 X92.722 Y28.730 E-0.19783
G1 X93.382 Y28.371 E-0.17341
G1 X94.117 Y28.236 E-0.17255
G1 X95.053 Y28.236 E-0.21621
G1 E-0.04000 F2100.00000
G1 Z0.800 F10800.000
G1 X143.600 Y31.469
G1 Z0.200
G1 E0.80000 F2100.00000
G1 F1200.000
G1 X160.514 Y31.469 E0.53034
G1 X161.831 Y36.069 E0.15002
G1 X163.233 Y41.168 E0.16579
G1 X164.591 Y46.321 E0.16708
G1 X165.250 Y48.914 E0.08390
G1 X166.534 Y54.158 E0.16927
G1 X167.758 Y59.445 E0.17016
G1 X168.919 Y64.772 E0.17093
G1 X169.475 Y67.446 E0.08563
G1 X170.013 Y70.126 E0.08573
G1 X171.036 Y75.500 E0.17152
G1 X171.521 Y78.190 E0.08570
G1 X172.435 Y83.581 E0.17144
G1 X172.864 Y86.273 E0.08546
G1 X173.667 Y91.650 E0.17047
G1 X174.396 Y97.000 E0.16930
G1 X175.050 Y102.310 E0.16775
G1 X175.349 Y104.943 E0.08307
G1 X175.894 Y110.162 E0.16455
G1 X176.381 Y115.427 E0.16579
G1 X176.785 Y120.464 E0.15842
G1 X177.126 Y125.393 E0.15492
G1 X177.405 Y130.203 E0.15108
G1 X177.628 Y134.885 E0.14694
G1 X177.798 Y139.428 E0.14256
G1 X177.921 Y143.828 E0.13801
G1 X178.000 Y148.081 E0.13336
G1 X178.042 Y152.171 E0.12826
G1 X178.053 Y156.134 E0.12425
G1 X178.036 Y159.998 E0.12117
G1 X177.974 Y165.524 E0.17328
G1 X177.706 Y179.895 E0.45066
G1 X167.719 Y179.895 E0.31313
G1 X167.914 Y167.072 E0.40209
G1 X167.940 Y162.675 E0.13787
G1 X167.927 Y158.116 E0.14294
G1 X167.862 Y153.369 E0.14886
G1 X167.747 Y148.896 E0.14031
G1 X167.581 Y144.496 E0.13807
G1 X167.352 Y139.939 E0.14304
G1 X167.054 Y135.232 E0.14789
G1 X166.814 Y132.010 E0.10130
G1 X166.386 Y127.060 E0.15578
G1 X165.937 Y122.593 E0.14076
G1 X165.419 Y118.034 E0.14388
G1 X164.829 Y113.394 E0.14667
G1 X164.167 Y108.684 E0.14913
G1 X163.431 Y103.916 E0.15127
G1 X162.619 Y99.101 E0.15309
G1 X161.730 Y94.251 E0.15459
G1 X160.762 Y89.378 E0.15578
G1 X159.872 Y85.197 E0.13403
G1 X158.925 Y81.016 E0.13441
G1 X157.923 Y76.839 E0.13467
G1 X156.869 Y72.671 E0.13482
G1 X155.764 Y68.515 E0.13483
G1 X154.610 Y64.376 E0.13473
G1 X153.408 Y60.258 E0.13450
G1 X152.160 Y56.166 E0.13413
G1 X151.119 Y52.877 E0.10817
G1 X150.052 Y49.607 E0.10786
G1 X148.960 Y46.355 E0.10754
G1 X147.846 Y43.124 E0.10719
G1 X146.711 Y39.912 E0.10681
G1 X145.557 Y36.720 E0.10642
G1 X143.620 Y31.525 E0.17381
G1 X143.057 Y31.092 F10800.000
G1 F1200.000
G1 X160.798 Y31.092 E0.55627
G1 X162.194 Y35.967 E0.15900
G1 X163.598 Y41.070 E0.16592
G1 X164.956 Y46.226 E0.16719
G1 X165.616 Y48.823 E0.08401
G1 X166.900 Y54.071 E0.16940
G1 X168.126 Y59.362 E0.17031
G1 X169.288 Y64.693 E0.17106
G1 X170.383 Y70.054 E0.17156
G1 X171.407 Y75.432 E0.17164
G1 X171.892 Y78.125 E0.08582
G1 X172.807 Y83.520 E0.17156
G1 X173.237 Y86.215 E0.08557
G1 X174.041 Y91.597 E0.17061
G1 X174.770 Y96.952 E0.16945
G1 X175.424 Y102.266 E0.16788
G1 X175.724 Y104.902 E0.08318
G1 X176.270 Y110.125 E0.16467
G1 X176.756 Y115.395 E0.16593
G1 X177.161 Y120.436 E0.15855
G1 X177.502 Y125.369 E0.15506
G1 X177.782 Y130.184 E0.15121
G1 X178.005 Y134.869 E0.14707
G1 X178.175 Y139.416 E0.14268
G1 X178.298 Y143.819 E0.13812
G1 X178.377 Y148.075 E0.13347
G1 X178.419 Y152.169 E0.12835
G1 X178.430 Y156.134 E0.12433
G1 X178.413 Y160.001 E0.12125
G1 X178.351 Y165.530 E0.17336
G1 X178.076 Y180.272 E0.46231
G1 X167.337 Y180.272 E0.33674
G1 X167.537 Y167.068 E0.41404
G1 X167.563 Y162.675 E0.13776
G1 X167.550 Y158.120 E0.14283
G1 X167.485 Y153.377 E0.14872
G1 X167.370 Y148.908 E0.14016
G1 X167.204 Y144.512 E0.13792
G1 X166.976 Y139.961 E0.14289
G1 X166.678 Y135.258 E0.14774
G1 X166.438 Y132.040 E0.10117
G1 X166.010 Y127.095 E0.15563
G1 X165.562 Y122.633 E0.14060
G1 X165.045 Y118.079 E0.14372
G1 X164.456 Y113.444 E0.14651
G1 X163.794 Y108.739 E0.14897
G1 X163.058 Y103.976 E0.15111
G1 X162.247 Y99.166 E0.15293
G1 X161.359 Y94.322 E0.15442
G1 X160.393 Y89.454 E0.15561
G1 X159.503 Y85.278 E0.13387
G1 X158.557 Y81.102 E0.13426
G1 X157.557 Y76.929 E0.13453
G1 X156.504 Y72.765 E0.13467
G1 X155.400 Y68.614 E0.13469
G1 X154.247 Y64.479 E0.13459
G1 X153.046 Y60.366 E0.13436
G1 X151.800 Y56.278 E0.13399
M73 Q1 S103
G1 X150.760 Y52.993 E0.10805
M73 P1 R102
G1 X149.694 Y49.725 E0.10776
G1 X148.603 Y46.477 E0.10744
G1 X147.490 Y43.248 E0.10710
G1 X146.356 Y40.039 E0.10672
G1 X145.203 Y36.850 E0.10632
G1 X143.077 Y31.148 E0.19077
G1 X143.424 Y31.250 F10800.000
G1 F8640.000
G1 X146.369 Y31.138 E-0.76000
G1 E-0.04000 F2100.00000
G1 Z0.800 F10800.000
G1 X168.597 Y179.782
G1 Z0.200
G1 E0.80000 F2100.00000
G1 F1200.000
G1 X168.013 Y179.198 E0.02591
G1 X168.021 Y178.673 E0.01649
G1 X168.961 Y179.612 E0.04170
G1 X169.494 Y179.612 E0.01674
G1 X168.029 Y178.147 E0.06502
G1 X168.037 Y177.621 E0.01649
G1 X170.028 Y179.612 E0.08834
G1 X170.561 Y179.612 E0.01674
G1 X168.045 Y177.096 E0.11165
G1 X168.053 Y176.570 E0.01649
G1 X171.095 Y179.612 E0.13497
G1 X171.628 Y179.612 E0.01674
G1 X168.061 Y176.045 E0.15829
G1 X168.069 Y175.519 E0.01649
G1 X172.162 Y179.612 E0.18161
G1 X172.696 Y179.612 E0.01674
G1 X168.077 Y174.993 E0.20493
G1 X168.085 Y174.468 E0.01649
G1 X173.229 Y179.612 E0.22825
G1 X173.763 Y179.612 E0.01674
G1 X168.093 Y173.942 E0.25157
G1 X168.101 Y173.417 E0.01649
G1 X174.296 Y179.612 E0.27489
G1 X174.830 Y179.612 E0.01674
G1 X168.109 Y172.891 E0.29821
G1 X168.117 Y172.365 E0.01649
G1 X175.364 Y179.612 E0.32153
G1 X175.897 Y179.612 E0.01674
G1 X168.125 Y171.840 E0.34485
G1 X168.133 Y171.314 E0.01649
G1 X176.431 Y179.612 E0.36817
G1 X176.964 Y179.612 E0.01674
G1 X168.141 Y170.789 E0.39149
G1 X168.149 Y170.263 E0.01649
G1 X177.430 Y179.544 E0.41179
G1 X177.440 Y179.020 E0.01644
G1 X168.156 Y169.737 E0.41187
G1 X168.164 Y169.212 E0.01649
G1 X177.449 Y178.497 E0.41194
G1 X177.459 Y177.973 E0.01644
G1 X168.172 Y168.686 E0.41202
G1 X168.180 Y168.161 E0.01649
G1 X177.469 Y177.449 E0.41210
G1 X177.479 Y176.925 E0.01644
G1 X168.188 Y167.635 E0.41218
G1 X168.196 Y167.109 E0.01649
G1 X177.488 Y176.401 E0.41226
G1 X177.498 Y175.878 E0.01644
G1 X168.200 Y166.579 E0.41254
G1 X168.203 Y166.049 E0.01664
G1 X177.508 Y175.354 E0.41283
G1 X177.518 Y174.830 E0.01644
G1 X168.206 Y165.518 E0.41313
G1 X168.209 Y164.988 E0.01664
G1 X177.527 Y174.306 E0.41342
G1 X177.537 Y173.782 E0.01644
G1 X168.212 Y164.458 E0.41371
G1 X168.216 Y163.927 E0.01664
G1 X177.547 Y173.258 E0.41401
G1 X177.557 Y172.735 E0.01644
G1 X168.219 Y163.397 E0.41430
G1 X168.222 Y162.866 E0.01664
G1 X177.567 Y172.211 E0.41459
G1 X177.576 Y171.687 E0.01644
G1 X168.222 Y162.333 E0.41502
G1 X168.221 Y161.798 E0.01679
G1 X177.586 Y171.163 E0.41552
G1 X177.596 Y170.639 E0.01644
G1 X168.219 Y161.263 E0.41603
G1 X168.217 Y160.727 E0.01679
G1 X177.606 Y170.116 E0.41653
G1 X177.615 Y169.592 E0.01644
G1 X168.216 Y160.192 E0.41703
G1 X168.214 Y159.657 E0.01679
G1 X177.625 Y169.068 E0.41754
G1 X177.635 Y168.544 E0.01644
G1 X168.213 Y159.122 E0.41804
G1 X168.211 Y158.587 E0.01679
G1 X177.645 Y168.020 E0.41854
G1 X177.654 Y167.497 E0.01644
G1 X168.209 Y158.051 E0.41908
G1 X168.201 Y157.510 E0.01698
G1 X177.664 Y166.973 E0.41984
G1 X177.674 Y166.449 E0.01644
G1 X168.194 Y156.969 E0.42060
G1 X168.186 Y156.428 E0.01698
G1 X177.684 Y165.925 E0.42137
G1 X177.693 Y165.400 E0.01646
G1 X168.179 Y155.887 E0.42209
G1 X168.172 Y155.346 E0.01698
G1 X177.699 Y164.873 E0.42269
G1 X177.704 Y164.345 E0.01656
G1 X168.164 Y154.805 E0.42328
G1 X168.157 Y154.264 E0.01698
G1 X177.710 Y163.817 E0.42387
G1 X177.716 Y163.290 E0.01656
G1 X168.149 Y153.723 E0.42447
G1 X168.140 Y153.179 E0.01705
G1 X177.722 Y162.762 E0.42516
G1 X177.728 Y162.234 E0.01656
G1 X168.126 Y152.632 E0.42604
G1 X168.111 Y152.084 E0.01719
G1 X177.734 Y161.707 E0.42693
G1 X177.740 Y161.179 E0.01656
G1 X168.097 Y151.537 E0.42781
G1 X168.083 Y150.989 E0.01719
G1 X177.746 Y160.651 E0.42870
G1 X177.752 Y160.124 E0.01656
G1 X168.069 Y150.441 E0.42958
G1 X168.055 Y149.894 E0.01719
G1 X177.755 Y159.593 E0.43034
G1 X177.757 Y159.062 E0.01667
G1 X168.041 Y149.346 E0.43107
G1 X168.026 Y148.797 E0.01722
G1 X177.760 Y158.531 E0.43184
G1 X177.762 Y157.999 E0.01667
G1 X168.005 Y148.243 E0.43287
G1 X167.984 Y147.688 E0.01741
G1 X177.764 Y157.468 E0.43390
G1 X177.766 Y156.937 E0.01667
G1 X167.963 Y147.134 E0.43493
G1 X167.943 Y146.579 E0.01741
G1 X177.769 Y156.405 E0.43595
G1 X177.769 Y155.872 E0.01672
G1 X167.922 Y146.025 E0.43690
G1 X167.901 Y145.470 E0.01741
G1 X177.768 Y155.337 E0.43777
G1 X177.766 Y154.802 E0.01678
G1 X167.880 Y144.916 E0.43864
G1 X167.857 Y144.360 E0.01746
G1 X177.765 Y154.268 E0.43958
G1 X177.764 Y153.733 E0.01678
G1 X167.829 Y143.798 E0.44077
G1 X167.801 Y143.236 E0.01765
G1 X177.762 Y153.198 E0.44196
G1 X177.761 Y152.663 E0.01678
G1 X167.773 Y142.675 E0.44315
G1 X167.744 Y142.113 E0.01765
G1 X177.759 Y152.127 E0.44432
G1 X177.753 Y151.588 E0.01691
G1 X167.716 Y141.551 E0.44533
G1 X167.688 Y140.989 E0.01765
G1 X177.748 Y151.049 E0.44633
G1 X177.742 Y150.510 E0.01691
G1 X167.660 Y140.427 E0.44734
G1 X167.631 Y139.865 E0.01767
G1 X177.737 Y149.971 E0.44838
G1 X177.731 Y149.432 E0.01691
G1 X167.595 Y139.295 E0.44974
G1 X167.559 Y138.725 E0.01791
G1 X177.726 Y148.893 E0.45109
G1 X177.720 Y148.354 E0.01691
G1 X167.523 Y138.156 E0.45244
G1 X167.487 Y137.586 E0.01791
G1 X177.712 Y147.812 E0.45370
G1 X177.702 Y147.268 E0.01706
G1 X167.450 Y137.017 E0.45484
G1 X167.414 Y136.447 E0.01791
G1 X177.692 Y146.725 E0.45599
G1 X177.682 Y146.181 E0.01706
G1 X167.378 Y135.877 E0.45714
G1 X167.342 Y135.308 E0.01791
G1 X177.672 Y145.637 E0.45829
G1 X177.662 Y145.093 E0.01706
G1 X167.300 Y134.732 E0.45970
G1 X167.257 Y134.156 E0.01814
G1 X177.651 Y144.550 E0.46116
G1 X177.641 Y144.006 E0.01706
G1 X167.214 Y133.579 E0.46261
G1 X167.171 Y133.002 E0.01814
G1 X177.628 Y143.459 E0.46392
G1 X177.612 Y142.910 E0.01723
G1 X167.128 Y132.426 E0.46515
M73 Q1 S102
G1 X167.083 Y131.847 E0.01820
G1 X177.597 Y142.361 E0.46646
M73 P1 R101
G1 X177.582 Y141.812 E0.01723
G1 X167.033 Y131.263 E0.46803
G1 X166.982 Y130.679 E0.01839
G1 X177.566 Y141.263 E0.46959
G1 X177.551 Y140.714 E0.01723
G1 X166.932 Y130.095 E0.47115
G1 X166.881 Y129.511 E0.01839
G1 X177.536 Y140.165 E0.47272
G1 X177.521 Y139.617 E0.01723
G1 X166.831 Y128.927 E0.47428
G1 X166.780 Y128.343 E0.01839
G1 X177.502 Y139.064 E0.47568
G1 X177.481 Y138.510 E0.01740
G1 X166.730 Y127.759 E0.47700
G1 X166.679 Y127.175 E0.01839
G1 X177.460 Y137.955 E0.47832
G1 X177.439 Y137.401 E0.01740
G1 X166.622 Y126.584 E0.47994
G1 X166.562 Y125.991 E0.01870
G1 X177.419 Y136.847 E0.48166
G1 X177.398 Y136.292 E0.01740
G1 X166.503 Y125.397 E0.48338
G1 X166.443 Y124.804 E0.01870
G1 X177.377 Y135.738 E0.48510
G1 X177.356 Y135.184 E0.01740
G1 X166.384 Y124.211 E0.48682
G1 X166.324 Y123.618 E0.01870
G1 X177.333 Y134.626 E0.48841
G1 X177.306 Y134.066 E0.01760
G1 X166.265 Y123.025 E0.48987
G1 X166.203 Y122.430 E0.01877
G1 X177.279 Y133.506 E0.49141
G1 X177.253 Y132.946 E0.01760
G1 X166.135 Y121.828 E0.49327
G1 X166.067 Y121.226 E0.01901
G1 X177.226 Y132.386 E0.49512
G1 X177.199 Y131.825 E0.01760
G1 X165.998 Y120.624 E0.49697
G1 X165.930 Y120.022 E0.01901
G1 X177.173 Y131.265 E0.49883
G1 X177.146 Y130.705 E0.01760
G1 X165.861 Y119.420 E0.50068
G1 X165.793 Y118.818 E0.01901
G1 X177.119 Y130.144 E0.50250
G1 X177.086 Y129.577 E0.01780
G1 X165.724 Y118.216 E0.50407
G1 X165.650 Y117.608 E0.01921
G1 X177.053 Y129.011 E0.50591
G1 X177.020 Y128.444 E0.01780
G1 X165.572 Y116.997 E0.50790
G1 X165.495 Y116.386 E0.01933
G1 X176.987 Y127.878 E0.50988
G1 X176.954 Y127.311 E0.01780
G1 X165.417 Y115.774 E0.51187
G1 X165.339 Y115.163 E0.01933
G1 X176.921 Y126.745 E0.51385
G1 X176.888 Y126.178 E0.01780
G1 X165.262 Y114.552 E0.51584
G1 X165.184 Y113.941 E0.01933
G1 X176.855 Y125.612 E0.51782
G1 X176.844 Y125.411 E0.00631
G1 X176.818 Y125.041 E0.01163
G1 X165.106 Y113.329 E0.51964
G1 X165.019 Y112.708 E0.01967
G1 X176.779 Y124.468 E0.52175
G1 X176.739 Y123.895 E0.01802
G1 X164.931 Y112.087 E0.52387
G1 X164.844 Y111.466 E0.01967
G1 X176.699 Y123.321 E0.52599
G1 X176.660 Y122.748 E0.01802
G1 X164.757 Y110.845 E0.52811
G1 X164.669 Y110.224 E0.01967
G1 X176.620 Y122.175 E0.53022
G1 X176.581 Y121.602 E0.01802
G1 X164.582 Y109.603 E0.53234
G1 X164.495 Y108.983 E0.01967
G1 X176.541 Y121.029 E0.53446
G1 X176.501 Y120.455 E0.01804
G1 X164.403 Y108.357 E0.53677
G1 X164.305 Y107.726 E0.02003
G1 X176.454 Y119.875 E0.53902
G1 X176.408 Y119.295 E0.01826
G1 X164.208 Y107.095 E0.54128
G1 X164.110 Y106.464 E0.02003
G1 X176.361 Y118.715 E0.54353
G1 X176.314 Y118.134 E0.01826
G1 X164.013 Y105.833 E0.54579
G1 X163.915 Y105.202 E0.02003
G1 X176.268 Y117.554 E0.54804
G1 X176.221 Y116.974 E0.01826
G1 X163.818 Y104.571 E0.55030
G1 X163.720 Y103.940 E0.02003
G1 X176.175 Y116.394 E0.55255
G1 X176.128 Y115.813 E0.01826
G1 X163.613 Y103.299 E0.55523
G1 X163.505 Y102.657 E0.02042
G1 X176.078 Y115.230 E0.55784
G1 X176.024 Y114.643 E0.01852
G1 X163.397 Y102.015 E0.56024
G1 X163.289 Y101.374 E0.02042
G1 X175.970 Y114.055 E0.56263
G1 X175.916 Y113.467 E0.01852
G1 X163.180 Y100.732 E0.56503
G1 X163.072 Y100.090 E0.02042
G1 X175.861 Y112.879 E0.56742
G1 X175.807 Y112.291 E0.01852
G1 X162.964 Y99.448 E0.56982
G1 X162.851 Y98.802 E0.02058
G1 X175.753 Y111.703 E0.57241
