; generated by PrusaSlicer 2.2.0+linux-x64 on 2020-06-14 at 16:21:25 UTC

; 

; external perimeters extrusion width = 0.45mm
; perimeters extrusion width = 0.45mm
; infill extrusion width = 0.45mm
; solid infill extrusion width = 0.45mm
; top infill extrusion width = 0.40mm
; first layer extrusion width = 0.42mm

M73 P0 R141
M201 X9000 Y9000 Z500 E10000 ; sets maximum accelerations, mm/sec^2
M203 X500 Y500 Z12 E120 ; sets maximum feedrates, mm/sec
M204 P2000 R1500 T2000 ; sets acceleration (P, T) and retract acceleration (R), mm/sec^2
M205 X10.00 Y10.00 Z0.20 E2.50 ; sets the jerk limits, mm/sec
M205 S0 T0 ; sets the minimum extruding and travel feed rate, mm/sec
M107
M862.3 P "MK2S" ; printer model check
M862.1 P0.4 ; nozzle diameter check
M115 U3.2.3 ; tell printer latest fw version
G90 ; use absolute coordinates
M83 ; extruder relative mode
M204 S2000 T1500 ; MK2 firmware only supports the old M204 format
M104 S215 ; set extruder temp
M140 S60 ; set bed temp
M190 S60 ; wait for bed temp
M109 S215 ; wait for extruder temp
G28 W ; home all without mesh bed level
G80 ; mesh bed leveling
G1 Y-3.0 F1000.0 ; go outside print area
G92 E0.0
G1 X60.0 E9.0  F1000.0 ; intro line
M73 P0 R141
G1 X100.0 E12.5 F1000.0 ; intro line
G92 E0.0
G21 ; set units to millimeters
G90 ; use absolute coordinates
M83 ; use relative distances for extrusion
M900 K0.06 ; Filament gcode LA 1.5
M900 K30 ; Filament gcode LA 1.0
;BEFORE_LAYER_CHANGE
G92 E0.0
;0.2


G1 E-0.80000 F2100.00000
G1 Z0.600 F10800.000
;AFTER_LAYER_CHANGE
;0.2
G1 X47.190 Y8.916
G1 Z0.200
G1 E0.80000 F2100.00000
M204 S1000
G1 F1200.000
G1 X47.813 Y8.824 E0.01977
G1 X199.752 Y7.794 E4.76404
G1 X211.417 Y7.794 E0.36574
G1 X212.284 Y7.959 E0.02767
G1 X213.028 Y8.426 E0.02755
G1 X213.551 Y9.132 E0.02755
G1 X213.782 Y9.980 E0.02755
G1 X214.121 Y28.681 E0.58648
G1 X214.104 Y41.279 E0.39499
G1 X213.952 Y47.846 E0.20595
G1 X213.700 Y53.840 E0.18810
G1 X213.051 Y63.064 E0.28993
G1 X212.002 Y72.455 E0.29629
G1 X211.119 Y78.289 E0.18499
G1 X210.507 Y81.745 E0.11006
G1 X209.882 Y84.913 E0.10123
G1 X208.659 Y90.380 E0.17564
G1 X206.961 Y96.870 E0.21036
G1 X205.323 Y102.321 E0.17846
G1 X204.258 Y105.567 E0.10710
G1 X201.101 Y114.184 E0.28774
G1 X197.379 Y123.071 E0.30211
G1 X193.434 Y131.558 E0.29345
G1 X189.191 Y140.005 E0.29639
G1 X184.454 Y148.920 E0.31651
G1 X178.132 Y160.335 E0.40915
G1 X155.075 Y201.343 E1.47506
G1 X154.758 Y201.779 E0.01692
G1 X154.350 Y202.132 E0.01692
G1 X153.758 Y202.426 E0.02071
G1 X153.112 Y202.546 E0.02060
G1 X121.603 Y203.578 E0.98850
G1 X106.208 Y203.578 E0.48268
G1 X105.643 Y203.500 E0.01787
G1 X105.114 Y203.289 E0.01787
G1 X104.588 Y202.901 E0.02048
G1 X104.187 Y202.382 E0.02060
G1 X81.125 Y161.364 E1.47541
G1 X74.800 Y149.945 E0.40929
G1 X68.787 Y138.547 E0.40407
G1 X65.829 Y132.601 E0.20823
G1 X63.164 Y126.953 E0.19581
G1 X59.447 Y118.421 E0.29180
G1 X58.153 Y115.207 E0.10863
G1 X56.005 Y109.484 E0.19167
G1 X54.883 Y106.247 E0.10740
G1 X53.145 Y100.810 E0.17899
G1 X52.190 Y97.528 E0.10716
G1 X50.661 Y91.681 E0.18950
G1 X49.375 Y85.943 E0.18436
G1 X48.699 Y82.499 E0.11006
G1 X47.717 Y76.691 E0.18468
G1 X47.219 Y73.206 E0.11039
G1 X46.519 Y67.322 E0.18579
G1 X45.981 Y61.397 E0.18653
G1 X45.405 Y51.603 E0.30763
G1 X45.214 Y45.595 E0.18847
G1 X45.118 Y39.024 E0.20603
G1 X45.136 Y29.706 E0.29216
G1 X45.467 Y11.151 E0.58189
G1 X45.547 Y10.590 E0.01775
G1 X45.757 Y10.064 E0.01775
G1 X46.126 Y9.558 E0.01965
G1 X46.615 Y9.166 E0.01965
G1 X47.135 Y8.940 E0.01777
G1 F8640.000
G1 X47.813 Y8.824 E-0.15898
G1 X50.416 Y8.807 E-0.60102
G1 E-0.04000 F2100.00000
G1 Z0.800 F10800.000
G1 X48.615 Y11.988
G1 Z0.200
G1 E0.80000 F2100.00000
G1 F1200.000
G1 X58.692 Y11.988 E0.31597
G1 X58.596 Y20.375 E0.26297
G1 X58.570 Y24.956 E0.14364
G1 X58.570 Y29.524 E0.14321
G1 X58.605 Y34.074 E0.14267
G1 X58.681 Y38.603 E0.14202
G1 X58.805 Y43.107 E0.14127
G1 X58.984 Y47.581 E0.14041
G1 X59.210 Y51.774 E0.13166
G1 X59.500 Y55.935 E0.13077
G1 X59.857 Y60.063 E0.12992
G1 X60.286 Y64.156 E0.12904
G1 X60.530 Y66.195 E0.06437
G1 X61.077 Y70.238 E0.12794
G1 X61.707 Y74.248 E0.12727
G1 X62.056 Y76.244 E0.06354
G1 X62.821 Y80.201 E0.12636
G1 X63.249 Y82.213 E0.06451
G1 X63.703 Y84.216 E0.06437
G1 X64.182 Y86.210 E0.06432
G1 X64.686 Y88.198 E0.06430
G1 X65.215 Y90.180 E0.06431
G1 X65.770 Y92.155 E0.06434
G1 X66.349 Y94.126 E0.06440
G1 X66.954 Y96.092 E0.06449
G1 X67.585 Y98.055 E0.06466
G1 X68.920 Y101.967 E0.12961
G1 X70.356 Y105.872 E0.13045
G1 X71.892 Y109.773 E0.13145
G1 X73.570 Y113.776 E0.13607
G1 X75.395 Y117.885 E0.14098
G1 X77.318 Y122.005 E0.14256
G1 X79.331 Y126.139 E0.14416
G1 X80.370 Y128.215 E0.07280
G1 X82.506 Y132.377 E0.14667
G1 X84.715 Y136.563 E0.14842
G1 X86.991 Y140.776 E0.15014
G1 X89.326 Y145.021 E0.15188
G1 X93.796 Y153.013 E0.28712
G1 X103.030 Y169.307 E0.58724
G1 X107.692 Y177.579 E0.29770
G1 X111.033 Y183.579 E0.21532
G1 X114.346 Y189.589 E0.21520
G1 X120.228 Y200.414 E0.38627
G1 X106.715 Y200.414 E0.42368
G1 X103.691 Y194.946 E0.19593
G1 X99.886 Y188.129 E0.24479
G1 X94.187 Y178.018 E0.36389
G1 X83.885 Y159.817 E0.65575
G1 X80.570 Y153.878 E0.21325
G1 X77.582 Y148.438 E0.19461
G1 X75.988 Y145.484 E0.10525
G1 X73.124 Y140.061 E0.19227
G1 X71.608 Y137.113 E0.10394
G1 X70.123 Y134.166 E0.10347
G1 X68.911 Y131.700 E0.08616
G1 X67.337 Y128.421 E0.11403
G1 X66.035 Y125.623 E0.09676
G1 X64.772 Y122.822 E0.09634
G1 X63.410 Y119.689 E0.10713
G1 X62.235 Y116.880 E0.09547
G1 X61.235 Y114.395 E0.08399
G1 X60.020 Y111.245 E0.10585
G1 X58.984 Y108.418 E0.09441
G1 X57.996 Y105.582 E0.09415
G1 X57.058 Y102.738 E0.09388
G1 X56.072 Y99.556 E0.10446
G1 X55.242 Y96.693 E0.09346
G1 X54.464 Y93.820 E0.09334
G1 X53.737 Y90.935 E0.09327
G1 X53.079 Y88.117 E0.09075
G1 X52.366 Y84.776 E0.10713
G1 X51.811 Y81.930 E0.09091
G1 X51.349 Y79.328 E0.08284
G1 X50.804 Y75.941 E0.10756
G1 X50.391 Y73.057 E0.09135
G1 X49.990 Y69.901 E0.09975
G1 X49.666 Y66.993 E0.09176
G1 X49.357 Y63.811 E0.10021
G1 X49.095 Y60.619 E0.10043
G1 X48.906 Y57.939 E0.08423
G1 X48.717 Y54.713 E0.10132
G1 X48.567 Y51.479 E0.10152
G1 X48.468 Y48.773 E0.08490
G1 X48.377 Y45.523 E0.10193
G1 X48.317 Y42.269 E0.10205
G1 X48.271 Y36.277 E0.18787
G1 X48.300 Y29.743 E0.20490
G1 X48.379 Y23.732 E0.18849
G1 X48.614 Y12.048 E0.36639
G1 X48.246 Y11.611 F10800.000
G1 F1200.000
G1 X59.074 Y11.611 E0.33951
G1 X58.973 Y20.378 E0.27490
G1 X58.947 Y24.957 E0.14357
G1 X58.948 Y29.522 E0.14313
G1 X58.982 Y34.069 E0.14258
G1 X59.058 Y38.595 E0.14191
G1 X59.182 Y43.094 E0.14113
G1 X59.360 Y47.564 E0.14025
G1 X59.587 Y51.751 E0.13148
G1 X59.876 Y55.905 E0.13058
G1 X60.233 Y60.027 E0.12971
G1 X60.661 Y64.114 E0.12885
G1 X60.904 Y66.147 E0.06419
G1 X61.450 Y70.184 E0.12772
G1 X62.079 Y74.186 E0.12704
M73 P0 R140
G1 X62.427 Y76.176 E0.06334
G1 X63.191 Y80.126 E0.12614
G1 X63.618 Y82.132 E0.06432
G1 X64.070 Y84.130 E0.06422
G1 X64.548 Y86.120 E0.06417
G1 X65.051 Y88.103 E0.06415
G1 X65.579 Y90.080 E0.06416
G1 X66.132 Y92.051 E0.06419
G1 X66.711 Y94.017 E0.06425
G1 X67.314 Y95.979 E0.06434
G1 X67.943 Y97.937 E0.06448
G1 X69.276 Y101.841 E0.12936
G1 X70.708 Y105.738 E0.13018
G1 X72.241 Y109.631 E0.13119
G1 X73.917 Y113.626 E0.13582
G1 X75.738 Y117.729 E0.14074
G1 X77.658 Y121.843 E0.14235
G1 X79.669 Y125.972 E0.14400
G1 X80.707 Y128.044 E0.07267
G1 X82.840 Y132.202 E0.14654
G1 X85.048 Y136.385 E0.14830
G1 X87.322 Y140.596 E0.15004
G1 X89.655 Y144.838 E0.15179
G1 X94.125 Y152.828 E0.28705
G1 X103.358 Y169.122 E0.58722
G1 X108.020 Y177.395 E0.29774
G1 X111.363 Y183.396 E0.21537
G1 X114.677 Y189.408 E0.21525
G1 X117.954 Y195.414 E0.21452
G1 X120.860 Y200.791 E0.19165
G1 X106.493 Y200.791 E0.45048
G1 X103.362 Y195.129 E0.20288
G1 X99.557 Y188.313 E0.24475
G1 X93.859 Y178.203 E0.36386
G1 X83.556 Y160.002 E0.65578
G1 X80.240 Y154.061 E0.21333
G1 X77.251 Y148.618 E0.19470
G1 X75.655 Y145.661 E0.10535
G1 X72.790 Y140.235 E0.19238
G1 X71.271 Y137.284 E0.10406
G1 X69.786 Y134.334 E0.10358
G1 X68.572 Y131.865 E0.08627
G1 X66.996 Y128.583 E0.11416
G1 X65.692 Y125.780 E0.09690
G1 X64.427 Y122.975 E0.09649
G1 X63.063 Y119.837 E0.10729
G1 X61.886 Y117.023 E0.09563
G1 X60.884 Y114.533 E0.08415
G1 X59.667 Y111.378 E0.10604
G1 X58.629 Y108.545 E0.09461
G1 X57.639 Y105.703 E0.09434
G1 X56.699 Y102.853 E0.09409
G1 X55.711 Y99.664 E0.10467
G1 X54.879 Y96.795 E0.09367
G1 X54.099 Y93.915 E0.09355
G1 X53.370 Y91.024 E0.09348
G1 X52.711 Y88.199 E0.09096
G1 X51.996 Y84.851 E0.10734
G1 X51.441 Y81.999 E0.09111
G1 X50.977 Y79.391 E0.08304
G1 X50.431 Y75.998 E0.10776
G1 X50.017 Y73.108 E0.09155
G1 X49.616 Y69.946 E0.09994
G1 X49.290 Y67.032 E0.09194
G1 X48.982 Y63.845 E0.10039
G1 X48.719 Y60.648 E0.10059
G1 X48.530 Y57.964 E0.08437
G1 X48.341 Y54.733 E0.10146
G1 X48.190 Y51.495 E0.10165
G1 X48.091 Y48.785 E0.08501
G1 X48.000 Y45.532 E0.10204
G1 X47.940 Y42.274 E0.10217
G1 X47.894 Y36.278 E0.18801
G1 X47.923 Y29.739 E0.20502
G1 X48.002 Y23.725 E0.18858
G1 X48.244 Y11.671 E0.37802
G1 X48.591 Y11.813 F10800.000
G1 F8640.000
G1 X51.536 Y11.653 E-0.76000
G1 E-0.04000 F2100.00000
G1 Z0.800 F10800.000
G1 X107.554 Y200.301
G1 Z0.200
G1 E0.80000 F2100.00000
G1 F1200.000
G1 X106.260 Y199.008 E0.05749
G1 X105.599 Y197.812 E0.04295
G1 X107.919 Y200.131 E0.10310
G1 X108.453 Y200.131 E0.01680
G1 X104.938 Y196.616 E0.15626
G1 X104.277 Y195.420 E0.04295
G1 X108.988 Y200.131 E0.20941
G1 X109.523 Y200.131 E0.01680
G1 X103.609 Y194.218 E0.26288
G1 X102.933 Y193.007 E0.04357
G1 X110.057 Y200.131 E0.31668
G1 X110.592 Y200.131 E0.01680
G1 X102.257 Y191.797 E0.37047
G1 X101.582 Y190.587 E0.04357
G1 X111.126 Y200.131 E0.42427
G1 X111.661 Y200.131 E0.01680
G1 X100.906 Y189.377 E0.47806
G1 X100.231 Y188.167 E0.04357
G1 X112.195 Y200.131 E0.53186
G1 X112.730 Y200.131 E0.01680
G1 X99.542 Y186.944 E0.58622
G1 X98.852 Y185.719 E0.04420
G1 X113.265 Y200.131 E0.64067
G1 X113.799 Y200.131 E0.01680
G1 X98.161 Y184.494 E0.69513
G1 X97.471 Y183.269 E0.04420
G1 X114.334 Y200.131 E0.74958
G1 X114.868 Y200.131 E0.01680
G1 X96.781 Y182.044 E0.80404
G1 X96.090 Y180.819 E0.04420
G1 X115.403 Y200.131 E0.85849
G1 X115.938 Y200.131 E0.01680
G1 X95.400 Y179.594 E0.91294
G1 X94.709 Y178.369 E0.04420
G1 X116.472 Y200.131 E0.96740
G1 X117.007 Y200.131 E0.01680
G1 X94.015 Y177.139 E1.02204
G1 X93.317 Y175.908 E0.04449
G1 X117.541 Y200.131 E1.07679
G1 X118.076 Y200.131 E0.01680
G1 X92.620 Y174.676 E1.13155
G1 X91.923 Y173.444 E0.04449
G1 X118.611 Y200.131 E1.18631
G1 X119.145 Y200.131 E0.01680
G1 X91.226 Y172.212 E1.24107
G1 X90.528 Y170.980 E0.04449
G1 X119.680 Y200.131 E1.29583
G1 X119.752 Y200.131 E0.00227
G1 X119.202 Y199.119 E0.03622
G1 X89.831 Y169.748 E1.30559
G1 X89.134 Y168.516 E0.04449
G1 X118.566 Y197.948 E1.30831
G1 X117.930 Y196.778 E0.04188
G1 X88.436 Y167.284 E1.31103
G1 X87.739 Y166.052 E0.04449
G1 X117.294 Y195.607 E1.31375
G1 X116.658 Y194.436 E0.04188
G1 X87.042 Y164.821 E1.31647
G1 X86.345 Y163.589 E0.04449
G1 X116.021 Y193.266 E1.31919
G1 X115.385 Y192.095 E0.04188
G1 X85.647 Y162.357 E1.32191
M73 P1 R139
G1 X84.950 Y161.125 E0.04449
G1 X114.749 Y190.924 E1.32463
G1 X114.113 Y189.754 E0.04188
G1 X84.253 Y159.893 E1.32735
G1 X83.573 Y158.679 E0.04373
G1 X113.457 Y188.563 E1.32839
G1 X112.801 Y187.372 E0.04275
G1 X82.898 Y157.469 E1.32924
G1 X82.222 Y156.259 E0.04356
G1 X112.144 Y186.181 E1.33009
G1 X111.488 Y184.990 E0.04275
G1 X81.547 Y155.049 E1.33094
G1 X80.871 Y153.838 E0.04356
G1 X110.831 Y183.799 E1.33179
G1 X110.160 Y182.593 E0.04337
G1 X80.218 Y152.651 E1.33099
G1 X79.567 Y151.465 E0.04251
G1 X109.488 Y181.387 E1.33005
G1 X108.816 Y180.180 E0.04341
G1 X78.916 Y150.280 E1.32911
G1 X78.265 Y149.094 E0.04251
G1 X108.144 Y178.973 E1.32817
G1 X107.472 Y177.767 E0.04341
G1 X77.622 Y147.917 E1.32688
G1 X76.996 Y146.755 E0.04148
G1 X106.783 Y176.543 E1.32409
G1 X106.093 Y175.318 E0.04419
G1 X76.369 Y145.594 E1.32127
G1 X75.765 Y144.455 E0.04052
G1 X105.402 Y174.093 E1.31745
G1 X104.712 Y172.868 E0.04419
G1 X75.166 Y143.322 E1.31335
G1 X74.568 Y142.190 E0.04026
G1 X104.022 Y171.643 E1.30926
G1 X103.331 Y170.418 E0.04419
G1 X73.970 Y141.057 E1.30517
G1 X73.372 Y139.924 E0.04026
G1 X102.639 Y169.192 E1.30098
G1 X101.940 Y167.958 E0.04457
G1 X72.805 Y138.823 E1.29510
G1 X72.238 Y137.722 E0.03893
G1 X101.241 Y166.724 E1.28922
G1 X100.542 Y165.491 E0.04457
G1 X71.680 Y136.628 E1.28298
G1 X71.138 Y135.552 E0.03789
G1 X99.843 Y164.257 E1.27600
G1 X99.144 Y163.023 E0.04457
G1 X70.596 Y134.475 E1.26902
G1 X70.069 Y133.413 E0.03726
G1 X98.445 Y161.790 E1.26138
G1 X97.746 Y160.556 E0.04457
G1 X69.552 Y132.362 E1.25328
G1 X69.041 Y131.316 E0.03658
G1 X97.047 Y159.322 E1.24492
G1 X96.348 Y158.088 E0.04457
G1 X68.547 Y130.287 E1.23580
M73 P2 R138
G1 X68.053 Y129.259 E0.03587
G1 X95.649 Y156.855 E1.22669
G1 X94.949 Y155.621 E0.04457
G1 X67.561 Y128.232 E1.21748
G1 X67.096 Y127.233 E0.03465
G1 X94.250 Y154.387 E1.20708
G1 X93.551 Y153.154 E0.04457
G1 X66.630 Y126.233 E1.19667
G1 X66.173 Y125.240 E0.03436
G1 X92.872 Y151.940 E1.18685
G1 X92.194 Y150.727 E0.04370
G1 X65.734 Y124.267 E1.17620
G1 X65.294 Y123.293 E0.03357
G1 X91.515 Y149.514 E1.16554
G1 X90.836 Y148.300 E0.04370
G1 X64.867 Y122.331 E1.15439
G1 X64.455 Y121.385 E0.03242
G1 X90.157 Y147.087 E1.14249
G1 X89.478 Y145.873 E0.04370
G1 X64.044 Y120.439 E1.13060
G1 X63.635 Y119.496 E0.03232
G1 X88.810 Y144.670 E1.11906
G1 X88.156 Y143.482 E0.04262
G1 X63.251 Y118.577 E1.10710
G1 X62.866 Y117.658 E0.03131
G1 X87.503 Y142.294 E1.09513
G1 X86.849 Y141.106 E0.04262
G1 X62.483 Y116.739 E1.08313
G1 X62.123 Y115.845 E0.03030
G1 X86.217 Y139.939 E1.07103
G1 X85.590 Y138.777 E0.04152
G1 X61.763 Y114.951 E1.05912
G1 X61.410 Y114.063 E0.03004
G1 X84.962 Y137.615 E1.04693
G1 X84.341 Y136.459 E0.04125
G1 X61.074 Y113.192 E1.03423
G1 X60.739 Y112.322 E0.02932
G1 X83.743 Y135.327 E1.02259
G1 X83.146 Y134.195 E0.04023
G1 X60.403 Y111.452 E1.01095
G1 X60.084 Y110.599 E0.02863
G1 X82.548 Y133.063 E0.99855
G1 X81.968 Y131.948 E0.03950
G1 X59.775 Y109.755 E0.98651
G1 X59.466 Y108.911 E0.02825
G1 X81.405 Y130.850 E0.97521
G1 X80.841 Y129.752 E0.03880
G1 X59.164 Y108.074 E0.96360
G1 X58.878 Y107.254 E0.02730
G1 X80.277 Y128.653 E0.95125
G1 X79.733 Y127.575 E0.03797
G1 X58.592 Y106.434 E0.93977
G1 X58.306 Y105.613 E0.02730
G1 X79.197 Y126.504 E0.92863
G1 X78.683 Y125.455 E0.03670
G1 X58.040 Y104.812 E0.91763
G1 X57.777 Y104.015 E0.02640
G1 X78.176 Y124.413 E0.90676
G1 X77.668 Y123.371 E0.03643
G1 X57.514 Y103.217 E0.89589
G1 X57.258 Y102.426 E0.02613
G1 X77.161 Y122.329 E0.88473
G1 X76.686 Y121.319 E0.03509
G1 X57.018 Y101.652 E0.87426
G1 X56.778 Y100.877 E0.02549
G1 X76.218 Y120.317 E0.86414
G1 X75.750 Y119.315 E0.03476
G1 X56.538 Y100.103 E0.85402
G1 X56.302 Y99.332 E0.02533
G1 X75.283 Y118.313 E0.84372
G1 X74.843 Y117.339 E0.03359
G1 X56.084 Y98.579 E0.83389
M73 P2 R137
G1 X55.865 Y97.826 E0.02464
G1 X74.416 Y116.377 E0.82462
G1 X73.989 Y115.416 E0.03307
G1 X55.647 Y97.073 E0.81535
G1 X55.436 Y96.328 E0.02434
G1 X73.562 Y114.454 E0.80574
G1 X73.152 Y113.509 E0.03237
G1 X55.237 Y95.595 E0.79634
G1 X55.039 Y94.861 E0.02388
G1 X72.766 Y112.588 E0.78800
G1 X72.380 Y111.668 E0.03139
G1 X54.840 Y94.128 E0.77967
G1 X54.737 Y93.748 E0.01236
G1 X54.650 Y93.404 E0.01118
G1 X71.993 Y110.747 E0.77093
G1 X71.610 Y109.828 E0.03129
G1 X54.470 Y92.689 E0.76187
G1 X54.290 Y91.974 E0.02317
G1 X71.262 Y108.946 E0.75445
G1 X70.915 Y108.065 E0.02979
G1 X54.110 Y91.260 E0.74702
G1 X53.938 Y90.553 E0.02287
G1 X70.568 Y107.183 E0.73924
G1 X70.221 Y106.301 E0.02979
G1 X53.775 Y89.855 E0.73104
G1 X53.612 Y89.158 E0.02250
G1 X69.896 Y105.442 E0.72385
G1 X69.586 Y104.597 E0.02831
G1 X53.450 Y88.461 E0.71726
G1 X53.295 Y87.771 E0.02223
G1 X69.275 Y103.751 E0.71035
G1 X68.964 Y102.906 E0.02831
G1 X53.149 Y87.091 E0.70298
G1 X53.004 Y86.412 E0.02185
G1 X68.653 Y102.060 E0.69561
G1 X68.376 Y101.249 E0.02695
G1 X52.859 Y85.732 E0.68975
G1 X52.714 Y85.052 E0.02185
G1 X68.099 Y100.437 E0.68389
G1 X67.822 Y99.626 E0.02695
G1 X52.577 Y84.381 E0.67767
G1 X52.448 Y83.717 E0.02126
G1 X67.545 Y98.814 E0.67112
G1 X67.273 Y98.007 E0.02679
G1 X52.318 Y83.053 E0.66474
G1 X52.189 Y82.389 E0.02126
