; generated by PrusaSlicer 2.2.0+linux-x64 on 2020-07-06 at 18:30:40 UTC

; 

; external perimeters extrusion width = 0.45mm
; perimeters extrusion width = 0.45mm
; infill extrusion width = 0.45mm
; solid infill extrusion width = 0.45mm
; top infill extrusion width = 0.40mm
; first layer extrusion width = 0.42mm

M73 P0 R61
M73 Q0 S62
M201 X1000 Y1000 Z200 E5000 ; sets maximum accelerations, mm/sec^2
M203 X200 Y200 Z12 E120 ; sets maximum feedrates, mm/sec
M204 P1250 R1250 T1250 ; sets acceleration (P, T) and retract acceleration (R), mm/sec^2
M205 X8.00 Y8.00 Z0.40 E4.50 ; sets the jerk limits, mm/sec
M205 S0 T0 ; sets the minimum extruding and travel feed rate, mm/sec
M107
M862.3 P "MK3" ; printer model check
M862.1 P0.4 ; nozzle diameter check
M115 U3.9.0 ; tell printer latest fw version
G90 ; use absolute coordinates
M83 ; extruder relative mode
M104 S225 ; set extruder temp
M140 S60 ; set bed temp
M190 S60 ; wait for bed temp
M109 S225 ; wait for extruder temp
G28 W ; home all without mesh bed level
G80 ; mesh bed leveling
G1 Y-3.0 F1000.0 ; go outside print area
G92 E0.0
G1 X60.0 E9.0 F1000.0 ; intro line
M73 Q0 S62
M73 P0 R61
G1 X100.0 E12.5 F1000.0 ; intro line
G92 E0.0
M221 S95
G21 ; set units to millimeters
G90 ; use absolute coordinates
M83 ; use relative distances for extrusion
M900 K0.06 ; Filament gcode LA 1.5
M900 K30 ; Filament gcode LA 1.0
;BEFORE_LAYER_CHANGE
G92 E0.0
;0.2


G1 E-0.80000 F2100.00000
G1 Z0.600 F10800.000
;AFTER_LAYER_CHANGE
;0.2
G1 X102.114 Y54.405
G1 Z0.200
G1 E0.80000 F2100.00000
M204 S1000
G1 F1200.000
G1 X102.461 Y53.829 E0.02107
G1 X102.955 Y53.374 E0.02107
G1 X103.557 Y53.076 E0.02107
G1 X104.219 Y52.958 E0.02107
G1 X146.351 Y52.867 E1.32103
G1 X147.239 Y53.040 E0.02837
G1 X148.000 Y53.536 E0.02849
G1 X148.519 Y54.277 E0.02837
G1 X148.723 Y55.159 E0.02837
G1 X150.232 Y155.212 E3.13744
G1 X150.188 Y155.700 E0.01538
G1 X150.044 Y156.173 E0.01550
G1 X149.694 Y156.751 E0.02119
G1 X149.195 Y157.207 E0.02119
G1 X148.589 Y157.505 E0.02119
G1 X147.923 Y157.620 E0.02119
G1 X102.790 Y157.710 E1.41512
G1 X101.863 Y157.521 E0.02966
G1 X101.270 Y157.158 E0.02178
G1 X100.808 Y156.640 E0.02178
G1 X100.515 Y156.010 E0.02178
G1 X100.416 Y155.327 E0.02166
G1 X101.925 Y55.293 E3.13683
G1 X102.101 Y54.463 E0.02661
G1 F8640.000
G1 X102.461 Y53.829 E-0.16830
G1 X102.955 Y53.374 E-0.15515
G1 X103.557 Y53.076 E-0.15515
G1 X104.219 Y52.958 E-0.15515
G1 X104.765 Y52.956 E-0.12624
G1 E-0.04000 F2100.00000
G1 Z0.800 F10800.000
G1 X105.087 Y56.120
G1 Z0.200
G1 E0.80000 F2100.00000
G1 F1200.000
G1 X114.484 Y56.120 E0.29465
G1 X114.460 Y68.278 E0.38121
G1 X114.423 Y75.143 E0.21524
G1 X114.314 Y87.377 E0.38361
G1 X114.181 Y97.345 E0.31257
G1 X113.898 Y113.087 E0.49366
G1 X113.248 Y143.176 E0.94363
G1 X113.032 Y154.546 E0.35656
G1 X103.595 Y154.546 E0.29589
G1 X103.860 Y140.072 E0.45390
G1 X104.506 Y109.849 E0.94783
G1 X104.812 Y92.449 E0.54565
G1 X104.928 Y83.617 E0.27696
G1 X105.023 Y73.200 E0.32662
G1 X105.086 Y56.180 E0.53365
G1 X104.711 Y55.743 F10800.000
G1 F1200.000
G1 X114.861 Y55.743 E0.31826
G1 X114.837 Y68.280 E0.39308
G1 X114.800 Y75.146 E0.21528
G1 X114.691 Y87.381 E0.38365
G1 X114.558 Y97.351 E0.31263
G1 X114.275 Y113.095 E0.49371
G1 X113.625 Y143.184 E0.94363
G1 X113.402 Y154.923 E0.36815
G1 X103.211 Y154.923 E0.31953
G1 X103.483 Y140.064 E0.46596
G1 X104.129 Y109.842 E0.94783
G1 X104.435 Y92.443 E0.54560
G1 X104.551 Y83.612 E0.27691
G1 X104.646 Y73.198 E0.32656
G1 X104.711 Y55.803 E0.54540
G1 X105.057 Y55.944 F10800.000
G1 F8640.000
G1 X108.002 Y55.784 E-0.76000
G1 E-0.04000 F2100.00000
G1 Z0.800 F10800.000
G1 X104.473 Y154.433
G1 Z0.200
G1 E0.80000 F2100.00000
G1 F1200.000
G1 X103.890 Y153.850 E0.02587
G1 X103.900 Y153.326 E0.01647
G1 X104.837 Y154.263 E0.04162
G1 X105.371 Y154.263 E0.01677
G1 X103.910 Y152.802 E0.06490
G1 X103.919 Y152.277 E0.01647
G1 X105.905 Y154.263 E0.08819
G1 X106.439 Y154.263 E0.01677
G1 X103.929 Y151.753 E0.11147
G1 X103.938 Y151.228 E0.01647
G1 X106.973 Y154.263 E0.13476
G1 X107.507 Y154.263 E0.01677
G1 X103.948 Y150.704 E0.15804
G1 X103.958 Y150.180 E0.01647
G1 X108.041 Y154.263 E0.18133
G1 X108.575 Y154.263 E0.01677
G1 X103.967 Y149.655 E0.20461
G1 X103.977 Y149.131 E0.01647
G1 X109.109 Y154.263 E0.22789
G1 X109.643 Y154.263 E0.01677
G1 X103.986 Y148.606 E0.25118
G1 X103.996 Y148.082 E0.01647
G1 X110.177 Y154.263 E0.27446
G1 X110.711 Y154.263 E0.01677
G1 X104.006 Y147.558 E0.29775
G1 X104.015 Y147.033 E0.01647
G1 X111.245 Y154.263 E0.32103
G1 X111.779 Y154.263 E0.01677
G1 X104.025 Y146.509 E0.34432
G1 X104.034 Y145.984 E0.01647
G1 X112.313 Y154.263 E0.36760
G1 X112.754 Y154.263 E0.01384
G1 X112.756 Y154.172 E0.00287
G1 X104.044 Y145.460 E0.38683
G1 X104.054 Y144.936 E0.01647
G1 X112.766 Y153.648 E0.38684
G1 X112.776 Y153.124 E0.01646
G1 X104.063 Y144.411 E0.38686
G1 X104.073 Y143.887 E0.01647
G1 X112.786 Y152.600 E0.38688
G1 X112.796 Y152.076 E0.01646
G1 X104.082 Y143.362 E0.38689
G1 X104.092 Y142.838 E0.01647
G1 X112.806 Y151.552 E0.38691
G1 X112.816 Y151.028 E0.01646
G1 X104.102 Y142.314 E0.38693
G1 X104.111 Y141.789 E0.01647
G1 X112.826 Y150.504 E0.38694
G1 X112.836 Y149.980 E0.01646
G1 X104.121 Y141.265 E0.38696
G1 X104.130 Y140.740 E0.01647
G1 X112.846 Y149.456 E0.38698
G1 X112.856 Y148.932 E0.01646
G1 X104.140 Y140.216 E0.38699
G1 X104.151 Y139.693 E0.01643
G1 X112.866 Y148.408 E0.38696
G1 X112.876 Y147.883 E0.01646
G1 X104.162 Y139.170 E0.38690
G1 X104.173 Y138.647 E0.01642
G1 X112.885 Y147.359 E0.38685
G1 X112.895 Y146.835 E0.01646
G1 X104.184 Y138.124 E0.38680
G1 X104.195 Y137.601 E0.01642
G1 X112.905 Y146.311 E0.38674
G1 X112.915 Y145.787 E0.01646
G1 X104.207 Y137.079 E0.38669
G1 X104.218 Y136.556 E0.01642
G1 X112.925 Y145.263 E0.38664
G1 X112.935 Y144.739 E0.01646
G1 X104.229 Y136.033 E0.38658
M73 Q1 S61
G1 X104.240 Y135.510 E0.01642
G1 X112.945 Y144.215 E0.38653
M73 P1 R60
G1 X112.955 Y143.691 E0.01646
G1 X104.251 Y134.987 E0.38648
G1 X104.262 Y134.464 E0.01642
G1 X112.965 Y143.167 E0.38642
G1 X112.977 Y142.645 E0.01642
G1 X104.274 Y133.942 E0.38643
G1 X104.285 Y133.419 E0.01642
G1 X112.988 Y142.122 E0.38644
G1 X112.999 Y141.599 E0.01642
G1 X104.296 Y132.896 E0.38644
G1 X104.307 Y132.373 E0.01642
G1 X113.010 Y141.076 E0.38645
G1 X113.022 Y140.554 E0.01642
G1 X104.318 Y131.850 E0.38645
G1 X104.330 Y131.327 E0.01642
G1 X113.033 Y140.031 E0.38646
G1 X113.044 Y139.508 E0.01642
G1 X104.341 Y130.805 E0.38646
G1 X104.352 Y130.282 E0.01642
G1 X113.056 Y138.986 E0.38647
G1 X113.067 Y138.463 E0.01642
G1 X104.363 Y129.759 E0.38647
G1 X104.374 Y129.236 E0.01642
G1 X113.078 Y137.940 E0.38648
G1 X113.090 Y137.417 E0.01642
G1 X104.385 Y128.713 E0.38649
G1 X104.397 Y128.191 E0.01642
G1 X113.101 Y136.895 E0.38649
G1 X113.112 Y136.372 E0.01642
G1 X104.408 Y127.668 E0.38650
G1 X104.419 Y127.145 E0.01642
G1 X113.123 Y135.849 E0.38650
G1 X113.135 Y135.327 E0.01642
G1 X104.430 Y126.622 E0.38651
G1 X104.441 Y126.099 E0.01642
G1 X113.146 Y134.804 E0.38651
G1 X113.157 Y134.281 E0.01642
G1 X104.452 Y125.576 E0.38652
G1 X104.464 Y125.054 E0.01642
G1 X113.169 Y133.759 E0.38652
G1 X113.180 Y133.236 E0.01642
G1 X104.475 Y124.531 E0.38653
G1 X104.486 Y124.008 E0.01642
G1 X113.191 Y132.713 E0.38654
G1 X113.203 Y132.190 E0.01642
G1 X104.497 Y123.485 E0.38654
G1 X104.508 Y122.962 E0.01642
G1 X113.214 Y131.668 E0.38655
G1 X113.225 Y131.145 E0.01642
G1 X104.519 Y122.439 E0.38655
G1 X104.531 Y121.917 E0.01642
G1 X113.236 Y130.622 E0.38656
G1 X113.248 Y130.100 E0.01642
G1 X104.542 Y121.394 E0.38656
G1 X104.553 Y120.871 E0.01642
G1 X113.259 Y129.577 E0.38657
G1 X113.270 Y129.054 E0.01642
G1 X104.564 Y120.348 E0.38657
G1 X104.575 Y119.825 E0.01642
G1 X113.282 Y128.532 E0.38658
G1 X113.293 Y128.009 E0.01642
G1 X104.586 Y119.302 E0.38659
G1 X104.598 Y118.780 E0.01642
G1 X113.304 Y127.486 E0.38659
G1 X113.316 Y126.963 E0.01642
G1 X104.609 Y118.257 E0.38660
G1 X104.620 Y117.734 E0.01642
G1 X113.327 Y126.441 E0.38660
G1 X113.338 Y125.918 E0.01642
G1 X104.631 Y117.211 E0.38661
G1 X104.642 Y116.688 E0.01642
G1 X113.349 Y125.395 E0.38661
G1 X113.361 Y124.873 E0.01642
G1 X104.654 Y116.165 E0.38662
G1 X104.665 Y115.643 E0.01642
G1 X113.372 Y124.350 E0.38662
G1 X113.383 Y123.827 E0.01642
G1 X104.676 Y115.120 E0.38663
G1 X104.687 Y114.597 E0.01642
G1 X113.395 Y123.305 E0.38664
G1 X113.406 Y122.782 E0.01642
G1 X104.698 Y114.074 E0.38664
G1 X104.709 Y113.551 E0.01642
G1 X113.417 Y122.259 E0.38665
G1 X113.428 Y121.736 E0.01642
G1 X104.721 Y113.028 E0.38665
G1 X104.732 Y112.506 E0.01642
G1 X113.440 Y121.214 E0.38666
G1 X113.451 Y120.691 E0.01642
G1 X104.743 Y111.983 E0.38666
G1 X104.754 Y111.460 E0.01642
G1 X113.462 Y120.168 E0.38667
G1 X113.474 Y119.646 E0.01642
G1 X104.765 Y110.937 E0.38667
G1 X104.776 Y110.414 E0.01642
G1 X113.485 Y119.123 E0.38668
G1 X113.496 Y118.600 E0.01642
G1 X104.788 Y109.892 E0.38669
G1 X104.797 Y109.367 E0.01647
G1 X113.508 Y118.077 E0.38677
G1 X113.519 Y117.555 E0.01642
G1 X104.806 Y108.842 E0.38686
G1 X104.815 Y108.317 E0.01648
G1 X113.530 Y117.032 E0.38695
G1 X113.541 Y116.509 E0.01642
G1 X104.825 Y107.793 E0.38705
G1 X104.834 Y107.268 E0.01648
G1 X113.553 Y115.987 E0.38714
G1 X113.564 Y115.464 E0.01642
G1 X104.843 Y106.743 E0.38723
G1 X104.852 Y106.218 E0.01648
G1 X113.575 Y114.941 E0.38732
G1 X113.587 Y114.419 E0.01642
G1 X104.862 Y105.694 E0.38741
G1 X104.871 Y105.169 E0.01648
G1 X113.598 Y113.896 E0.38750
G1 X113.609 Y113.373 E0.01642
G1 X104.880 Y104.644 E0.38760
G1 X104.889 Y104.119 E0.01648
G1 X113.620 Y112.850 E0.38765
G1 X113.629 Y112.325 E0.01647
G1 X104.899 Y103.594 E0.38766
G1 X104.908 Y103.070 E0.01648
G1 X113.639 Y111.800 E0.38766
G1 X113.648 Y111.276 E0.01647
G1 X104.917 Y102.545 E0.38767
G1 X104.926 Y102.020 E0.01648
G1 X113.657 Y110.751 E0.38768
G1 X113.667 Y110.227 E0.01647
G1 X104.936 Y101.495 E0.38769
G1 X104.945 Y100.971 E0.01648
G1 X113.676 Y109.702 E0.38770
G1 X113.686 Y109.177 E0.01647
G1 X104.954 Y100.446 E0.38770
G1 X104.963 Y99.921 E0.01648
G1 X113.695 Y108.653 E0.38771
G1 X113.704 Y108.128 E0.01647
G1 X104.972 Y99.396 E0.38772
G1 X104.982 Y98.872 E0.01648
G1 X113.714 Y107.604 E0.38773
G1 X113.723 Y107.079 E0.01647
G1 X104.991 Y98.347 E0.38773
G1 X105.000 Y97.822 E0.01648
G1 X113.733 Y106.555 E0.38774
G1 X113.742 Y106.030 E0.01647
G1 X105.009 Y97.297 E0.38775
G1 X105.019 Y96.773 E0.01648
G1 X113.751 Y105.505 E0.38776
G1 X113.761 Y104.981 E0.01647
G1 X105.028 Y96.248 E0.38776
G1 X105.037 Y95.723 E0.01648
G1 X113.770 Y104.456 E0.38777
G1 X113.780 Y103.932 E0.01647
G1 X105.046 Y95.198 E0.38778
G1 X105.056 Y94.673 E0.01648
G1 X113.789 Y103.407 E0.38779
G1 X113.798 Y102.882 E0.01647
G1 X105.065 Y94.149 E0.38779
G1 X105.074 Y93.624 E0.01648
G1 X113.808 Y102.358 E0.38780
G1 X113.817 Y101.833 E0.01647
G1 X105.083 Y93.099 E0.38781
G1 X105.093 Y92.574 E0.01648
G1 X113.827 Y101.309 E0.38782
G1 X113.836 Y100.784 E0.01647
G1 X105.100 Y92.048 E0.38790
G1 X105.107 Y91.521 E0.01655
G1 X113.846 Y100.259 E0.38801
G1 X113.855 Y99.735 E0.01647
G1 X105.114 Y90.994 E0.38812
G1 X105.121 Y90.467 E0.01655
G1 X113.864 Y99.210 E0.38824
G1 X113.874 Y98.686 E0.01647
G1 X105.128 Y89.940 E0.38835
G1 X105.135 Y89.412 E0.01655
G1 X113.883 Y98.161 E0.38846
G1 X113.893 Y97.636 E0.01647
G1 X105.142 Y88.885 E0.38857
G1 X105.148 Y88.358 E0.01655
G1 X113.901 Y97.111 E0.38863
G1 X113.908 Y96.584 E0.01655
G1 X105.155 Y87.831 E0.38864
M73 Q3 S60
G1 X105.162 Y87.304 E0.01655
G1 X113.915 Y96.057 E0.38864
M73 P3 R59
G1 X113.922 Y95.530 E0.01655
G1 X105.169 Y86.777 E0.38865
G1 X105.176 Y86.250 E0.01655
G1 X113.929 Y95.003 E0.38865
G1 X113.936 Y94.476 E0.01655
G1 X105.183 Y85.723 E0.38866
G1 X105.190 Y85.196 E0.01655
G1 X113.943 Y93.949 E0.38866
G1 X113.950 Y93.422 E0.01655
G1 X105.197 Y84.669 E0.38867
G1 X105.204 Y84.142 E0.01655
G1 X113.957 Y92.895 E0.38867
G1 X113.964 Y92.368 E0.01655
G1 X105.211 Y83.615 E0.38868
G1 X105.216 Y83.085 E0.01662
G1 X113.971 Y91.841 E0.38878
G1 X113.978 Y91.314 E0.01655
G1 X105.220 Y82.556 E0.38888
G1 X105.225 Y82.027 E0.01661
G1 X113.985 Y90.787 E0.38898
G1 X113.993 Y90.260 E0.01655
G1 X105.230 Y81.498 E0.38907
G1 X105.235 Y80.969 E0.01662
G1 X114.000 Y89.733 E0.38917
G1 X114.007 Y89.206 E0.01655
G1 X105.240 Y80.440 E0.38927
G1 X105.245 Y79.910 E0.01662
G1 X114.014 Y88.679 E0.38937
G1 X114.021 Y88.153 E0.01655
G1 X105.249 Y79.381 E0.38947
G1 X105.254 Y78.852 E0.01661
G1 X114.028 Y87.626 E0.38956
G1 X114.031 Y87.374 E0.00790
G1 X114.034 Y87.097 E0.00869
G1 X105.259 Y78.323 E0.38961
G1 X105.264 Y77.794 E0.01662
G1 X114.038 Y86.568 E0.38960
G1 X114.043 Y86.039 E0.01662
G1 X105.269 Y77.265 E0.38960
G1 X105.274 Y76.735 E0.01662
G1 X114.048 Y85.510 E0.38959
G1 X114.053 Y84.980 E0.01662
G1 X105.278 Y76.206 E0.38959
G1 X105.283 Y75.677 E0.01662
G1 X114.057 Y84.451 E0.38959
G1 X114.062 Y83.922 E0.01662
G1 X105.288 Y75.148 E0.38958
G1 X105.293 Y74.619 E0.01662
G1 X114.067 Y83.393 E0.38958
G1 X114.071 Y82.863 E0.01662
G1 X105.298 Y74.090 E0.38957
G1 X105.303 Y73.560 E0.01662
G1 X114.076 Y82.334 E0.38957
G1 X114.081 Y81.805 E0.01662
G1 X105.307 Y73.030 E0.38960
G1 X105.309 Y72.498 E0.01670
G1 X114.086 Y81.275 E0.38973
G1 X114.090 Y80.746 E0.01662
G1 X105.310 Y71.966 E0.38985
G1 X105.312 Y71.434 E0.01670
G1 X114.095 Y80.217 E0.38997
G1 X114.100 Y79.688 E0.01662
G1 X105.314 Y70.902 E0.39009
G1 X105.316 Y70.370 E0.01670
G1 X114.105 Y79.158 E0.39022
G1 X114.109 Y78.629 E0.01662
G1 X105.318 Y69.838 E0.39034
G1 X105.320 Y69.306 E0.01670
G1 X114.114 Y78.100 E0.39046
G1 X114.119 Y77.571 E0.01662
G1 X105.322 Y68.774 E0.39058
G1 X105.324 Y68.242 E0.01670
G1 X114.124 Y77.041 E0.39071
G1 X114.128 Y76.512 E0.01662
G1 X105.326 Y67.710 E0.39083
G1 X105.328 Y67.178 E0.01670
G1 X114.133 Y75.983 E0.39095
G1 X114.138 Y75.454 E0.01662
G1 X105.330 Y66.646 E0.39107
G1 X105.332 Y66.114 E0.01670
G1 X114.142 Y74.924 E0.39116
G1 X114.145 Y74.392 E0.01668
G1 X105.334 Y65.582 E0.39120
G1 X105.336 Y65.050 E0.01670
G1 X114.147 Y73.861 E0.39124
G1 X114.150 Y73.330 E0.01668
G1 X105.338 Y64.518 E0.39128
G1 X105.340 Y63.986 E0.01670
G1 X114.153 Y72.799 E0.39131
G1 X114.156 Y72.268 E0.01668
G1 X105.342 Y63.454 E0.39135
G1 X105.344 Y62.922 E0.01670
G1 X114.159 Y71.736 E0.39139
G1 X114.162 Y71.205 E0.01668
G1 X105.346 Y62.390 E0.39143
G1 X105.348 Y61.858 E0.01670
G1 X114.164 Y70.674 E0.39146
G1 X114.167 Y70.143 E0.01668
G1 X105.350 Y61.326 E0.39150
G1 X105.352 Y60.794 E0.01670
G1 X114.170 Y69.612 E0.39154
G1 X114.173 Y69.081 E0.01668
G1 X105.354 Y60.262 E0.39158
G1 X105.356 Y59.730 E0.01670
G1 X114.176 Y68.549 E0.39161
G1 X114.178 Y68.017 E0.01670
G1 X105.358 Y59.198 E0.39162
G1 X105.360 Y58.666 E0.01670
G1 X114.179 Y67.485 E0.39158
G1 X114.180 Y66.952 E0.01673
G1 X105.362 Y58.134 E0.39155
G1 X105.364 Y57.602 E0.01670
G1 X114.181 Y66.419 E0.39151
G1 X114.182 Y65.886 E0.01673
G1 X105.366 Y57.070 E0.39147
G1 X105.368 Y56.538 E0.01670
G1 X114.184 Y65.353 E0.39144
G1 X114.185 Y64.821 E0.01673
G1 X105.767 Y56.403 E0.37376
G1 X106.301 Y56.403 E0.01677
G1 X114.186 Y64.288 E0.35010
G1 X114.187 Y63.755 E0.01673
G1 X106.835 Y56.403 E0.32644
G1 X107.369 Y56.403 E0.01677
G1 X114.188 Y63.222 E0.30278
G1 X114.189 Y62.689 E0.01673
G1 X107.903 Y56.403 E0.27912
G1 X108.437 Y56.403 E0.01677
G1 X114.191 Y62.156 E0.25547
G1 X114.192 Y61.624 E0.01673
G1 X108.971 Y56.403 E0.23181
G1 X109.505 Y56.403 E0.01677
G1 X114.193 Y61.091 E0.20815
G1 X114.194 Y60.558 E0.01673
G1 X110.039 Y56.403 E0.18449
G1 X110.573 Y56.403 E0.01677
G1 X114.195 Y60.025 E0.16083
G1 X114.197 Y59.492 E0.01673
G1 X111.107 Y56.403 E0.13717
G1 X111.641 Y56.403 E0.01677
G1 X114.198 Y58.960 E0.11351
G1 X114.199 Y58.427 E0.01673
G1 X112.175 Y56.403 E0.08986
G1 X112.709 Y56.403 E0.01677
G1 X114.200 Y57.894 E0.06620
G1 X114.201 Y57.361 E0.01674
G1 X113.243 Y56.403 E0.04252
G1 X113.777 Y56.403 E0.01677
G1 X114.371 Y56.996 E0.02635
G1 F8640.000
G1 X113.777 Y56.403 E-0.19377
G1 X113.243 Y56.403 E-0.12330
G1 X114.201 Y57.361 E-0.31269
G1 X114.200 Y57.894 E-0.12314
G1 X114.178 Y57.872 E-0.00710
G1 E-0.04000 F2100.00000
G1 Z0.800 F10800.000
G1 X136.166 Y56.031
G1 Z0.200
G1 E0.80000 F2100.00000
G1 F1200.000
G1 X145.561 Y56.031 E0.29458
