; generated by PrusaSlicer 2.2.0+linux-x64 on 2020-07-06 at 18:29:17 UTC

; 

; external perimeters extrusion width = 0.45mm
; perimeters extrusion width = 0.45mm
; infill extrusion width = 0.45mm
; solid infill extrusion width = 0.45mm
; top infill extrusion width = 0.40mm
; first layer extrusion width = 0.42mm

M73 P0 R119
M73 Q0 S120
M201 X1000 Y1000 Z200 E5000 ; sets maximum accelerations, mm/sec^2
M203 X200 Y200 Z12 E120 ; sets maximum feedrates, mm/sec
M204 P1250 R1250 T1250 ; sets acceleration (P, T) and retract acceleration (R), mm/sec^2
M205 X8.00 Y8.00 Z0.40 E4.50 ; sets the jerk limits, mm/sec
M205 S0 T0 ; sets the minimum extruding and travel feed rate, mm/sec
M107
M862.3 P "MK3" ; printer model check
M862.1 P0.4 ; nozzle diameter check
M115 U3.9.0 ; tell printer latest fw version
G90 ; use absolute coordinates
M83 ; extruder relative mode
M104 S225 ; set extruder temp
M140 S60 ; set bed temp
M190 S60 ; wait for bed temp
M109 S225 ; wait for extruder temp
G28 W ; home all without mesh bed level
G80 ; mesh bed leveling
G1 Y-3.0 F1000.0 ; go outside print area
G92 E0.0
G1 X60.0 E9.0 F1000.0 ; intro line
M73 Q0 S120
M73 P0 R119
G1 X100.0 E12.5 F1000.0 ; intro line
G92 E0.0
M221 S95
G21 ; set units to millimeters
G90 ; use absolute coordinates
M83 ; use relative distances for extrusion
M900 K0.06 ; Filament gcode LA 1.5
M900 K30 ; Filament gcode LA 1.0
;BEFORE_LAYER_CHANGE
G92 E0.0
;0.2


G1 E-0.80000 F2100.00000
G1 Z0.600 F10800.000
;AFTER_LAYER_CHANGE
;0.2
G1 X75.887 Y18.248
G1 Z0.200
G1 E0.80000 F2100.00000
M204 S1000
G1 F1200.000
G1 X76.380 Y17.820 E0.02048
G1 X76.968 Y17.544 E0.02036
G1 X77.612 Y17.437 E0.02048
G1 X172.057 Y15.846 E2.96167
G1 X183.036 Y15.846 E0.34424
G1 X183.902 Y16.011 E0.02767
G1 X184.646 Y16.479 E0.02755
G1 X185.170 Y17.184 E0.02755
G1 X185.401 Y18.032 E0.02755
G1 X185.880 Y51.125 E1.03772
G1 X185.860 Y67.504 E0.51355
G1 X185.651 Y78.106 E0.33248
G1 X185.455 Y83.856 E0.18041
G1 X184.722 Y97.352 E0.42379
G1 X184.281 Y103.081 E0.18015
G1 X183.547 Y110.863 E0.24507
G1 X182.545 Y119.491 E0.27236
G1 X180.948 Y130.583 E0.35136
G1 X179.019 Y141.553 E0.34924
G1 X176.732 Y152.537 E0.35177
G1 X174.031 Y163.750 E0.36163
G1 X171.055 Y174.640 E0.35397
G1 X167.710 Y185.608 E0.35954
G1 X164.816 Y194.243 E0.28555
G1 X164.463 Y194.783 E0.02024
G1 X163.977 Y195.208 E0.02024
G1 X163.398 Y195.486 E0.02012
G1 X162.763 Y195.599 E0.02024
G1 X118.207 Y197.190 E1.39791
G1 X98.012 Y197.190 E0.63319
G1 X97.503 Y197.129 E0.01609
G1 X97.018 Y196.960 E0.01609
G1 X96.300 Y196.434 E0.02790
G1 X95.826 Y195.681 E0.02790
G1 X92.228 Y184.770 E0.36022
G1 X89.742 Y176.537 E0.26968
G1 X88.128 Y170.809 E0.18657
G1 X85.313 Y159.870 E0.35417
G1 X82.843 Y148.896 E0.35268
G1 X81.171 Y140.386 E0.27193
G1 X79.331 Y129.425 E0.34849
G1 X77.805 Y118.200 E0.35517
G1 X76.641 Y107.126 E0.34915
G1 X75.823 Y96.495 E0.33431
G1 X75.253 Y85.450 E0.34676
G1 X74.939 Y74.836 E0.33294
G1 X74.806 Y63.337 E0.36056
G1 X74.876 Y47.394 E0.49991
G1 X75.300 Y19.758 E0.86660
G1 X75.363 Y19.264 E0.01562
G1 X75.528 Y18.794 E0.01562
G1 X75.854 Y18.298 E0.01860
G1 F8640.000
G1 X76.380 Y17.820 E-0.16417
G1 X76.968 Y17.544 E-0.14993
G1 X77.612 Y17.437 E-0.15080
G1 X78.890 Y17.415 E-0.29510
G1 E-0.04000 F2100.00000
G1 Z0.800 F10800.000
G1 X172.900 Y19.010
G1 Z0.200
G1 E0.80000 F2100.00000
G1 F1200.000
G1 X182.259 Y19.010 E0.29345
G1 X182.588 Y39.585 E0.64519
G1 X182.668 Y45.839 E0.19609
G1 X182.741 Y56.443 E0.33250
G1 X182.738 Y61.739 E0.16606
G1 X182.700 Y67.023 E0.16568
G1 X182.615 Y72.745 E0.17943
G1 X182.488 Y78.026 E0.16561
G1 X182.294 Y83.732 E0.17903
G1 X182.032 Y89.428 E0.17878
G1 X181.753 Y94.295 E0.15285
G1 X181.565 Y97.132 E0.08912
G1 X181.357 Y99.969 E0.08920
G1 X180.916 Y105.251 E0.16620
G1 X180.648 Y108.092 E0.08945
G1 X180.092 Y113.384 E0.16687
G1 X179.408 Y119.081 E0.17991
G1 X179.031 Y121.929 E0.09005
G1 X178.287 Y127.103 E0.16392
G1 X177.380 Y132.793 E0.18065
G1 X176.469 Y137.981 E0.16516
G1 X175.912 Y140.953 E0.09481
G1 X174.770 Y146.650 E0.18217
G1 X173.645 Y151.844 E0.16662
G1 X173.023 Y154.563 E0.08747
G1 X172.320 Y157.531 E0.09563
G1 X170.966 Y162.964 E0.17553
G1 X169.530 Y168.376 E0.17556
G1 X168.013 Y173.769 E0.17567
G1 X166.393 Y179.223 E0.17841
G1 X165.463 Y182.227 E0.09860
G1 X163.820 Y187.343 E0.16846
G1 X162.105 Y192.436 E0.16850
G1 X143.764 Y192.436 E0.57508
G1 X146.033 Y187.333 E0.17510
G1 X147.384 Y184.202 E0.10694
G1 X148.712 Y181.057 E0.10703
G1 X150.016 Y177.899 E0.10712
G1 X151.293 Y174.728 E0.10718
G1 X152.544 Y171.546 E0.10720
G1 X153.766 Y168.353 E0.10719
G1 X154.830 Y165.500 E0.09549
G1 X155.869 Y162.639 E0.09542
G1 X156.883 Y159.773 E0.09533
G1 X157.871 Y156.900 E0.09524
G1 X158.832 Y154.023 E0.09513
G1 X159.766 Y151.140 E0.09501
G1 X160.672 Y148.253 E0.09487
G1 X161.550 Y145.362 E0.09473
G1 X162.400 Y142.468 E0.09457
G1 X163.219 Y139.571 E0.09440
G1 X164.009 Y136.672 E0.09422
G1 X164.768 Y133.771 E0.09403
G1 X165.495 Y130.868 E0.09383
G1 X166.191 Y127.964 E0.09362
G1 X166.854 Y125.060 E0.09340
G1 X167.484 Y122.157 E0.09316
G1 X167.976 Y119.770 E0.07640
G1 X168.893 Y115.004 E0.15219
G1 X169.720 Y110.237 E0.15168
G1 X170.461 Y105.472 E0.15121
G1 X171.116 Y100.707 E0.15081
G1 X171.687 Y95.942 E0.15048
G1 X172.176 Y91.176 E0.15022
G1 X172.585 Y86.408 E0.15003
G1 X172.951 Y81.062 E0.16804
G1 X173.114 Y78.093 E0.09322
G1 X173.363 Y72.154 E0.18638
G1 X173.518 Y66.201 E0.18673
G1 X173.592 Y60.231 E0.18718
G1 X173.598 Y54.244 E0.18773
G1 X173.546 Y48.235 E0.18841
G1 X173.450 Y42.202 E0.18919
G1 X173.322 Y36.142 E0.19006
G1 X172.901 Y19.070 E0.53542
G1 X172.513 Y18.633 F10800.000
G1 F1200.000
G1 X182.630 Y18.633 E0.31720
G1 X182.965 Y39.580 E0.65684
G1 X183.045 Y45.835 E0.19614
G1 X183.118 Y56.442 E0.33258
G1 X183.115 Y61.741 E0.16614
G1 X183.077 Y67.027 E0.16577
G1 X182.992 Y72.753 E0.17953
G1 X182.865 Y78.037 E0.16572
G1 X182.670 Y83.747 E0.17916
G1 X182.408 Y89.448 E0.17892
G1 X182.130 Y94.319 E0.15297
G1 X181.941 Y97.158 E0.08922
G1 X181.733 Y99.998 E0.08930
G1 X181.291 Y105.285 E0.16632
G1 X181.024 Y108.129 E0.08958
G1 X180.467 Y113.427 E0.16702
G1 X179.782 Y119.129 E0.18007
G1 X179.405 Y121.980 E0.09019
G1 X178.660 Y127.160 E0.16408
G1 X177.752 Y132.855 E0.18084
G1 X176.840 Y138.049 E0.16532
G1 X176.282 Y141.025 E0.09496
G1 X175.139 Y146.727 E0.18233
G1 X174.013 Y151.926 E0.16678
G1 X173.391 Y154.649 E0.08758
G1 X172.687 Y157.620 E0.09575
G1 X171.331 Y163.058 E0.17569
G1 X169.894 Y168.475 E0.17574
G1 X168.376 Y173.874 E0.17584
G1 X166.754 Y179.333 E0.17856
G1 X165.822 Y182.341 E0.09873
G1 X164.178 Y187.461 E0.16861
G1 X162.376 Y192.813 E0.17708
G1 X143.184 Y192.813 E0.60176
M73 Q0 S119
M73 P0 R118
G1 X145.687 Y187.182 E0.19323
G1 X147.037 Y184.054 E0.10683
G1 X148.364 Y180.912 E0.10694
G1 X149.666 Y177.756 E0.10703
G1 X150.943 Y174.589 E0.10708
G1 X152.193 Y171.410 E0.10710
G1 X153.414 Y168.220 E0.10708
G1 X154.476 Y165.369 E0.09539
G1 X155.514 Y162.512 E0.09532
G1 X156.527 Y159.649 E0.09523
G1 X157.513 Y156.779 E0.09514
G1 X158.474 Y153.905 E0.09502
G1 X159.407 Y151.025 E0.09490
G1 X160.312 Y148.142 E0.09476
G1 X161.189 Y145.254 E0.09462
G1 X162.037 Y142.364 E0.09445
G1 X162.856 Y139.470 E0.09428
G1 X163.644 Y136.575 E0.09410
G1 X164.402 Y133.677 E0.09391
G1 X165.129 Y130.778 E0.09370
G1 X165.824 Y127.878 E0.09349
G1 X166.486 Y124.978 E0.09327
G1 X167.115 Y122.079 E0.09303
G1 X167.606 Y119.697 E0.07626
G1 X168.522 Y114.936 E0.15201
G1 X169.348 Y110.176 E0.15147
G1 X170.088 Y105.417 E0.15100
G1 X170.742 Y100.659 E0.15060
G1 X171.312 Y95.900 E0.15027
G1 X171.801 Y91.140 E0.15002
G1 X172.209 Y86.379 E0.14983
G1 X172.575 Y81.038 E0.16786
G1 X172.738 Y78.075 E0.09306
G1 X172.986 Y72.141 E0.18621
G1 X173.141 Y66.193 E0.18655
G1 X173.215 Y60.229 E0.18703
G1 X173.221 Y54.245 E0.18760
G1 X173.169 Y48.240 E0.18831
G1 X173.073 Y42.209 E0.18912
G1 X172.945 Y36.150 E0.19001
G1 X172.515 Y18.693 E0.54752
G1 X172.861 Y18.831 F10800.000
G1 F8640.000
G1 X175.806 Y18.674 E-0.76000
G1 E-0.04000 F2100.00000
G1 Z0.800 F10800.000
G1 X144.692 Y192.323
G1 Z0.200
G1 E0.80000 F2100.00000
G1 F1200.000
G1 X144.299 Y191.930 E0.01746
G1 X144.463 Y191.560 E0.01271
G1 X145.056 Y192.153 E0.02634
G1 X145.590 Y192.153 E0.01677
G1 X144.627 Y191.190 E0.04276
G1 X144.792 Y190.821 E0.01271
G1 X146.124 Y192.153 E0.05918
G1 X146.658 Y192.153 E0.01677
G1 X144.956 Y190.451 E0.07560
G1 X145.120 Y190.081 E0.01271
G1 X147.193 Y192.153 E0.09202
G1 X147.727 Y192.153 E0.01677
G1 X145.285 Y189.712 E0.10844
G1 X145.449 Y189.342 E0.01271
G1 X148.261 Y192.153 E0.12486
G1 X148.795 Y192.153 E0.01677
G1 X145.614 Y188.972 E0.14127
G1 X145.778 Y188.602 E0.01271
G1 X149.329 Y192.153 E0.15769
G1 X149.863 Y192.153 E0.01677
G1 X145.942 Y188.233 E0.17411
G1 X146.107 Y187.863 E0.01271
G1 X150.397 Y192.153 E0.19053
G1 X150.931 Y192.153 E0.01677
G1 X146.271 Y187.493 E0.20695
G1 X146.432 Y187.121 E0.01275
G1 X151.465 Y192.153 E0.22350
G1 X151.999 Y192.153 E0.01677
G1 X146.593 Y186.748 E0.24007
G1 X146.754 Y186.374 E0.01276
G1 X152.533 Y192.153 E0.25664
G1 X153.067 Y192.153 E0.01677
G1 X146.915 Y186.001 E0.27320
G1 X147.076 Y185.628 E0.01276
G1 X153.601 Y192.153 E0.28977
G1 X154.136 Y192.153 E0.01677
G1 X147.237 Y185.255 E0.30634
G1 X147.398 Y184.882 E0.01276
G1 X154.670 Y192.153 E0.32291
G1 X155.204 Y192.153 E0.01677
G1 X147.559 Y184.509 E0.33948
G1 X147.719 Y184.135 E0.01278
G1 X155.738 Y192.153 E0.35610
G1 X156.272 Y192.153 E0.01677
G1 X147.878 Y183.759 E0.37277
G1 X148.036 Y183.384 E0.01280
G1 X156.806 Y192.153 E0.38945
G1 X157.340 Y192.153 E0.01677
G1 X148.195 Y183.008 E0.40612
G1 X148.353 Y182.633 E0.01280
G1 X157.874 Y192.153 E0.42280
G1 X158.408 Y192.153 E0.01677
G1 X148.512 Y182.257 E0.43948
G1 X148.671 Y181.882 E0.01280
G1 X158.942 Y192.153 E0.45615
G1 X159.476 Y192.153 E0.01677
G1 X148.829 Y181.506 E0.47283
G1 X148.987 Y181.130 E0.01280
G1 X160.010 Y192.153 E0.48951
G1 X160.544 Y192.153 E0.01677
G1 X149.143 Y180.752 E0.50630
G1 X149.300 Y180.374 E0.01284
G1 X161.079 Y192.153 E0.52309
G1 X161.613 Y192.153 E0.01677
G1 X149.456 Y179.996 E0.53988
G1 X149.612 Y179.618 E0.01284
G1 X161.964 Y191.970 E0.54854
G1 X162.098 Y191.571 E0.01324
G1 X149.768 Y179.240 E0.54758
G1 X149.924 Y178.862 E0.01284
G1 X162.233 Y191.171 E0.54663
G1 X162.367 Y190.772 E0.01324
G1 X150.080 Y178.484 E0.54567
G1 X150.236 Y178.106 E0.01284
G1 X162.502 Y190.372 E0.54472
G1 X162.636 Y189.973 E0.01324
G1 X150.390 Y177.726 E0.54384
G1 X150.543 Y177.346 E0.01289
G1 X162.771 Y189.573 E0.54301
G1 X162.905 Y189.174 E0.01324
G1 X150.697 Y176.965 E0.54217
G1 X150.850 Y176.584 E0.01289
G1 X163.040 Y188.774 E0.54133
G1 X163.174 Y188.375 E0.01324
G1 X151.004 Y176.204 E0.54049
G1 X151.157 Y175.823 E0.01289
G1 X163.309 Y187.975 E0.53965
G1 X163.444 Y187.575 E0.01324
G1 X151.311 Y175.442 E0.53881
G1 X151.464 Y175.062 E0.01289
G1 X163.577 Y187.175 E0.53793
G1 X163.707 Y186.771 E0.01333
G1 X151.616 Y174.680 E0.53693
G1 X151.767 Y174.297 E0.01294
G1 X163.837 Y186.366 E0.53600
G1 X163.966 Y185.962 E0.01333
G1 X151.918 Y173.913 E0.53507
G1 X152.068 Y173.530 E0.01294
G1 X164.096 Y185.558 E0.53414
G1 X164.226 Y185.154 E0.01333
G1 X152.219 Y173.147 E0.53322
G1 X152.370 Y172.763 E0.01294
G1 X164.356 Y184.749 E0.53229
G1 X164.486 Y184.345 E0.01333
G1 X152.520 Y172.380 E0.53136
G1 X152.671 Y171.996 E0.01294
G1 X164.615 Y183.941 E0.53043
G1 X164.745 Y183.536 E0.01333
G1 X152.822 Y171.613 E0.52952
G1 X152.969 Y171.226 E0.01299
G1 X164.875 Y183.132 E0.52871
G1 X165.005 Y182.728 E0.01333
G1 X153.117 Y170.840 E0.52791
G1 X153.265 Y170.454 E0.01299
G1 X165.135 Y182.324 E0.52711
G1 X165.263 Y181.917 E0.01337
G1 X153.413 Y170.068 E0.52622
G1 X153.561 Y169.682 E0.01299
G1 X165.389 Y181.510 E0.52527
G1 X165.515 Y181.102 E0.01341
G1 X153.709 Y169.295 E0.52431
G1 X153.856 Y168.909 E0.01299
G1 X165.641 Y180.694 E0.52335
G1 X165.768 Y180.286 E0.01341
G1 X154.004 Y168.523 E0.52240
G1 X154.150 Y168.134 E0.01303
G1 X165.894 Y179.878 E0.52154
G1 X166.020 Y179.471 E0.01341
G1 X154.295 Y167.745 E0.52071
G1 X154.440 Y167.356 E0.01304
G1 X166.146 Y179.062 E0.51984
G1 X166.268 Y178.650 E0.01349
G1 X154.585 Y166.967 E0.51884
G1 X154.730 Y166.578 E0.01304
G1 X166.390 Y178.239 E0.51783
G1 X166.513 Y177.827 E0.01349
G1 X154.875 Y166.189 E0.51682
G1 X155.020 Y165.800 E0.01304
G1 X166.635 Y177.415 E0.51581
G1 X166.757 Y177.003 E0.01349
G1 X155.164 Y165.410 E0.51486
G1 X155.306 Y165.018 E0.01309
M73 Q1 S118
G1 X166.880 Y176.592 E0.51397
M73 P1 R117
G1 X167.002 Y176.180 E0.01349
G1 X155.448 Y164.626 E0.51308
G1 X155.591 Y164.234 E0.01309
G1 X167.124 Y175.768 E0.51220
G1 X167.247 Y175.356 E0.01349
G1 X155.733 Y163.843 E0.51131
G1 X155.875 Y163.451 E0.01309
G1 X167.369 Y174.945 E0.51042
G1 X167.491 Y174.533 E0.01349
G1 X156.018 Y163.059 E0.50953
G1 X156.159 Y162.667 E0.01310
G1 X167.614 Y174.121 E0.50867
G1 X167.736 Y173.709 E0.01349
G1 X156.299 Y162.272 E0.50790
G1 X156.438 Y161.878 E0.01314
G1 X167.853 Y173.293 E0.50692
G1 X167.971 Y172.876 E0.01360
G1 X156.578 Y161.483 E0.50593
G1 X156.717 Y161.089 E0.01314
G1 X168.088 Y172.459 E0.50494
G1 X168.205 Y172.042 E0.01360
G1 X156.857 Y160.694 E0.50395
G1 X156.997 Y160.300 E0.01314
G1 X168.322 Y171.625 E0.50296
G1 X168.440 Y171.209 E0.01360
G1 X157.136 Y159.905 E0.50197
G1 X157.273 Y159.508 E0.01319
G1 X168.557 Y170.792 E0.50110
G1 X168.674 Y170.375 E0.01360
G1 X157.410 Y159.110 E0.50024
G1 X157.546 Y158.713 E0.01320
G1 X168.791 Y169.958 E0.49937
G1 X168.909 Y169.541 E0.01360
G1 X157.683 Y158.316 E0.49851
G1 X157.820 Y157.918 E0.01320
G1 X169.026 Y169.124 E0.49765
G1 X169.143 Y168.707 E0.01360
G1 X157.956 Y157.521 E0.49678
G1 X158.093 Y157.123 E0.01320
G1 X169.260 Y168.291 E0.49592
G1 X169.372 Y167.868 E0.01371
G1 X158.228 Y156.724 E0.49491
G1 X158.361 Y156.324 E0.01325
G1 X169.484 Y167.446 E0.49394
G1 X169.596 Y167.024 E0.01371
G1 X158.495 Y155.923 E0.49298
G1 X158.629 Y155.523 E0.01325
G1 X169.708 Y166.602 E0.49201
G1 X169.820 Y166.180 E0.01371
G1 X158.763 Y155.123 E0.49105
G1 X158.896 Y154.722 E0.01325
G1 X169.932 Y165.758 E0.49008
G1 X170.044 Y165.336 E0.01371
G1 X159.030 Y154.322 E0.48912
G1 X159.162 Y153.920 E0.01328
G1 X170.156 Y164.914 E0.48821
G1 X170.268 Y164.492 E0.01371
G1 X159.293 Y153.517 E0.48738
G1 X159.424 Y153.113 E0.01331
G1 X170.380 Y164.070 E0.48655
G1 X170.492 Y163.648 E0.01371
G1 X159.554 Y152.710 E0.48572
G1 X159.685 Y152.307 E0.01331
G1 X170.604 Y163.226 E0.48489
G1 X170.715 Y162.802 E0.01374
G1 X159.816 Y151.903 E0.48401
G1 X159.947 Y151.500 E0.01331
G1 X170.821 Y162.375 E0.48293
G1 X170.928 Y161.947 E0.01383
G1 X160.076 Y151.096 E0.48191
G1 X160.204 Y150.689 E0.01338
G1 X171.035 Y161.520 E0.48097
G1 X171.141 Y161.092 E0.01383
G1 X160.332 Y150.283 E0.48004
G1 X160.459 Y149.876 E0.01338
G1 X171.248 Y160.665 E0.47910
G1 X171.354 Y160.237 E0.01383
G1 X160.587 Y149.470 E0.47817
G1 X160.714 Y149.063 E0.01338
G1 X171.461 Y159.810 E0.47724
G1 X171.567 Y159.382 E0.01383
G1 X160.842 Y148.657 E0.47630
G1 X160.969 Y148.250 E0.01339
G1 X171.674 Y158.955 E0.47540
G1 X171.781 Y158.527 E0.01383
G1 X161.093 Y147.840 E0.47460
G1 X161.218 Y147.430 E0.01344
G1 X171.887 Y158.100 E0.47381
G1 X171.994 Y157.672 E0.01383
G1 X161.342 Y147.021 E0.47302
G1 X161.467 Y146.611 E0.01344
G1 X172.097 Y157.242 E0.47210
G1 X172.198 Y156.809 E0.01397
G1 X161.591 Y146.202 E0.47105
G1 X161.716 Y145.792 E0.01344
G1 X172.299 Y156.376 E0.47000
G1 X172.400 Y155.942 E0.01397
G1 X161.840 Y145.382 E0.46898
G1 X161.961 Y144.969 E0.01351
G1 X172.501 Y155.509 E0.46808
G1 X172.602 Y155.076 E0.01397
G1 X162.082 Y144.556 E0.46718
G1 X162.203 Y144.143 E0.01351
G1 X172.703 Y154.643 E0.46627
G1 X172.803 Y154.209 E0.01397
G1 X162.324 Y143.730 E0.46537
G1 X162.445 Y143.317 E0.01351
G1 X172.904 Y153.776 E0.46447
G1 X173.005 Y153.343 E0.01397
G1 X162.566 Y142.904 E0.46357
G1 X162.687 Y142.491 E0.01352
G1 X173.106 Y152.910 E0.46269
G1 X173.207 Y152.477 E0.01397
G1 X162.805 Y142.075 E0.46194
G1 X162.923 Y141.658 E0.01359
G1 X173.308 Y152.043 E0.46119
G1 X173.369 Y151.782 E0.00843
G1 X173.406 Y151.608 E0.00559
G1 X163.040 Y141.242 E0.46033
G1 X163.158 Y140.826 E0.01359
G1 X173.501 Y151.169 E0.45933
G1 X173.597 Y150.730 E0.01410
