; generated by PrusaSlicer 2.2.0+linux-x64 on 2020-07-06 at 19:03:19 UTC

; 

; external perimeters extrusion width = 0.45mm
; perimeters extrusion width = 0.45mm
; infill extrusion width = 0.45mm
; solid infill extrusion width = 0.45mm
; top infill extrusion width = 0.40mm
; first layer extrusion width = 0.42mm

M73 P0 R90
M73 Q0 S91
M201 X1000 Y1000 Z200 E5000 ; sets maximum accelerations, mm/sec^2
M203 X200 Y200 Z12 E120 ; sets maximum feedrates, mm/sec
M204 P1250 R1250 T1250 ; sets acceleration (P, T) and retract acceleration (R), mm/sec^2
M205 X8.00 Y8.00 Z0.40 E4.50 ; sets the jerk limits, mm/sec
M205 S0 T0 ; sets the minimum extruding and travel feed rate, mm/sec
M107
M862.3 P "MK3" ; printer model check
M862.1 P0.4 ; nozzle diameter check
M115 U3.9.0 ; tell printer latest fw version
G90 ; use absolute coordinates
M83 ; extruder relative mode
M104 S225 ; set extruder temp
M140 S60 ; set bed temp
M190 S60 ; wait for bed temp
M109 S225 ; wait for extruder temp
G28 W ; home all without mesh bed level
G80 ; mesh bed leveling
G1 Y-3.0 F1000.0 ; go outside print area
G92 E0.0
G1 X60.0 E9.0 F1000.0 ; intro line
M73 Q0 S91
M73 P0 R90
G1 X100.0 E12.5 F1000.0 ; intro line
G92 E0.0
M221 S95
G21 ; set units to millimeters
G90 ; use absolute coordinates
M83 ; use relative distances for extrusion
M900 K0.06 ; Filament gcode LA 1.5
M900 K30 ; Filament gcode LA 1.0
;BEFORE_LAYER_CHANGE
G92 E0.0
;0.2


G1 E-0.80000 F2100.00000
G1 Z0.600 F10800.000
;AFTER_LAYER_CHANGE
;0.2
G1 X101.667 Y28.576
G1 Z0.200
G1 E0.80000 F2100.00000
M204 S1000
G1 F1200.000
G1 X102.099 Y27.920 E0.02461
G1 X102.720 Y27.441 E0.02461
G1 X103.461 Y27.191 E0.02449
G1 X114.813 Y27.161 E0.35597
G1 X145.406 Y27.784 E0.95941
G1 X146.151 Y27.965 E0.02402
G1 X146.802 Y28.375 E0.02414
G1 X147.287 Y28.973 E0.02414
G1 X147.557 Y29.694 E0.02414
G1 X147.721 Y109.612 E2.50580
G1 X147.463 Y180.187 E2.21282
G1 X147.317 Y180.977 E0.02520
G1 X146.913 Y181.676 E0.02532
G1 X146.298 Y182.199 E0.02532
G1 X145.547 Y182.486 E0.02520
G1 X134.082 Y182.531 E0.35947
G1 X103.843 Y181.911 E0.94834
G1 X103.081 Y181.739 E0.02449
G1 X102.416 Y181.329 E0.02449
G1 X101.922 Y180.729 E0.02437
G1 X101.647 Y179.998 E0.02449
G1 X101.347 Y111.618 E2.14401
G1 X101.472 Y29.332 E2.58003
G1 X101.652 Y28.634 E0.02261
G1 F8640.000
G1 X102.099 Y27.920 E-0.19438
G1 X102.720 Y27.441 E-0.18123
G1 X103.461 Y27.191 E-0.18036
G1 X104.344 Y27.189 E-0.20404
G1 E-0.04000 F2100.00000
G1 Z0.800 F10800.000
G1 X104.631 Y30.325
G1 Z0.200
G1 E0.80000 F2100.00000
G1 F1200.000
G1 X114.024 Y30.325 E0.29452
G1 X114.040 Y40.215 E0.31010
G1 X114.020 Y64.259 E0.75389
G1 X114.036 Y87.749 E0.73649
G1 X113.994 Y124.099 E1.13975
G1 X114.021 Y136.182 E0.37884
G1 X114.142 Y167.159 E0.97128
G1 X114.161 Y178.751 E0.36344
G1 X104.765 Y178.751 E0.29458
G1 X104.741 Y162.683 E0.50379
G1 X104.552 Y125.701 E1.15955
G1 X104.508 Y108.994 E0.52384
G1 X104.536 Y87.114 E0.68605
G1 X104.664 Y47.419 E1.24461
G1 X104.661 Y37.675 E0.30552
G1 X104.631 Y30.385 E0.22857
G1 X104.253 Y29.948 F10800.000
G1 F1200.000
G1 X114.401 Y29.948 E0.31819
G1 X114.417 Y40.215 E0.32192
G1 X114.398 Y64.259 E0.75390
G1 X114.413 Y87.749 E0.73650
G1 X114.371 Y124.099 E1.13974
G1 X114.398 Y136.181 E0.37881
G1 X114.520 Y167.158 E0.97128
G1 X114.538 Y179.128 E0.37530
G1 X104.389 Y179.128 E0.31823
G1 X104.364 Y162.684 E0.51557
G1 X104.175 Y125.703 E1.15954
G1 X104.131 Y108.994 E0.52388
G1 X104.158 Y87.113 E0.68609
G1 X104.287 Y47.418 E1.24460
G1 X104.284 Y37.675 E0.30548
G1 X104.253 Y30.008 E0.24042
G1 X104.599 Y30.147 F10800.000
G1 F8640.000
G1 X107.544 Y29.988 E-0.76000
G1 E-0.04000 F2100.00000
G1 Z0.800 F10800.000
G1 X105.643 Y178.638
G1 Z0.200
G1 E0.80000 F2100.00000
G1 F1200.000
G1 X105.047 Y178.041 E0.02652
G1 X105.046 Y177.506 E0.01686
G1 X106.008 Y178.468 E0.04281
G1 X106.544 Y178.468 E0.01683
G1 X105.045 Y176.970 E0.06665
G1 X105.045 Y176.434 E0.01686
G1 X107.079 Y178.468 E0.09049
G1 X107.614 Y178.468 E0.01683
G1 X105.044 Y175.898 E0.11433
G1 X105.043 Y175.362 E0.01686
G1 X108.149 Y178.468 E0.13817
G1 X108.684 Y178.468 E0.01683
G1 X105.042 Y174.826 E0.16201
G1 X105.041 Y174.290 E0.01686
G1 X109.219 Y178.468 E0.18586
G1 X109.754 Y178.468 E0.01683
G1 X105.041 Y173.755 E0.20970
G1 X105.040 Y173.219 E0.01686
G1 X110.289 Y178.468 E0.23354
G1 X110.824 Y178.468 E0.01683
G1 X105.039 Y172.683 E0.25738
G1 X105.038 Y172.147 E0.01686
G1 X111.359 Y178.468 E0.28122
M73 Q1 S90
G1 X111.894 Y178.468 E0.01683
G1 X105.037 Y171.611 E0.30506
M73 P1 R89
G1 X105.037 Y171.075 E0.01686
G1 X112.429 Y178.468 E0.32890
G1 X112.964 Y178.468 E0.01683
G1 X105.036 Y170.539 E0.35274
G1 X105.035 Y170.004 E0.01686
G1 X113.499 Y178.468 E0.37658
G1 X113.877 Y178.468 E0.01189
G1 X113.877 Y178.310 E0.00495
G1 X105.034 Y169.468 E0.39342
G1 X105.033 Y168.932 E0.01686
G1 X113.876 Y177.775 E0.39342
G1 X113.875 Y177.239 E0.01686
G1 X105.033 Y168.396 E0.39342
G1 X105.032 Y167.860 E0.01686
G1 X113.875 Y176.703 E0.39342
G1 X113.874 Y176.167 E0.01686
G1 X105.031 Y167.324 E0.39342
G1 X105.030 Y166.788 E0.01686
G1 X113.873 Y175.631 E0.39342
G1 X113.872 Y175.095 E0.01686
G1 X105.029 Y166.252 E0.39341
G1 X105.029 Y165.717 E0.01686
G1 X113.871 Y174.559 E0.39341
G1 X113.870 Y174.023 E0.01686
G1 X105.028 Y165.181 E0.39341
G1 X105.027 Y164.645 E0.01686
G1 X113.870 Y173.487 E0.39341
G1 X113.869 Y172.952 E0.01686
G1 X105.026 Y164.109 E0.39341
G1 X105.025 Y163.573 E0.01686
G1 X113.868 Y172.416 E0.39341
G1 X113.867 Y171.880 E0.01686
G1 X105.025 Y163.037 E0.39340
G1 X105.023 Y162.501 E0.01688
G1 X113.866 Y171.344 E0.39343
G1 X113.865 Y170.808 E0.01686
G1 X105.020 Y161.963 E0.39352
G1 X105.018 Y161.425 E0.01692
G1 X113.865 Y170.272 E0.39360
G1 X113.864 Y169.736 E0.01686
G1 X105.015 Y160.887 E0.39369
G1 X105.012 Y160.350 E0.01692
G1 X113.863 Y169.200 E0.39377
G1 X113.862 Y168.664 E0.01686
G1 X105.009 Y159.812 E0.39386
G1 X105.007 Y159.274 E0.01692
G1 X113.861 Y168.128 E0.39394
G1 X113.860 Y167.593 E0.01686
G1 X105.004 Y158.736 E0.39403
G1 X105.001 Y158.198 E0.01692
G1 X113.859 Y167.056 E0.39410
G1 X113.857 Y166.519 E0.01690
G1 X104.998 Y157.660 E0.39413
G1 X104.996 Y157.123 E0.01692
G1 X113.855 Y165.982 E0.39416
G1 X113.853 Y165.445 E0.01690
G1 X104.993 Y156.585 E0.39419
G1 X104.990 Y156.047 E0.01692
G1 X113.851 Y164.908 E0.39422
G1 X113.849 Y164.371 E0.01690
G1 X104.987 Y155.509 E0.39424
G1 X104.985 Y154.971 E0.01692
G1 X113.847 Y163.833 E0.39427
G1 X113.845 Y163.296 E0.01690
G1 X104.982 Y154.434 E0.39430
G1 X104.979 Y153.896 E0.01692
G1 X113.842 Y162.759 E0.39433
G1 X113.840 Y162.222 E0.01690
G1 X104.976 Y153.358 E0.39436
G1 X104.974 Y152.820 E0.01692
G1 X113.838 Y161.685 E0.39439
G1 X113.836 Y161.148 E0.01690
G1 X104.971 Y152.282 E0.39442
G1 X104.968 Y151.745 E0.01692
G1 X113.834 Y160.610 E0.39445
G1 X113.832 Y160.073 E0.01690
G1 X104.965 Y151.207 E0.39447
G1 X104.963 Y150.669 E0.01692
G1 X113.830 Y159.536 E0.39450
G1 X113.828 Y158.999 E0.01690
G1 X104.960 Y150.131 E0.39453
G1 X104.957 Y149.593 E0.01692
G1 X113.826 Y158.462 E0.39456
G1 X113.823 Y157.925 E0.01690
G1 X104.954 Y149.056 E0.39459
G1 X104.952 Y148.518 E0.01692
G1 X113.821 Y157.387 E0.39462
G1 X113.819 Y156.850 E0.01690
G1 X104.949 Y147.980 E0.39465
G1 X104.946 Y147.442 E0.01692
G1 X113.817 Y156.313 E0.39467
G1 X113.815 Y155.776 E0.01690
G1 X104.943 Y146.904 E0.39470
G1 X104.941 Y146.366 E0.01692
G1 X113.813 Y155.239 E0.39473
G1 X113.811 Y154.702 E0.01690
G1 X104.938 Y145.829 E0.39476
G1 X104.935 Y145.291 E0.01692
G1 X113.809 Y154.164 E0.39479
G1 X113.807 Y153.627 E0.01690
G1 X104.932 Y144.753 E0.39482
G1 X104.930 Y144.215 E0.01692
G1 X113.805 Y153.090 E0.39485
G1 X113.802 Y152.553 E0.01690
G1 X104.927 Y143.677 E0.39487
G1 X104.924 Y143.140 E0.01692
G1 X113.800 Y152.016 E0.39490
G1 X113.798 Y151.479 E0.01690
G1 X104.921 Y142.602 E0.39493
G1 X104.919 Y142.064 E0.01692
G1 X113.796 Y150.941 E0.39496
G1 X113.794 Y150.404 E0.01690
G1 X104.916 Y141.526 E0.39499
G1 X104.913 Y140.988 E0.01692
G1 X113.792 Y149.867 E0.39502
G1 X113.790 Y149.330 E0.01690
G1 X104.910 Y140.451 E0.39505
G1 X104.908 Y139.913 E0.01692
G1 X113.788 Y148.793 E0.39508
G1 X113.786 Y148.256 E0.01690
G1 X104.905 Y139.375 E0.39510
G1 X104.902 Y138.837 E0.01692
G1 X113.784 Y147.718 E0.39513
G1 X113.781 Y147.181 E0.01690
G1 X104.899 Y138.299 E0.39516
G1 X104.897 Y137.762 E0.01692
G1 X113.779 Y146.644 E0.39519
G1 X113.777 Y146.107 E0.01690
G1 X104.894 Y137.224 E0.39522
G1 X104.891 Y136.686 E0.01692
G1 X113.775 Y145.570 E0.39525
G1 X113.773 Y145.033 E0.01690
G1 X104.889 Y136.148 E0.39528
G1 X104.886 Y135.610 E0.01692
G1 X113.771 Y144.495 E0.39530
G1 X113.769 Y143.958 E0.01690
G1 X104.883 Y135.072 E0.39533
G1 X104.880 Y134.535 E0.01692
G1 X113.767 Y143.421 E0.39536
G1 X113.765 Y142.884 E0.01690
G1 X104.878 Y133.997 E0.39539
G1 X104.875 Y133.459 E0.01692
G1 X113.762 Y142.347 E0.39542
G1 X113.760 Y141.810 E0.01690
G1 X104.872 Y132.921 E0.39545
G1 X104.869 Y132.383 E0.01692
G1 X113.758 Y141.272 E0.39548
G1 X113.756 Y140.735 E0.01690
G1 X104.867 Y131.846 E0.39550
G1 X104.864 Y131.308 E0.01692
G1 X113.754 Y140.198 E0.39553
G1 X113.752 Y139.661 E0.01690
G1 X104.861 Y130.770 E0.39556
G1 X104.858 Y130.232 E0.01692
G1 X113.750 Y139.124 E0.39559
G1 X113.748 Y138.587 E0.01690
G1 X104.856 Y129.694 E0.39562
G1 X104.853 Y129.157 E0.01692
G1 X113.746 Y138.049 E0.39565
G1 X113.744 Y137.512 E0.01690
G1 X104.850 Y128.619 E0.39568
G1 X104.847 Y128.081 E0.01692
G1 X113.741 Y136.975 E0.39571
G1 X113.739 Y136.438 E0.01690
G1 X104.845 Y127.543 E0.39573
G1 X104.842 Y127.005 E0.01692
G1 X113.738 Y135.901 E0.39578
G1 X113.736 Y135.365 E0.01687
G1 X104.839 Y126.467 E0.39585
G1 X104.836 Y125.930 E0.01692
G1 X113.735 Y134.829 E0.39592
G1 X113.734 Y134.292 E0.01687
G1 X104.834 Y125.393 E0.39595
G1 X104.833 Y124.856 E0.01688
G1 X113.733 Y133.756 E0.39596
G1 X113.732 Y133.220 E0.01687
G1 X104.831 Y124.320 E0.39597
G1 X104.830 Y123.783 E0.01688
G1 X113.730 Y132.684 E0.39598
G1 X113.729 Y132.147 E0.01687
G1 X104.829 Y123.247 E0.39599
M73 Q2 S89
G1 X104.827 Y122.710 E0.01688
G1 X113.728 Y131.611 E0.39600
M73 P2 R88
G1 X113.727 Y131.075 E0.01687
G1 X104.826 Y122.174 E0.39601
G1 X104.824 Y121.637 E0.01688
G1 X113.726 Y130.538 E0.39602
G1 X113.724 Y130.002 E0.01687
G1 X104.823 Y121.101 E0.39602
G1 X104.822 Y120.564 E0.01688
G1 X113.723 Y129.466 E0.39603
G1 X113.722 Y128.930 E0.01687
G1 X104.820 Y120.028 E0.39604
G1 X104.819 Y119.491 E0.01688
G1 X113.721 Y128.393 E0.39605
G1 X113.719 Y127.857 E0.01687
G1 X104.817 Y118.955 E0.39606
G1 X104.816 Y118.419 E0.01688
G1 X113.718 Y127.321 E0.39607
G1 X113.717 Y126.785 E0.01687
G1 X104.815 Y117.882 E0.39608
G1 X104.813 Y117.346 E0.01688
G1 X113.716 Y126.248 E0.39609
G1 X113.715 Y125.712 E0.01687
G1 X104.812 Y116.809 E0.39609
G1 X104.810 Y116.273 E0.01688
G1 X113.713 Y125.176 E0.39610
G1 X113.712 Y124.639 E0.01687
G1 X104.809 Y115.736 E0.39611
G1 X104.808 Y115.200 E0.01688
G1 X113.711 Y124.103 E0.39612
G1 X113.712 Y123.569 E0.01681
G1 X104.806 Y114.663 E0.39621
G1 X104.805 Y114.127 E0.01688
G1 X113.712 Y123.034 E0.39630
G1 X113.713 Y122.500 E0.01681
G1 X104.803 Y113.590 E0.39639
G1 X104.802 Y113.054 E0.01688
G1 X113.713 Y121.965 E0.39648
G1 X113.714 Y121.431 E0.01681
G1 X104.800 Y112.517 E0.39657
G1 X104.799 Y111.981 E0.01688
G1 X113.715 Y120.896 E0.39666
G1 X113.715 Y120.362 E0.01681
G1 X104.798 Y111.444 E0.39675
G1 X104.796 Y110.908 E0.01688
G1 X113.716 Y119.828 E0.39684
G1 X113.716 Y119.293 E0.01681
G1 X104.795 Y110.371 E0.39693
G1 X104.793 Y109.835 E0.01688
G1 X113.717 Y118.759 E0.39702
G1 X113.718 Y118.224 E0.01681
G1 X104.792 Y109.298 E0.39711
G1 X104.792 Y108.763 E0.01685
G1 X113.718 Y117.690 E0.39716
G1 X113.719 Y117.155 E0.01681
G1 X104.792 Y108.229 E0.39716
G1 X104.793 Y107.694 E0.01681
G1 X113.720 Y116.621 E0.39716
G1 X113.720 Y116.086 E0.01681
G1 X104.793 Y107.160 E0.39715
G1 X104.794 Y106.625 E0.01681
G1 X113.721 Y115.552 E0.39715
G1 X113.721 Y115.018 E0.01681
G1 X104.795 Y106.091 E0.39715
G1 X104.795 Y105.557 E0.01681
G1 X113.722 Y114.483 E0.39715
G1 X113.723 Y113.949 E0.01681
G1 X104.796 Y105.022 E0.39714
G1 X104.797 Y104.488 E0.01681
G1 X113.723 Y113.414 E0.39714
G1 X113.724 Y112.880 E0.01681
G1 X104.797 Y103.953 E0.39714
G1 X104.798 Y103.419 E0.01681
G1 X113.724 Y112.345 E0.39714
G1 X113.725 Y111.811 E0.01681
G1 X104.799 Y102.885 E0.39714
G1 X104.799 Y102.350 E0.01681
G1 X113.726 Y111.276 E0.39713
G1 X113.726 Y110.742 E0.01681
G1 X104.800 Y101.816 E0.39713
G1 X104.801 Y101.281 E0.01681
G1 X113.727 Y110.207 E0.39713
G1 X113.728 Y109.673 E0.01681
G1 X104.801 Y100.747 E0.39713
G1 X104.802 Y100.213 E0.01681
G1 X113.728 Y109.139 E0.39713
G1 X113.729 Y108.604 E0.01681
G1 X104.803 Y99.678 E0.39712
G1 X104.803 Y99.144 E0.01681
G1 X113.729 Y108.070 E0.39712
G1 X113.730 Y107.535 E0.01681
G1 X104.804 Y98.609 E0.39712
G1 X104.805 Y98.075 E0.01681
G1 X113.731 Y107.001 E0.39712
G1 X113.731 Y106.466 E0.01681
G1 X104.805 Y97.541 E0.39711
G1 X104.806 Y97.006 E0.01681
G1 X113.732 Y105.932 E0.39711
G1 X113.732 Y105.397 E0.01681
G1 X104.807 Y96.472 E0.39711
G1 X104.807 Y95.937 E0.01681
G1 X113.733 Y104.863 E0.39711
G1 X113.734 Y104.329 E0.01681
G1 X104.808 Y95.403 E0.39711
G1 X104.809 Y94.869 E0.01681
G1 X113.734 Y103.794 E0.39710
G1 X113.735 Y103.260 E0.01681
G1 X104.809 Y94.334 E0.39710
G1 X104.810 Y93.800 E0.01681
G1 X113.736 Y102.725 E0.39710
G1 X113.736 Y102.191 E0.01681
G1 X104.811 Y93.265 E0.39710
G1 X104.811 Y92.731 E0.01681
G1 X113.737 Y101.656 E0.39710
G1 X113.737 Y101.122 E0.01681
G1 X104.812 Y92.197 E0.39709
G1 X104.813 Y91.662 E0.01681
G1 X113.738 Y100.587 E0.39709
G1 X113.739 Y100.053 E0.01681
G1 X104.813 Y91.128 E0.39709
G1 X104.814 Y90.593 E0.01681
G1 X113.739 Y99.518 E0.39709
G1 X113.740 Y98.984 E0.01681
G1 X104.815 Y90.059 E0.39708
G1 X104.815 Y89.525 E0.01681
G1 X113.740 Y98.450 E0.39708
G1 X113.741 Y97.915 E0.01681
G1 X104.816 Y88.990 E0.39708
G1 X104.817 Y88.456 E0.01681
G1 X113.742 Y97.381 E0.39708
G1 X113.742 Y96.846 E0.01681
G1 X104.817 Y87.921 E0.39708
G1 X104.818 Y87.387 E0.01681
G1 X113.743 Y96.312 E0.39707
G1 X113.743 Y95.777 E0.01681
G1 X104.819 Y86.853 E0.39705
G1 X104.821 Y86.320 E0.01678
G1 X113.744 Y95.243 E0.39700
G1 X113.745 Y94.708 E0.01681
G1 X104.823 Y85.786 E0.39695
G1 X104.824 Y85.253 E0.01678
G1 X113.745 Y94.174 E0.39690
G1 X113.746 Y93.640 E0.01681
G1 X104.826 Y84.720 E0.39685
G1 X104.828 Y84.186 E0.01678
G1 X113.747 Y93.105 E0.39680
G1 X113.747 Y92.571 E0.01681
G1 X104.830 Y83.653 E0.39675
G1 X104.831 Y83.120 E0.01678
G1 X113.748 Y92.036 E0.39670
G1 X113.748 Y91.502 E0.01681
G1 X104.833 Y82.586 E0.39665
G1 X104.835 Y82.053 E0.01678
G1 X113.749 Y90.967 E0.39660
G1 X113.750 Y90.433 E0.01681
G1 X104.836 Y81.520 E0.39655
G1 X104.838 Y80.986 E0.01678
G1 X113.750 Y89.898 E0.39651
G1 X113.751 Y89.364 E0.01681
G1 X104.840 Y80.453 E0.39646
G1 X104.842 Y79.920 E0.01678
G1 X113.751 Y88.830 E0.39641
G1 X113.752 Y88.295 E0.01681
G1 X104.843 Y79.386 E0.39636
G1 X104.845 Y78.853 E0.01678
G1 X113.753 Y87.761 E0.39631
G1 X113.752 Y87.225 E0.01684
G1 X104.847 Y78.320 E0.39622
G1 X104.848 Y77.786 E0.01678
G1 X113.752 Y86.690 E0.39613
G1 X113.752 Y86.154 E0.01684
G1 X104.850 Y77.253 E0.39603
G1 X104.852 Y76.720 E0.01678
G1 X113.751 Y85.619 E0.39594
G1 X113.751 Y85.084 E0.01684
G1 X104.854 Y76.186 E0.39585
G1 X104.855 Y75.653 E0.01678
G1 X113.751 Y84.548 E0.39576
G1 X113.750 Y84.013 E0.01684
G1 X104.857 Y75.120 E0.39567
M73 Q3 S88
G1 X104.859 Y74.586 E0.01678
G1 X113.750 Y83.477 E0.39557
M73 P3 R87
G1 X113.750 Y82.942 E0.01684
G1 X104.861 Y74.053 E0.39548
G1 X104.862 Y73.520 E0.01678
G1 X113.749 Y82.407 E0.39539
G1 X113.749 Y81.871 E0.01684
G1 X104.864 Y72.986 E0.39530
G1 X104.866 Y72.453 E0.01678
G1 X113.749 Y81.336 E0.39521
G1 X113.748 Y80.800 E0.01684
G1 X104.867 Y71.920 E0.39511
G1 X104.869 Y71.386 E0.01678
G1 X113.748 Y80.265 E0.39502
G1 X113.748 Y79.730 E0.01684
G1 X104.871 Y70.853 E0.39493
G1 X104.873 Y70.320 E0.01678
G1 X113.747 Y79.194 E0.39484
G1 X113.747 Y78.659 E0.01684
G1 X104.874 Y69.786 E0.39475
G1 X104.876 Y69.253 E0.01678
G1 X113.747 Y78.123 E0.39465
G1 X113.746 Y77.588 E0.01684
G1 X104.878 Y68.720 E0.39456
G1 X104.879 Y68.186 E0.01678
