; generated by PrusaSlicer 2.2.0+linux-x64 on 2020-07-06 at 18:30:01 UTC

; 

; external perimeters extrusion width = 0.45mm
; perimeters extrusion width = 0.45mm
; infill extrusion width = 0.45mm
; solid infill extrusion width = 0.45mm
; top infill extrusion width = 0.40mm
; first layer extrusion width = 0.42mm

M73 P0 R104
M73 Q0 S105
M201 X1000 Y1000 Z200 E5000 ; sets maximum accelerations, mm/sec^2
M203 X200 Y200 Z12 E120 ; sets maximum feedrates, mm/sec
M204 P1250 R1250 T1250 ; sets acceleration (P, T) and retract acceleration (R), mm/sec^2
M205 X8.00 Y8.00 Z0.40 E4.50 ; sets the jerk limits, mm/sec
M205 S0 T0 ; sets the minimum extruding and travel feed rate, mm/sec
M107
M862.3 P "MK3" ; printer model check
M862.1 P0.4 ; nozzle diameter check
M115 U3.9.0 ; tell printer latest fw version
G90 ; use absolute coordinates
M83 ; extruder relative mode
M104 S225 ; set extruder temp
M140 S60 ; set bed temp
M190 S60 ; wait for bed temp
M109 S225 ; wait for extruder temp
G28 W ; home all without mesh bed level
G80 ; mesh bed leveling
G1 Y-3.0 F1000.0 ; go outside print area
G92 E0.0
G1 X60.0 E9.0 F1000.0 ; intro line
M73 Q0 S105
M73 P0 R104
G1 X100.0 E12.5 F1000.0 ; intro line
G92 E0.0
M221 S95
G21 ; set units to millimeters
G90 ; use absolute coordinates
M83 ; use relative distances for extrusion
M900 K0.06 ; Filament gcode LA 1.5
M900 K30 ; Filament gcode LA 1.0
;BEFORE_LAYER_CHANGE
G92 E0.0
;0.2


G1 E-0.80000 F2100.00000
G1 Z0.600 F10800.000
;AFTER_LAYER_CHANGE
;0.2
G1 X102.121 Y15.588
G1 Z0.200
G1 E0.80000 F2100.00000
M204 S1000
G1 F1200.000
G1 X102.777 Y15.221 E0.02355
G1 X103.513 Y15.076 E0.02355
G1 X151.929 Y15.075 E1.51803
G1 X152.831 Y15.254 E0.02884
G1 X153.595 Y15.760 E0.02872
G1 X154.110 Y16.517 E0.02872
G1 X154.302 Y17.416 E0.02884
G1 X154.669 Y192.447 E5.48797
G1 X154.583 Y193.083 E0.02012
G1 X154.270 Y193.769 E0.02367
G1 X153.760 Y194.321 E0.02355
G1 X153.104 Y194.686 E0.02355
G1 X152.366 Y194.828 E0.02355
G1 X103.227 Y194.829 E1.54074
G1 X102.602 Y194.744 E0.01977
G1 X101.905 Y194.425 E0.02402
G1 X101.347 Y193.902 E0.02402
G1 X100.983 Y193.227 E0.02402
G1 X100.853 Y192.468 E0.02414
G1 X101.220 Y17.447 E5.48768
G1 X101.305 Y16.822 E0.01977
G1 X101.614 Y16.142 E0.02343
G1 X102.081 Y15.633 E0.02167
G1 F8640.000
G1 X102.777 Y15.221 E-0.18663
G1 X103.513 Y15.076 E-0.17341
G1 X105.246 Y15.076 E-0.39996
G1 E-0.04000 F2100.00000
G1 Z0.800 F10800.000
G1 X141.691 Y18.239
G1 Z0.200
G1 E0.80000 F2100.00000
G1 F1200.000
G1 X151.126 Y18.239 E0.29583
G1 X150.979 Y28.232 E0.31338
G1 X150.873 Y39.186 E0.34346
G1 X150.822 Y49.460 E0.32213
G1 X150.820 Y66.041 E0.51989
G1 X150.961 Y104.503 E1.20598
G1 X151.063 Y148.445 E1.37777
G1 X151.117 Y158.991 E0.33068
G1 X151.218 Y171.043 E0.37787
G1 X151.342 Y181.511 E0.32826
G1 X151.493 Y191.665 E0.31838
G1 X142.122 Y191.665 E0.29383
G1 X141.903 Y182.222 E0.29615
G1 X141.714 Y171.955 E0.32195
G1 X141.575 Y159.561 E0.38863
G1 X141.515 Y147.130 E0.38977
G1 X141.507 Y134.686 E0.39018
G1 X141.545 Y110.004 E0.77390
G1 X141.543 Y97.797 E0.38274
G1 X141.457 Y61.667 E1.13283
G1 X141.450 Y49.853 E0.37043
G1 X141.486 Y38.088 E0.36888
G1 X141.525 Y32.220 E0.18398
G1 X141.581 Y26.359 E0.18378
G1 X141.690 Y18.299 E0.25275
G1 X141.319 Y17.862 F10800.000
G1 F1200.000
G1 X151.509 Y17.862 E0.31949
G1 X151.357 Y28.237 E0.32534
G1 X151.250 Y39.189 E0.34340
G1 X151.199 Y49.461 E0.32207
G1 X151.197 Y66.040 E0.51983
G1 X151.338 Y104.502 E1.20596
G1 X151.440 Y148.444 E1.37776
G1 X151.494 Y158.989 E0.33064
G1 X151.595 Y171.039 E0.37783
G1 X151.719 Y181.506 E0.32822
G1 X151.875 Y192.042 E0.33037
G1 X141.753 Y192.042 E0.31738
G1 X141.526 Y182.230 E0.30773
G1 X141.337 Y171.961 E0.32202
G1 X141.198 Y159.564 E0.38871
G1 X141.138 Y147.131 E0.38983
G1 X141.130 Y134.686 E0.39022
G1 X141.168 Y110.003 E0.77390
G1 X141.166 Y97.797 E0.38271
G1 X141.080 Y61.668 E1.13283
M73 Q1 S104
M73 P1 R103
G1 X141.073 Y49.852 E0.37046
G1 X141.109 Y38.086 E0.36893
G1 X141.148 Y32.217 E0.18402
G1 X141.204 Y26.355 E0.18382
G1 X141.318 Y17.922 E0.26443
G1 X141.665 Y18.063 F10800.000
G1 F8640.000
G1 X144.610 Y17.902 E-0.76000
G1 E-0.04000 F2100.00000
G1 Z0.800 F10800.000
G1 X142.214 Y190.770
G1 Z0.200
G1 E0.80000 F2100.00000
G1 F1200.000
G1 X142.826 Y191.382 E0.02717
G1 X143.360 Y191.382 E0.01676
G1 X142.375 Y190.397 E0.04372
G1 X142.362 Y189.850 E0.01716
G1 X143.894 Y191.382 E0.06798
G1 X144.428 Y191.382 E0.01676
G1 X142.350 Y189.304 E0.09224
G1 X142.337 Y188.757 E0.01716
G1 X144.961 Y191.382 E0.11651
G1 X145.495 Y191.382 E0.01676
G1 X142.324 Y188.211 E0.14077
G1 X142.312 Y187.664 E0.01716
G1 X146.029 Y191.382 E0.16503
G1 X146.563 Y191.382 E0.01676
G1 X142.299 Y187.118 E0.18929
G1 X142.286 Y186.571 E0.01716
G1 X147.097 Y191.382 E0.21355
G1 X147.631 Y191.382 E0.01676
G1 X142.274 Y186.025 E0.23782
G1 X142.261 Y185.478 E0.01716
G1 X148.165 Y191.382 E0.26208
G1 X148.699 Y191.382 E0.01676
G1 X142.248 Y184.932 E0.28634
G1 X142.236 Y184.385 E0.01716
G1 X149.233 Y191.382 E0.31060
G1 X149.766 Y191.382 E0.01676
G1 X142.223 Y183.838 E0.33487
G1 X142.210 Y183.292 E0.01716
G1 X150.300 Y191.382 E0.35913
G1 X150.834 Y191.382 E0.01676
G1 X142.198 Y182.745 E0.38339
G1 X142.185 Y182.199 E0.01716
G1 X151.203 Y191.217 E0.40033
G1 X151.195 Y190.675 E0.01701
G1 X142.175 Y181.655 E0.40042
G1 X142.165 Y181.111 E0.01708
G1 X151.187 Y190.133 E0.40050
G1 X151.179 Y189.591 E0.01701
G1 X142.155 Y180.567 E0.40059
G1 X142.145 Y180.023 E0.01708
G1 X151.171 Y189.049 E0.40068
G1 X151.163 Y188.507 E0.01701
G1 X142.135 Y179.479 E0.40076
G1 X142.125 Y178.936 E0.01708
G1 X151.155 Y187.965 E0.40085
G1 X151.147 Y187.423 E0.01701
G1 X142.115 Y178.392 E0.40094
G1 X142.105 Y177.848 E0.01708
G1 X151.139 Y186.881 E0.40102
G1 X151.131 Y186.339 E0.01701
G1 X142.095 Y177.304 E0.40111
G1 X142.085 Y176.760 E0.01708
G1 X151.123 Y185.797 E0.40119
G1 X151.115 Y185.256 E0.01701
G1 X142.075 Y176.216 E0.40128
G1 X142.065 Y175.672 E0.01708
G1 X151.107 Y184.714 E0.40137
G1 X151.098 Y184.172 E0.01701
G1 X142.055 Y175.128 E0.40145
G1 X142.045 Y174.584 E0.01708
G1 X151.090 Y183.630 E0.40154
G1 X151.082 Y183.088 E0.01701
G1 X142.035 Y174.041 E0.40163
G1 X142.025 Y173.497 E0.01708
G1 X151.074 Y182.546 E0.40171
G1 X151.066 Y182.004 E0.01701
G1 X142.015 Y172.953 E0.40180
G1 X142.005 Y172.409 E0.01708
G1 X151.058 Y181.462 E0.40189
G1 X151.052 Y180.922 E0.01696
G1 X141.996 Y171.866 E0.40203
G1 X141.990 Y171.326 E0.01695
G1 X151.046 Y180.382 E0.40201
G1 X151.039 Y179.841 E0.01696
G1 X141.984 Y170.786 E0.40199
G1 X141.978 Y170.246 E0.01695
G1 X151.033 Y179.301 E0.40198
G1 X151.026 Y178.761 E0.01696
G1 X141.972 Y169.706 E0.40196
G1 X141.966 Y169.166 E0.01695
G1 X151.020 Y178.220 E0.40195
G1 X151.014 Y177.680 E0.01696
G1 X141.960 Y168.626 E0.40193
G1 X141.953 Y168.086 E0.01695
G1 X151.007 Y177.140 E0.40192
G1 X151.001 Y176.600 E0.01696
G1 X141.947 Y167.546 E0.40190
G1 X141.941 Y167.006 E0.01695
G1 X150.994 Y176.059 E0.40188
G1 X150.988 Y175.519 E0.01696
G1 X141.935 Y166.466 E0.40187
G1 X141.929 Y165.927 E0.01695
G1 X150.982 Y174.979 E0.40185
G1 X150.975 Y174.438 E0.01696
G1 X141.923 Y165.387 E0.40184
G1 X141.917 Y164.847 E0.01695
G1 X150.969 Y173.898 E0.40182
G1 X150.962 Y173.358 E0.01696
G1 X141.911 Y164.307 E0.40180
G1 X141.905 Y163.767 E0.01695
G1 X150.956 Y172.818 E0.40179
G1 X150.950 Y172.277 E0.01696
G1 X141.899 Y163.227 E0.40177
G1 X141.893 Y162.687 E0.01695
G1 X150.943 Y171.737 E0.40176
G1 X150.937 Y171.197 E0.01696
G1 X141.887 Y162.147 E0.40174
G1 X141.881 Y161.607 E0.01695
G1 X150.932 Y170.658 E0.40179
G1 X150.927 Y170.120 E0.01690
G1 X141.875 Y161.067 E0.40185
G1 X141.869 Y160.527 E0.01695
G1 X150.923 Y169.581 E0.40192
G1 X150.918 Y169.043 E0.01690
G1 X141.863 Y159.987 E0.40199
G1 X141.858 Y159.448 E0.01693
G1 X150.914 Y168.504 E0.40203
G1 X150.909 Y167.966 E0.01690
G1 X141.855 Y158.912 E0.40194
G1 X141.852 Y158.375 E0.01684
G1 X150.905 Y167.428 E0.40186
G1 X150.900 Y166.889 E0.01690
G1 X141.850 Y157.839 E0.40178
G1 X141.847 Y157.302 E0.01684
G1 X150.896 Y166.351 E0.40169
G1 X150.891 Y165.812 E0.01690
G1 X141.844 Y156.766 E0.40161
G1 X141.842 Y156.229 E0.01684
G1 X150.887 Y165.274 E0.40153
G1 X150.882 Y164.736 E0.01690
G1 X141.839 Y155.693 E0.40144
G1 X141.837 Y155.156 E0.01684
G1 X150.878 Y164.197 E0.40136
G1 X150.873 Y163.659 E0.01690
G1 X141.834 Y154.620 E0.40127
G1 X141.831 Y154.083 E0.01684
G1 X150.869 Y163.121 E0.40119
G1 X150.864 Y162.582 E0.01690
G1 X141.829 Y153.547 E0.40111
G1 X141.826 Y153.010 E0.01684
G1 X150.860 Y162.044 E0.40102
G1 X150.855 Y161.505 E0.01690
G1 X141.824 Y152.474 E0.40094
G1 X141.821 Y151.937 E0.01684
G1 X150.851 Y160.967 E0.40086
G1 X150.846 Y160.429 E0.01690
G1 X141.818 Y151.401 E0.40077
G1 X141.816 Y150.864 E0.01684
G1 X150.842 Y159.890 E0.40069
G1 X150.837 Y159.352 E0.01690
G1 X141.813 Y150.328 E0.40060
G1 X141.810 Y149.791 E0.01684
G1 X150.833 Y158.814 E0.40055
G1 X150.831 Y158.277 E0.01685
G1 X141.808 Y149.255 E0.40054
G1 X141.805 Y148.718 E0.01684
G1 X150.828 Y157.741 E0.40053
G1 X150.825 Y157.204 E0.01685
G1 X141.803 Y148.182 E0.40053
G1 X141.800 Y147.645 E0.01684
G1 X150.822 Y156.667 E0.40052
G1 X150.820 Y156.131 E0.01685
G1 X141.798 Y147.109 E0.40051
G1 X141.797 Y146.575 E0.01677
G1 X150.817 Y155.594 E0.40040
G1 X150.814 Y155.058 E0.01685
G1 X141.797 Y146.040 E0.40029
G1 X141.797 Y145.506 E0.01677
G1 X150.811 Y154.521 E0.40018
G1 X150.808 Y153.984 E0.01685
G1 X141.796 Y144.972 E0.40008
G1 X141.796 Y144.438 E0.01677
G1 X150.806 Y153.448 E0.39997
G1 X150.803 Y152.911 E0.01685
G1 X141.796 Y143.904 E0.39986
G1 X141.795 Y143.369 E0.01677
G1 X150.800 Y152.374 E0.39975
G1 X150.797 Y151.838 E0.01685
G1 X141.795 Y142.835 E0.39964
M73 Q1 S103
G1 X141.795 Y142.301 E0.01677
G1 X150.795 Y151.301 E0.39953
M73 P2 R102
G1 X150.792 Y150.764 E0.01685
G1 X141.794 Y141.767 E0.39942
G1 X141.794 Y141.233 E0.01677
G1 X150.789 Y150.228 E0.39932
G1 X150.786 Y149.691 E0.01685
G1 X141.794 Y140.698 E0.39921
G1 X141.793 Y140.164 E0.01677
G1 X150.784 Y149.154 E0.39910
G1 X150.781 Y148.618 E0.01685
G1 X141.793 Y139.630 E0.39899
G1 X141.793 Y139.096 E0.01677
G1 X150.779 Y148.082 E0.39893
G1 X150.778 Y147.547 E0.01680
G1 X141.793 Y138.562 E0.39889
G1 X141.792 Y138.027 E0.01677
G1 X150.777 Y147.012 E0.39884
G1 X150.775 Y146.477 E0.01680
G1 X141.792 Y137.493 E0.39880
G1 X141.792 Y136.959 E0.01677
G1 X150.774 Y145.942 E0.39876
G1 X150.773 Y145.407 E0.01680
G1 X141.791 Y136.425 E0.39872
G1 X141.791 Y135.891 E0.01677
G1 X150.772 Y144.871 E0.39868
G1 X150.770 Y144.336 E0.01680
G1 X141.791 Y135.357 E0.39864
G1 X141.790 Y134.822 E0.01677
G1 X150.769 Y143.801 E0.39860
G1 X150.768 Y143.266 E0.01680
G1 X141.791 Y134.289 E0.39852
G1 X141.792 Y133.756 E0.01673
G1 X150.767 Y142.731 E0.39843
G1 X150.766 Y142.196 E0.01680
G1 X141.793 Y133.223 E0.39834
G1 X141.793 Y132.690 E0.01673
G1 X150.764 Y141.661 E0.39824
G1 X150.763 Y141.126 E0.01680
G1 X141.794 Y132.157 E0.39815
G1 X141.795 Y131.624 E0.01673
G1 X150.762 Y140.591 E0.39806
G1 X150.761 Y140.055 E0.01680
G1 X141.796 Y131.091 E0.39797
G1 X141.797 Y130.558 E0.01673
G1 X150.759 Y139.520 E0.39788
G1 X150.758 Y138.985 E0.01680
G1 X141.797 Y130.024 E0.39779
G1 X141.798 Y129.491 E0.01673
G1 X150.757 Y138.450 E0.39770
G1 X150.756 Y137.915 E0.01680
G1 X141.799 Y128.958 E0.39760
G1 X141.800 Y128.425 E0.01673
G1 X150.754 Y137.380 E0.39751
G1 X150.753 Y136.845 E0.01680
G1 X141.801 Y127.892 E0.39742
G1 X141.802 Y127.359 E0.01673
G1 X150.752 Y136.310 E0.39733
G1 X150.751 Y135.774 E0.01680
G1 X141.802 Y126.826 E0.39724
G1 X141.803 Y126.293 E0.01673
G1 X150.749 Y135.239 E0.39715
G1 X150.748 Y134.704 E0.01680
G1 X141.804 Y125.760 E0.39706
G1 X141.805 Y125.227 E0.01673
G1 X150.747 Y134.169 E0.39696
G1 X150.746 Y133.634 E0.01680
G1 X141.806 Y124.694 E0.39687
G1 X141.806 Y124.161 E0.01673
G1 X150.744 Y133.099 E0.39678
G1 X150.743 Y132.564 E0.01680
G1 X141.807 Y123.628 E0.39669
G1 X141.808 Y123.095 E0.01673
G1 X150.742 Y132.029 E0.39660
G1 X150.741 Y131.493 E0.01680
G1 X141.809 Y122.562 E0.39651
G1 X141.810 Y122.029 E0.01673
G1 X150.740 Y130.958 E0.39642
G1 X150.738 Y130.423 E0.01680
G1 X141.811 Y121.495 E0.39632
G1 X141.811 Y120.962 E0.01673
G1 X150.737 Y129.888 E0.39623
G1 X150.736 Y129.353 E0.01680
G1 X141.812 Y120.429 E0.39614
G1 X141.813 Y119.896 E0.01673
G1 X150.735 Y128.818 E0.39605
G1 X150.733 Y128.283 E0.01680
G1 X141.814 Y119.363 E0.39596
G1 X141.815 Y118.830 E0.01673
G1 X150.732 Y127.748 E0.39587
G1 X150.731 Y127.212 E0.01680
G1 X141.815 Y118.297 E0.39578
G1 X141.816 Y117.764 E0.01673
G1 X150.730 Y126.677 E0.39568
G1 X150.728 Y126.142 E0.01680
G1 X141.817 Y117.231 E0.39559
G1 X141.818 Y116.698 E0.01673
G1 X150.727 Y125.607 E0.39550
G1 X150.726 Y125.072 E0.01680
G1 X141.819 Y116.165 E0.39541
G1 X141.820 Y115.632 E0.01673
G1 X150.725 Y124.537 E0.39532
G1 X150.723 Y124.002 E0.01680
G1 X141.820 Y115.099 E0.39523
G1 X141.821 Y114.566 E0.01673
G1 X150.722 Y123.467 E0.39514
G1 X150.721 Y122.931 E0.01680
G1 X141.822 Y114.033 E0.39504
G1 X141.823 Y113.500 E0.01673
G1 X150.720 Y122.396 E0.39495
G1 X150.718 Y121.861 E0.01680
G1 X141.824 Y112.966 E0.39486
G1 X141.825 Y112.433 E0.01673
G1 X150.717 Y121.326 E0.39477
G1 X150.716 Y120.791 E0.01680
G1 X141.825 Y111.900 E0.39468
G1 X141.826 Y111.367 E0.01673
G1 X150.715 Y120.256 E0.39459
G1 X150.713 Y119.721 E0.01680
G1 X141.827 Y110.834 E0.39449
G1 X141.828 Y110.301 E0.01673
G1 X150.712 Y119.186 E0.39440
G1 X150.711 Y118.651 E0.01680
G1 X141.828 Y109.768 E0.39433
G1 X141.828 Y109.234 E0.01676
G1 X150.710 Y118.115 E0.39428
G1 X150.709 Y117.580 E0.01680
G1 X141.828 Y108.700 E0.39423
G1 X141.828 Y108.166 E0.01676
G1 X150.707 Y117.045 E0.39418
G1 X150.706 Y116.510 E0.01680
G1 X141.828 Y107.632 E0.39413
G1 X141.828 Y107.098 E0.01676
G1 X150.705 Y115.975 E0.39408
G1 X150.704 Y115.440 E0.01680
G1 X141.828 Y106.564 E0.39403
G1 X141.827 Y106.030 E0.01676
G1 X150.702 Y114.905 E0.39398
G1 X150.701 Y114.370 E0.01680
G1 X141.827 Y105.496 E0.39393
G1 X141.827 Y104.962 E0.01676
G1 X150.700 Y113.834 E0.39388
G1 X150.699 Y113.299 E0.01680
G1 X141.827 Y104.428 E0.39382
G1 X141.827 Y103.894 E0.01676
G1 X150.697 Y112.764 E0.39377
G1 X150.696 Y112.229 E0.01680
G1 X141.827 Y103.360 E0.39372
G1 X141.827 Y102.826 E0.01676
G1 X150.695 Y111.694 E0.39367
G1 X150.694 Y111.159 E0.01680
G1 X141.827 Y102.292 E0.39362
G1 X141.827 Y101.758 E0.01676
G1 X150.692 Y110.624 E0.39357
G1 X150.691 Y110.089 E0.01680
G1 X141.827 Y101.224 E0.39352
G1 X141.826 Y100.690 E0.01676
G1 X150.690 Y109.553 E0.39347
G1 X150.689 Y109.018 E0.01680
G1 X141.826 Y100.156 E0.39342
G1 X141.826 Y99.622 E0.01676
G1 X150.687 Y108.483 E0.39337
G1 X150.686 Y107.948 E0.01680
G1 X141.826 Y99.088 E0.39332
G1 X141.826 Y98.554 E0.01676
G1 X150.685 Y107.413 E0.39327
G1 X150.684 Y106.878 E0.01680
G1 X141.826 Y98.020 E0.39322
G1 X141.825 Y97.485 E0.01678
G1 X150.683 Y106.343 E0.39320
G1 X150.681 Y105.808 E0.01680
G1 X141.824 Y96.950 E0.39320
G1 X141.823 Y96.415 E0.01680
G1 X150.680 Y105.272 E0.39320
G1 X150.679 Y104.737 E0.01680
G1 X141.821 Y95.880 E0.39320
G1 X141.820 Y95.345 E0.01680
G1 X150.677 Y104.202 E0.39319
G1 X150.675 Y103.666 E0.01682
G1 X141.819 Y94.810 E0.39316
M73 Q2 S102
G1 X141.818 Y94.274 E0.01680
G1 X150.673 Y103.130 E0.39313
M73 P2 R101
G1 X150.671 Y102.594 E0.01682
G1 X141.816 Y93.739 E0.39309
G1 X141.815 Y93.204 E0.01680
G1 X150.669 Y102.058 E0.39306
G1 X150.667 Y101.523 E0.01682
G1 X141.814 Y92.669 E0.39303
G1 X141.812 Y92.134 E0.01680
G1 X150.665 Y100.987 E0.39300
G1 X150.663 Y100.451 E0.01682
G1 X141.811 Y91.599 E0.39297
G1 X141.810 Y91.064 E0.01680
G1 X150.661 Y99.915 E0.39294
G1 X150.659 Y99.379 E0.01682
G1 X141.809 Y90.528 E0.39291
G1 X141.807 Y89.993 E0.01680
G1 X150.657 Y98.843 E0.39288
G1 X150.656 Y98.307 E0.01682
G1 X141.806 Y89.458 E0.39285
G1 X141.805 Y88.923 E0.01680
G1 X150.654 Y97.772 E0.39282
G1 X150.652 Y97.236 E0.01682
G1 X141.804 Y88.388 E0.39279
G1 X141.802 Y87.853 E0.01680
G1 X150.650 Y96.700 E0.39276
G1 X150.648 Y96.164 E0.01682
G1 X141.801 Y87.317 E0.39273
G1 X141.800 Y86.782 E0.01680
G1 X150.646 Y95.628 E0.39270
G1 X150.644 Y95.092 E0.01682
G1 X141.798 Y86.247 E0.39267
G1 X141.797 Y85.712 E0.01680
G1 X150.642 Y94.557 E0.39264
