; generated by PrusaSlicer 2.2.0+linux-x64 on 2020-07-06 at 19:03:49 UTC

; 

; external perimeters extrusion width = 0.45mm
; perimeters extrusion width = 0.45mm
; infill extrusion width = 0.45mm
; solid infill extrusion width = 0.45mm
; top infill extrusion width = 0.40mm
; first layer extrusion width = 0.42mm

M73 P0 R106
M73 Q0 S107
M201 X1000 Y1000 Z200 E5000 ; sets maximum accelerations, mm/sec^2
M203 X200 Y200 Z12 E120 ; sets maximum feedrates, mm/sec
M204 P1250 R1250 T1250 ; sets acceleration (P, T) and retract acceleration (R), mm/sec^2
M205 X8.00 Y8.00 Z0.40 E4.50 ; sets the jerk limits, mm/sec
M205 S0 T0 ; sets the minimum extruding and travel feed rate, mm/sec
M107
M862.3 P "MK3" ; printer model check
M862.1 P0.4 ; nozzle diameter check
M115 U3.9.0 ; tell printer latest fw version
G90 ; use absolute coordinates
M83 ; extruder relative mode
M104 S225 ; set extruder temp
M140 S60 ; set bed temp
M190 S60 ; wait for bed temp
M109 S225 ; wait for extruder temp
G28 W ; home all without mesh bed level
G80 ; mesh bed leveling
G1 Y-3.0 F1000.0 ; go outside print area
G92 E0.0
G1 X60.0 E9.0 F1000.0 ; intro line
M73 Q0 S107
M73 P0 R106
G1 X100.0 E12.5 F1000.0 ; intro line
G92 E0.0
M221 S95
G21 ; set units to millimeters
G90 ; use absolute coordinates
M83 ; use relative distances for extrusion
M900 K0.06 ; Filament gcode LA 1.5
M900 K30 ; Filament gcode LA 1.0
;BEFORE_LAYER_CHANGE
G92 E0.0
;0.2


G1 E-0.80000 F2100.00000
G1 Z0.600 F10800.000
;AFTER_LAYER_CHANGE
;0.2
G1 X101.827 Y17.072
G1 Z0.200
G1 E0.80000 F2100.00000
M204 S1000
G1 F1200.000
G1 X102.440 Y16.639 E0.02355
G1 X103.158 Y16.418 E0.02355
G1 X115.266 Y16.395 E0.37965
G1 X145.685 Y16.904 E0.95389
G1 X146.402 Y17.070 E0.02308
G1 X147.037 Y17.449 E0.02319
G1 X147.525 Y18.005 E0.02319
G1 X147.819 Y18.684 E0.02319
G1 X149.765 Y31.143 E0.39539
G1 X152.137 Y47.306 E0.51220
G1 X154.631 Y65.154 E0.56504
G1 X156.420 Y78.783 E0.43100
G1 X157.789 Y90.066 E0.35635
G1 X159.054 Y101.622 E0.36452
G1 X159.945 Y110.800 E0.28910
G1 X160.909 Y122.328 E0.36271
G1 X161.761 Y134.977 E0.39750
G1 X162.607 Y152.712 E0.55673
G1 X163.051 Y168.076 E0.48190
G1 X163.280 Y182.986 E0.46756
G1 X163.334 Y194.573 E0.36331
G1 X163.142 Y195.253 E0.02213
G1 X162.760 Y195.846 E0.02213
G1 X162.216 Y196.303 E0.02225
G1 X161.566 Y196.578 E0.02213
G1 X160.990 Y196.652 E0.01823
G1 X149.991 Y196.652 E0.34486
G1 X87.961 Y196.148 E1.94498
G1 X87.212 Y196.004 E0.02390
G1 X86.548 Y195.631 E0.02390
G1 X86.033 Y195.063 E0.02402
G1 X85.727 Y194.365 E0.02390
G1 X85.653 Y193.815 E0.01740
G1 X85.664 Y190.897 E0.09149
G1 X85.837 Y173.792 E0.53635
G1 X86.025 Y164.434 E0.29349
G1 X86.381 Y152.672 E0.36894
G1 X87.271 Y134.004 E0.58600
G1 X88.060 Y122.294 E0.36799
G1 X88.597 Y115.577 E0.21127
G1 X89.643 Y104.166 E0.35928
G1 X90.544 Y95.529 E0.27231
G1 X92.952 Y75.399 E0.63564
G1 X94.695 Y62.286 E0.41478
G1 X96.868 Y46.801 E0.49027
G1 X99.239 Y30.642 E0.51207
G1 X101.143 Y18.385 E0.38893
G1 X101.379 Y17.676 E0.02343
G1 X101.791 Y17.121 E0.02167
G1 F8640.000
G1 X102.440 Y16.639 E-0.18663
G1 X103.158 Y16.418 E-0.17341
G1 X104.890 Y16.415 E-0.39996
G1 E-0.04000 F2100.00000
G1 Z0.800 F10800.000
G1 X134.669 Y20.062
G1 Z0.200
G1 E0.80000 F2100.00000
G1 F1200.000
G1 X144.846 Y20.062 E0.31907
G1 X145.669 Y25.279 E0.16558
G1 X146.636 Y31.615 E0.20096
G1 X148.660 Y45.358 E0.43555
G1 X150.816 Y60.614 E0.48311
G1 X152.600 Y73.870 E0.41939
G1 X153.999 Y84.981 E0.35112
G1 X154.984 Y93.391 E0.26549
G1 X155.906 Y101.946 E0.26979
G1 X156.794 Y111.084 E0.28786
G1 X157.294 Y116.803 E0.17999
G1 X157.754 Y122.572 E0.18148
G1 X158.204 Y128.842 E0.19708
G1 X158.575 Y134.696 E0.18392
G1 X158.902 Y140.578 E0.18470
G1 X159.226 Y147.394 E0.21398
G1 X159.462 Y153.292 E0.18507
G1 X159.658 Y159.172 E0.18447
G1 X159.897 Y168.595 E0.29554
G1 X160.004 Y174.343 E0.18025
G1 X160.142 Y185.990 E0.36520
G1 X160.184 Y193.488 E0.23510
G1 X150.786 Y193.488 E0.29468
G1 X150.679 Y182.794 E0.33532
G1 X150.543 Y174.867 E0.24859
G1 X150.453 Y170.838 E0.12636
G1 X150.226 Y162.686 E0.25570
G1 X150.070 Y158.186 E0.14119
G1 X149.690 Y149.151 E0.28354
G1 X149.213 Y140.107 E0.28395
G1 X148.938 Y135.596 E0.14170
G1 X148.638 Y131.103 E0.14121
G1 X148.312 Y126.631 E0.14056
G1 X147.925 Y121.757 E0.15331
G1 X147.509 Y116.916 E0.15235
G1 X147.066 Y112.109 E0.15134
G1 X146.597 Y107.339 E0.15029
G1 X146.105 Y102.606 E0.14921
G1 X145.059 Y93.260 E0.29486
G1 X143.983 Y84.403 E0.27975
G1 X143.446 Y80.192 E0.13309
G1 X142.349 Y71.899 E0.26229
G1 X140.676 Y59.831 E0.38200
G1 X139.568 Y52.104 E0.24477
G1 X138.222 Y42.908 E0.29141
G1 X137.180 Y35.967 E0.22006
G1 X136.178 Y29.455 E0.20658
G1 X134.679 Y20.122 E0.29639
G1 X134.225 Y19.685 F10800.000
G1 F1200.000
G1 X145.168 Y19.685 E0.34308
G1 X146.041 Y25.221 E0.17572
G1 X147.009 Y31.559 E0.20102
G1 X149.033 Y45.304 E0.43561
G1 X151.190 Y60.562 E0.48318
G1 X152.973 Y73.821 E0.41948
G1 X154.374 Y84.935 E0.35122
G1 X155.359 Y93.349 E0.26560
G1 X156.282 Y101.907 E0.26991
G1 X157.169 Y111.049 E0.28798
G1 X157.670 Y116.771 E0.18010
G1 X158.131 Y122.544 E0.18157
G1 X158.580 Y128.817 E0.19718
G1 X158.951 Y134.674 E0.18401
G1 X159.279 Y140.558 E0.18479
G1 X159.603 Y147.378 E0.21407
G1 X159.839 Y153.278 E0.18515
G1 X160.035 Y159.161 E0.18456
G1 X160.274 Y168.587 E0.29563
G1 X160.381 Y174.337 E0.18032
G1 X160.519 Y185.987 E0.36530
G1 X160.564 Y193.865 E0.24701
G1 X150.413 Y193.865 E0.31827
G1 X150.302 Y182.799 E0.34698
G1 X150.166 Y174.874 E0.24852
G1 X150.076 Y170.847 E0.12629
G1 X149.849 Y162.698 E0.25562
G1 X149.694 Y158.200 E0.14110
G1 X149.313 Y149.169 E0.28343
G1 X148.837 Y140.129 E0.28384
G1 X148.562 Y135.620 E0.14162
G1 X148.261 Y131.129 E0.14114
G1 X147.936 Y126.660 E0.14049
G1 X147.549 Y121.788 E0.15324
G1 X147.133 Y116.949 E0.15228
G1 X146.690 Y112.145 E0.15127
M73 Q0 S106
M73 P1 R105
G1 X146.222 Y107.377 E0.15022
G1 X145.730 Y102.646 E0.14913
G1 X144.684 Y93.304 E0.29476
G1 X143.608 Y84.450 E0.27966
G1 X143.072 Y80.241 E0.13303
G1 X141.976 Y71.950 E0.26222
G1 X140.302 Y59.884 E0.38194
G1 X139.195 Y52.158 E0.24473
G1 X137.849 Y42.963 E0.29137
G1 X136.807 Y36.024 E0.22002
G1 X135.805 Y29.513 E0.20653
G1 X134.844 Y23.452 E0.19242
G1 X134.235 Y19.744 E0.11781
G1 X134.582 Y19.867 F10800.000
G1 F8640.000
G1 X137.526 Y19.727 E-0.76000
G1 E-0.04000 F2100.00000
G1 Z0.800 F10800.000
G1 X150.890 Y192.604
G1 Z0.200
G1 E0.80000 F2100.00000
G1 F1200.000
G1 X151.492 Y193.205 E0.02671
G1 X152.026 Y193.205 E0.01676
G1 X151.056 Y192.236 E0.04305
G1 X151.051 Y191.696 E0.01693
G1 X152.560 Y193.205 E0.06699
G1 X153.094 Y193.205 E0.01676
G1 X151.045 Y191.157 E0.09094
G1 X151.040 Y190.618 E0.01693
G1 X153.628 Y193.205 E0.11489
G1 X154.162 Y193.205 E0.01676
G1 X151.035 Y190.078 E0.13883
G1 X151.029 Y189.539 E0.01693
G1 X154.696 Y193.205 E0.16278
G1 X155.229 Y193.205 E0.01676
G1 X151.024 Y189.000 E0.18672
G1 X151.018 Y188.460 E0.01693
G1 X155.763 Y193.205 E0.21067
G1 X156.297 Y193.205 E0.01676
G1 X151.013 Y187.921 E0.23462
G1 X151.007 Y187.382 E0.01693
G1 X156.831 Y193.205 E0.25856
G1 X157.365 Y193.205 E0.01676
G1 X151.002 Y186.842 E0.28251
G1 X150.997 Y186.303 E0.01693
G1 X157.899 Y193.205 E0.30645
G1 X158.433 Y193.205 E0.01676
G1 X150.991 Y185.763 E0.33040
G1 X150.986 Y185.224 E0.01693
G1 X158.967 Y193.205 E0.35435
G1 X159.501 Y193.205 E0.01676
G1 X150.980 Y184.685 E0.37829
G1 X150.975 Y184.145 E0.01693
G1 X159.899 Y193.070 E0.39621
G1 X159.896 Y192.533 E0.01686
G1 X150.970 Y183.606 E0.39632
G1 X150.964 Y183.067 E0.01693
G1 X159.893 Y191.996 E0.39642
G1 X159.890 Y191.459 E0.01686
G1 X150.957 Y182.525 E0.39661
G1 X150.948 Y181.982 E0.01706
G1 X159.887 Y190.922 E0.39689
G1 X159.884 Y190.385 E0.01686
G1 X150.938 Y181.439 E0.39717
G1 X150.929 Y180.896 E0.01706
G1 X159.881 Y189.848 E0.39744
G1 X159.878 Y189.311 E0.01686
G1 X150.920 Y180.352 E0.39772
G1 X150.910 Y179.809 E0.01706
G1 X159.875 Y188.774 E0.39800
G1 X159.872 Y188.237 E0.01686
G1 X150.901 Y179.266 E0.39828
G1 X150.892 Y178.723 E0.01706
G1 X159.869 Y187.700 E0.39856
G1 X159.866 Y187.163 E0.01686
G1 X150.882 Y178.179 E0.39883
G1 X150.873 Y177.636 E0.01706
G1 X159.863 Y186.626 E0.39911
G1 X159.860 Y186.089 E0.01686
G1 X150.864 Y177.093 E0.39939
G1 X150.854 Y176.550 E0.01706
G1 X159.854 Y185.549 E0.39955
G1 X159.847 Y185.009 E0.01696
G1 X150.845 Y176.006 E0.39968
G1 X150.836 Y175.463 E0.01706
G1 X159.841 Y184.468 E0.39981
G1 X159.835 Y183.928 E0.01696
G1 X150.827 Y174.920 E0.39993
G1 X150.815 Y174.374 E0.01714
G1 X159.828 Y183.388 E0.40018
G1 X159.822 Y182.847 E0.01696
G1 X150.803 Y173.828 E0.40043
G1 X150.790 Y173.282 E0.01715
G1 X159.815 Y182.307 E0.40068
G1 X159.809 Y181.767 E0.01696
G1 X150.778 Y172.736 E0.40094
G1 X150.766 Y172.190 E0.01715
G1 X159.803 Y181.226 E0.40119
G1 X159.796 Y180.686 E0.01696
G1 X150.754 Y171.644 E0.40145
G1 X150.742 Y171.098 E0.01715
G1 X159.790 Y180.146 E0.40170
G1 X159.784 Y179.605 E0.01696
G1 X150.728 Y170.550 E0.40203
G1 X150.713 Y170.001 E0.01725
G1 X159.777 Y179.065 E0.40243
G1 X159.771 Y178.525 E0.01696
G1 X150.698 Y169.452 E0.40282
G1 X150.682 Y168.902 E0.01725
G1 X159.764 Y177.984 E0.40322
G1 X159.758 Y177.444 E0.01696
G1 X150.667 Y168.353 E0.40362
G1 X150.652 Y167.804 E0.01725
G1 X159.752 Y176.904 E0.40402
G1 X159.745 Y176.364 E0.01696
G1 X150.636 Y167.255 E0.40441
G1 X150.621 Y166.705 E0.01725
G1 X159.739 Y175.823 E0.40481
G1 X159.732 Y175.283 E0.01696
G1 X150.606 Y166.156 E0.40521
G1 X150.590 Y165.607 E0.01725
G1 X159.726 Y174.743 E0.40560
G1 X159.721 Y174.348 E0.01240
G1 X159.719 Y174.201 E0.00460
G1 X150.575 Y165.057 E0.40596
G1 X150.560 Y164.508 E0.01725
G1 X159.709 Y173.657 E0.40619
G1 X159.698 Y173.113 E0.01708
G1 X150.544 Y163.959 E0.40642
G1 X150.529 Y163.410 E0.01725
G1 X159.688 Y172.569 E0.40666
G1 X159.678 Y172.025 E0.01708
G1 X150.513 Y162.860 E0.40689
G1 X150.496 Y162.309 E0.01733
G1 X159.668 Y171.481 E0.40723
G1 X159.658 Y170.937 E0.01708
G1 X150.477 Y161.756 E0.40763
G1 X150.457 Y161.202 E0.01737
G1 X159.648 Y170.393 E0.40803
G1 X159.638 Y169.849 E0.01708
G1 X150.438 Y160.649 E0.40843
G1 X150.419 Y160.096 E0.01737
G1 X159.628 Y169.305 E0.40883
G1 X159.618 Y168.761 E0.01708
G1 X150.400 Y159.543 E0.40923
G1 X150.381 Y158.990 E0.01737
G1 X159.605 Y168.214 E0.40951
G1 X159.591 Y167.666 E0.01720
G1 X150.362 Y158.437 E0.40974
G1 X150.341 Y157.882 E0.01745
G1 X159.577 Y167.118 E0.41007
G1 X159.563 Y166.571 E0.01720
G1 X150.317 Y157.325 E0.41049
G1 X150.294 Y156.767 E0.01751
G1 X159.549 Y166.023 E0.41092
G1 X159.535 Y165.475 E0.01720
G1 X150.270 Y156.210 E0.41134
G1 X150.247 Y155.652 E0.01751
G1 X159.521 Y164.927 E0.41176
G1 X159.507 Y164.379 E0.01720
G1 X150.223 Y155.095 E0.41219
G1 X150.200 Y154.538 E0.01751
G1 X159.493 Y163.831 E0.41261
G1 X159.480 Y163.283 E0.01720
G1 X150.176 Y153.980 E0.41304
G1 X150.153 Y153.423 E0.01751
G1 X159.466 Y162.735 E0.41346
G1 X159.452 Y162.188 E0.01720
G1 X150.129 Y152.865 E0.41389
G1 X150.106 Y152.308 E0.01751
G1 X159.438 Y161.640 E0.41431
G1 X159.424 Y161.092 E0.01720
G1 X150.082 Y151.750 E0.41473
G1 X150.059 Y151.193 E0.01751
G1 X159.410 Y160.544 E0.41516
G1 X159.396 Y159.996 E0.01720
G1 X150.035 Y150.636 E0.41558
G1 X150.012 Y150.078 E0.01751
G1 X159.382 Y159.448 E0.41601
G1 X159.375 Y159.181 E0.00840
G1 X159.366 Y158.898 E0.00888
G1 X149.988 Y149.521 E0.41633
G1 X149.963 Y148.961 E0.01758
G1 X159.347 Y158.346 E0.41664
G1 X159.329 Y157.794 E0.01735
G1 X149.933 Y148.398 E0.41714
G1 X149.904 Y147.834 E0.01772
G1 X159.311 Y157.241 E0.41765
G1 X159.292 Y156.689 E0.01735
G1 X149.874 Y147.271 E0.41815
G1 X149.844 Y146.707 E0.01772
G1 X159.274 Y156.137 E0.41865
G1 X159.256 Y155.584 E0.01735
G1 X149.815 Y146.143 E0.41915
M73 Q1 S105
G1 X149.785 Y145.580 E0.01772
G1 X159.237 Y155.032 E0.41966
M73 P1 R104
G1 X159.219 Y154.480 E0.01735
G1 X149.755 Y145.016 E0.42016
G1 X149.725 Y144.452 E0.01772
G1 X159.200 Y153.927 E0.42066
G1 X159.182 Y153.375 E0.01735
G1 X149.696 Y143.889 E0.42116
G1 X149.666 Y143.325 E0.01772
G1 X159.160 Y152.819 E0.42152
G1 X159.138 Y152.263 E0.01747
G1 X149.636 Y142.761 E0.42185
G1 X149.607 Y142.198 E0.01772
G1 X159.116 Y151.707 E0.42218
G1 X159.094 Y151.151 E0.01747
G1 X149.577 Y141.634 E0.42251
G1 X149.547 Y141.070 E0.01772
G1 X159.071 Y150.595 E0.42284
G1 X159.049 Y150.038 E0.01747
G1 X149.518 Y140.507 E0.42317
G1 X149.487 Y139.942 E0.01776
G1 X159.027 Y149.482 E0.42356
G1 X159.005 Y148.926 E0.01747
G1 X149.452 Y139.373 E0.42411
G1 X149.417 Y138.805 E0.01789
G1 X158.982 Y148.370 E0.42467
G1 X158.960 Y147.814 E0.01747
G1 X149.382 Y138.236 E0.42522
G1 X149.348 Y137.667 E0.01789
G1 X158.937 Y147.256 E0.42572
G1 X158.910 Y146.696 E0.01762
G1 X149.313 Y137.099 E0.42608
G1 X149.278 Y136.530 E0.01789
G1 X158.883 Y146.135 E0.42643
G1 X158.857 Y145.574 E0.01762
G1 X149.244 Y135.961 E0.42679
G1 X149.208 Y135.392 E0.01792
G1 X158.830 Y145.014 E0.42720
G1 X158.803 Y144.453 E0.01762
G1 X149.170 Y134.819 E0.42771
G1 X149.131 Y134.247 E0.01800
G1 X158.777 Y143.893 E0.42823
G1 X158.750 Y143.332 E0.01762
G1 X149.093 Y133.675 E0.42874
G1 X149.055 Y133.103 E0.01800
G1 X158.723 Y142.771 E0.42926
G1 X158.697 Y142.211 E0.01762
G1 X149.016 Y132.531 E0.42977
G1 X148.978 Y131.958 E0.01800
G1 X158.670 Y141.650 E0.43029
G1 X158.643 Y141.090 E0.01762
G1 X148.940 Y131.386 E0.43080
G1 X148.900 Y130.812 E0.01806
G1 X158.616 Y140.528 E0.43137
G1 X158.585 Y139.963 E0.01778
G1 X148.858 Y130.236 E0.43184
G1 X148.816 Y129.660 E0.01813
G1 X158.553 Y139.398 E0.43231
G1 X158.522 Y138.832 E0.01778
G1 X148.774 Y129.084 E0.43277
G1 X148.732 Y128.509 E0.01813
G1 X158.490 Y138.267 E0.43324
G1 X158.459 Y137.701 E0.01778
G1 X148.690 Y127.933 E0.43371
G1 X148.648 Y127.357 E0.01813
G1 X158.427 Y137.136 E0.43418
G1 X158.396 Y136.571 E0.01778
G1 X148.606 Y126.781 E0.43465
G1 X148.561 Y126.202 E0.01822
G1 X158.365 Y136.005 E0.43524
G1 X158.333 Y135.440 E0.01778
G1 X148.515 Y125.622 E0.43589
G1 X148.469 Y125.042 E0.01827
G1 X158.302 Y134.875 E0.43654
G1 X158.267 Y134.306 E0.01789
G1 X148.423 Y124.462 E0.43704
G1 X148.377 Y123.882 E0.01827
G1 X158.231 Y133.736 E0.43748
G1 X158.195 Y133.166 E0.01793
G1 X148.331 Y123.302 E0.43792
G1 X148.285 Y122.722 E0.01826
G1 X158.158 Y132.596 E0.43836
G1 X158.122 Y132.025 E0.01793
G1 X148.239 Y122.142 E0.43879
G1 X148.192 Y121.561 E0.01831
G1 X158.086 Y131.455 E0.43929
G1 X158.050 Y130.885 E0.01793
G1 X148.141 Y120.977 E0.43991
G1 X148.091 Y120.393 E0.01841
G1 X158.014 Y130.315 E0.44053
G1 X157.978 Y129.745 E0.01793
G1 X148.041 Y119.808 E0.44115
G1 X147.991 Y119.224 E0.01841
G1 X157.941 Y129.175 E0.44178
G1 X157.903 Y128.603 E0.01801
G1 X147.941 Y118.640 E0.44230
G1 X147.890 Y118.056 E0.01841
G1 X157.862 Y128.027 E0.44270
G1 X157.821 Y127.452 E0.01810
G1 X147.840 Y117.472 E0.44310
G1 X147.790 Y116.888 E0.01841
G1 X157.779 Y126.877 E0.44350
G1 X157.738 Y126.302 E0.01810
G1 X147.736 Y116.300 E0.44408
G1 X147.682 Y115.711 E0.01854
G1 X157.697 Y125.727 E0.44465
G1 X157.656 Y125.152 E0.01810
G1 X147.627 Y115.123 E0.44523
G1 X147.573 Y114.535 E0.01854
G1 X157.615 Y124.577 E0.44581
G1 X157.573 Y124.001 E0.01810
G1 X147.519 Y113.947 E0.44639
G1 X147.465 Y113.359 E0.01854
G1 X157.532 Y123.426 E0.44697
G1 X157.491 Y122.851 E0.01810
G1 X147.410 Y112.771 E0.44754
G1 X147.356 Y112.182 E0.01854
G1 X157.447 Y122.273 E0.44800
G1 X157.401 Y121.693 E0.01827
G1 X147.299 Y111.591 E0.44850
G1 X147.241 Y110.999 E0.01868
G1 X157.354 Y121.113 E0.44902
G1 X157.308 Y120.533 E0.01827
G1 X147.183 Y110.407 E0.44955
G1 X147.124 Y109.815 E0.01868
G1 X157.262 Y119.952 E0.45008
G1 X157.216 Y119.372 E0.01827
G1 X147.066 Y109.223 E0.45060
G1 X147.008 Y108.631 E0.01868
G1 X157.169 Y118.792 E0.45113
G1 X157.123 Y118.212 E0.01827
G1 X146.950 Y108.039 E0.45166
G1 X146.892 Y107.447 E0.01868
G1 X157.077 Y117.631 E0.45218
G1 X157.030 Y117.051 E0.01827
G1 X146.831 Y106.852 E0.45284
G1 X146.769 Y106.256 E0.01881
G1 X156.981 Y116.468 E0.45340
G1 X156.930 Y115.883 E0.01844
G1 X146.707 Y105.660 E0.45387
G1 X146.645 Y105.064 E0.01881
G1 X156.879 Y115.298 E0.45435
G1 X156.828 Y114.713 E0.01844
G1 X146.583 Y104.468 E0.45482
G1 X146.521 Y103.872 E0.01881
G1 X156.776 Y114.127 E0.45530
G1 X156.725 Y113.542 E0.01844
G1 X146.459 Y103.276 E0.45577
